( pcb2gcode 1.1.4 )

( This file uses a mill head of 0.03 to drill the 9bit sizes. )

G94     ( Inches per minute feed rate. )
G20     ( Units == INCHES.             )
G90     ( Absolute coordinates.        )
S10000  ( RPM spindle speed.           )
M3
G91.1
G0 Z0.10000

F1.00000
#50=-0.10000 ; zwork
#51=0.02000 ; zsafe
#52=0.00800 ; stepsize
G0 X0.10400 Y3.11000
G1 Z[#50+12*#52]
G2 I-0.00400 J0
G1 Z[#50+11*#52]
G2 I-0.00400 J0
G1 Z[#50+10*#52]
G2 I-0.00400 J0
G1 Z[#50+9*#52]
G2 I-0.00400 J0
G1 Z[#50+8*#52]
G2 I-0.00400 J0
G1 Z[#50+7*#52]
G2 I-0.00400 J0
G1 Z[#50+6*#52]
G2 I-0.00400 J0
G1 Z[#50+5*#52]
G2 I-0.00400 J0
G1 Z[#50+4*#52]
G2 I-0.00400 J0
G1 Z[#50+3*#52]
G2 I-0.00400 J0
G1 Z[#50+2*#52]
G2 I-0.00400 J0
G1 Z[#50+1*#52]
G2 I-0.00400 J0
G0 Z0.02000

G0 X0.10400 Y3.01000
G1 Z[#50+12*#52]
G2 I-0.00400 J0
G1 Z[#50+11*#52]
G2 I-0.00400 J0
G1 Z[#50+10*#52]
G2 I-0.00400 J0
G1 Z[#50+9*#52]
G2 I-0.00400 J0
G1 Z[#50+8*#52]
G2 I-0.00400 J0
G1 Z[#50+7*#52]
G2 I-0.00400 J0
G1 Z[#50+6*#52]
G2 I-0.00400 J0
G1 Z[#50+5*#52]
G2 I-0.00400 J0
G1 Z[#50+4*#52]
G2 I-0.00400 J0
G1 Z[#50+3*#52]
G2 I-0.00400 J0
G1 Z[#50+2*#52]
G2 I-0.00400 J0
G1 Z[#50+1*#52]
G2 I-0.00400 J0
G0 Z0.02000

G0 X0.00400 Y3.11000
G1 Z[#50+12*#52]
G2 I-0.00400 J0
G1 Z[#50+11*#52]
G2 I-0.00400 J0
G1 Z[#50+10*#52]
G2 I-0.00400 J0
G1 Z[#50+9*#52]
G2 I-0.00400 J0
G1 Z[#50+8*#52]
G2 I-0.00400 J0
G1 Z[#50+7*#52]
G2 I-0.00400 J0
G1 Z[#50+6*#52]
G2 I-0.00400 J0
G1 Z[#50+5*#52]
G2 I-0.00400 J0
G1 Z[#50+4*#52]
G2 I-0.00400 J0
G1 Z[#50+3*#52]
G2 I-0.00400 J0
G1 Z[#50+2*#52]
G2 I-0.00400 J0
G1 Z[#50+1*#52]
G2 I-0.00400 J0
G0 Z0.02000

G0 X0.00400 Y3.01000
G1 Z[#50+12*#52]
G2 I-0.00400 J0
G1 Z[#50+11*#52]
G2 I-0.00400 J0
G1 Z[#50+10*#52]
G2 I-0.00400 J0
G1 Z[#50+9*#52]
G2 I-0.00400 J0
G1 Z[#50+8*#52]
G2 I-0.00400 J0
G1 Z[#50+7*#52]
G2 I-0.00400 J0
G1 Z[#50+6*#52]
G2 I-0.00400 J0
G1 Z[#50+5*#52]
G2 I-0.00400 J0
G1 Z[#50+4*#52]
G2 I-0.00400 J0
G1 Z[#50+3*#52]
G2 I-0.00400 J0
G1 Z[#50+2*#52]
G2 I-0.00400 J0
G1 Z[#50+1*#52]
G2 I-0.00400 J0
G0 Z0.02000

G0 X-0.06100 Y3.67000
G1 Z[#50+12*#52]
G2 I-0.00400 J0
G1 Z[#50+11*#52]
G2 I-0.00400 J0
G1 Z[#50+10*#52]
G2 I-0.00400 J0
G1 Z[#50+9*#52]
G2 I-0.00400 J0
G1 Z[#50+8*#52]
G2 I-0.00400 J0
G1 Z[#50+7*#52]
G2 I-0.00400 J0
G1 Z[#50+6*#52]
G2 I-0.00400 J0
G1 Z[#50+5*#52]
G2 I-0.00400 J0
G1 Z[#50+4*#52]
G2 I-0.00400 J0
G1 Z[#50+3*#52]
G2 I-0.00400 J0
G1 Z[#50+2*#52]
G2 I-0.00400 J0
G1 Z[#50+1*#52]
G2 I-0.00400 J0
G0 Z0.02000

G0 X-0.06100 Y3.37500
G1 Z[#50+12*#52]
G2 I-0.00400 J0
G1 Z[#50+11*#52]
G2 I-0.00400 J0
G1 Z[#50+10*#52]
G2 I-0.00400 J0
G1 Z[#50+9*#52]
G2 I-0.00400 J0
G1 Z[#50+8*#52]
G2 I-0.00400 J0
G1 Z[#50+7*#52]
G2 I-0.00400 J0
G1 Z[#50+6*#52]
G2 I-0.00400 J0
G1 Z[#50+5*#52]
G2 I-0.00400 J0
G1 Z[#50+4*#52]
G2 I-0.00400 J0
G1 Z[#50+3*#52]
G2 I-0.00400 J0
G1 Z[#50+2*#52]
G2 I-0.00400 J0
G1 Z[#50+1*#52]
G2 I-0.00400 J0
G0 Z0.02000

G0 X-0.09600 Y3.11000
G1 Z[#50+12*#52]
G2 I-0.00400 J0
G1 Z[#50+11*#52]
G2 I-0.00400 J0
G1 Z[#50+10*#52]
G2 I-0.00400 J0
G1 Z[#50+9*#52]
G2 I-0.00400 J0
G1 Z[#50+8*#52]
G2 I-0.00400 J0
G1 Z[#50+7*#52]
G2 I-0.00400 J0
G1 Z[#50+6*#52]
G2 I-0.00400 J0
G1 Z[#50+5*#52]
G2 I-0.00400 J0
G1 Z[#50+4*#52]
G2 I-0.00400 J0
G1 Z[#50+3*#52]
G2 I-0.00400 J0
G1 Z[#50+2*#52]
G2 I-0.00400 J0
G1 Z[#50+1*#52]
G2 I-0.00400 J0
G0 Z0.02000

G0 X-0.09600 Y3.01000
G1 Z[#50+12*#52]
G2 I-0.00400 J0
G1 Z[#50+11*#52]
G2 I-0.00400 J0
G1 Z[#50+10*#52]
G2 I-0.00400 J0
G1 Z[#50+9*#52]
G2 I-0.00400 J0
G1 Z[#50+8*#52]
G2 I-0.00400 J0
G1 Z[#50+7*#52]
G2 I-0.00400 J0
G1 Z[#50+6*#52]
G2 I-0.00400 J0
G1 Z[#50+5*#52]
G2 I-0.00400 J0
G1 Z[#50+4*#52]
G2 I-0.00400 J0
G1 Z[#50+3*#52]
G2 I-0.00400 J0
G1 Z[#50+2*#52]
G2 I-0.00400 J0
G1 Z[#50+1*#52]
G2 I-0.00400 J0
G0 Z0.02000

G0 X-0.09620 Y2.74620
G1 Z[#50+12*#52]
G2 I-0.00400 J0
G1 Z[#50+11*#52]
G2 I-0.00400 J0
G1 Z[#50+10*#52]
G2 I-0.00400 J0
G1 Z[#50+9*#52]
G2 I-0.00400 J0
G1 Z[#50+8*#52]
G2 I-0.00400 J0
G1 Z[#50+7*#52]
G2 I-0.00400 J0
G1 Z[#50+6*#52]
G2 I-0.00400 J0
G1 Z[#50+5*#52]
G2 I-0.00400 J0
G1 Z[#50+4*#52]
G2 I-0.00400 J0
G1 Z[#50+3*#52]
G2 I-0.00400 J0
G1 Z[#50+2*#52]
G2 I-0.00400 J0
G1 Z[#50+1*#52]
G2 I-0.00400 J0
G0 Z0.02000

G0 X-0.09620 Y2.64620
G1 Z[#50+12*#52]
G2 I-0.00400 J0
G1 Z[#50+11*#52]
G2 I-0.00400 J0
G1 Z[#50+10*#52]
G2 I-0.00400 J0
G1 Z[#50+9*#52]
G2 I-0.00400 J0
G1 Z[#50+8*#52]
G2 I-0.00400 J0
G1 Z[#50+7*#52]
G2 I-0.00400 J0
G1 Z[#50+6*#52]
G2 I-0.00400 J0
G1 Z[#50+5*#52]
G2 I-0.00400 J0
G1 Z[#50+4*#52]
G2 I-0.00400 J0
G1 Z[#50+3*#52]
G2 I-0.00400 J0
G1 Z[#50+2*#52]
G2 I-0.00400 J0
G1 Z[#50+1*#52]
G2 I-0.00400 J0
G0 Z0.02000

G0 X-0.09620 Y2.54620
G1 Z[#50+12*#52]
G2 I-0.00400 J0
G1 Z[#50+11*#52]
G2 I-0.00400 J0
G1 Z[#50+10*#52]
G2 I-0.00400 J0
G1 Z[#50+9*#52]
G2 I-0.00400 J0
G1 Z[#50+8*#52]
G2 I-0.00400 J0
G1 Z[#50+7*#52]
G2 I-0.00400 J0
G1 Z[#50+6*#52]
G2 I-0.00400 J0
G1 Z[#50+5*#52]
G2 I-0.00400 J0
G1 Z[#50+4*#52]
G2 I-0.00400 J0
G1 Z[#50+3*#52]
G2 I-0.00400 J0
G1 Z[#50+2*#52]
G2 I-0.00400 J0
G1 Z[#50+1*#52]
G2 I-0.00400 J0
G0 Z0.02000

G0 X-0.09620 Y2.44620
G1 Z[#50+12*#52]
G2 I-0.00400 J0
G1 Z[#50+11*#52]
G2 I-0.00400 J0
G1 Z[#50+10*#52]
G2 I-0.00400 J0
G1 Z[#50+9*#52]
G2 I-0.00400 J0
G1 Z[#50+8*#52]
G2 I-0.00400 J0
G1 Z[#50+7*#52]
G2 I-0.00400 J0
G1 Z[#50+6*#52]
G2 I-0.00400 J0
G1 Z[#50+5*#52]
G2 I-0.00400 J0
G1 Z[#50+4*#52]
G2 I-0.00400 J0
G1 Z[#50+3*#52]
G2 I-0.00400 J0
G1 Z[#50+2*#52]
G2 I-0.00400 J0
G1 Z[#50+1*#52]
G2 I-0.00400 J0
G0 Z0.02000

G0 X-0.09620 Y2.34620
G1 Z[#50+12*#52]
G2 I-0.00400 J0
G1 Z[#50+11*#52]
G2 I-0.00400 J0
G1 Z[#50+10*#52]
G2 I-0.00400 J0
G1 Z[#50+9*#52]
G2 I-0.00400 J0
G1 Z[#50+8*#52]
G2 I-0.00400 J0
G1 Z[#50+7*#52]
G2 I-0.00400 J0
G1 Z[#50+6*#52]
G2 I-0.00400 J0
G1 Z[#50+5*#52]
G2 I-0.00400 J0
G1 Z[#50+4*#52]
G2 I-0.00400 J0
G1 Z[#50+3*#52]
G2 I-0.00400 J0
G1 Z[#50+2*#52]
G2 I-0.00400 J0
G1 Z[#50+1*#52]
G2 I-0.00400 J0
G0 Z0.02000

G0 X-0.16100 Y3.67000
G1 Z[#50+12*#52]
G2 I-0.00400 J0
G1 Z[#50+11*#52]
G2 I-0.00400 J0
G1 Z[#50+10*#52]
G2 I-0.00400 J0
G1 Z[#50+9*#52]
G2 I-0.00400 J0
G1 Z[#50+8*#52]
G2 I-0.00400 J0
G1 Z[#50+7*#52]
G2 I-0.00400 J0
G1 Z[#50+6*#52]
G2 I-0.00400 J0
G1 Z[#50+5*#52]
G2 I-0.00400 J0
G1 Z[#50+4*#52]
G2 I-0.00400 J0
G1 Z[#50+3*#52]
G2 I-0.00400 J0
G1 Z[#50+2*#52]
G2 I-0.00400 J0
G1 Z[#50+1*#52]
G2 I-0.00400 J0
G0 Z0.02000

G0 X-0.16100 Y3.37500
G1 Z[#50+12*#52]
G2 I-0.00400 J0
G1 Z[#50+11*#52]
G2 I-0.00400 J0
G1 Z[#50+10*#52]
G2 I-0.00400 J0
G1 Z[#50+9*#52]
G2 I-0.00400 J0
G1 Z[#50+8*#52]
G2 I-0.00400 J0
G1 Z[#50+7*#52]
G2 I-0.00400 J0
G1 Z[#50+6*#52]
G2 I-0.00400 J0
G1 Z[#50+5*#52]
G2 I-0.00400 J0
G1 Z[#50+4*#52]
G2 I-0.00400 J0
G1 Z[#50+3*#52]
G2 I-0.00400 J0
G1 Z[#50+2*#52]
G2 I-0.00400 J0
G1 Z[#50+1*#52]
G2 I-0.00400 J0
G0 Z0.02000

G0 X-0.19620 Y2.74620
G1 Z[#50+12*#52]
G2 I-0.00400 J0
G1 Z[#50+11*#52]
G2 I-0.00400 J0
G1 Z[#50+10*#52]
G2 I-0.00400 J0
G1 Z[#50+9*#52]
G2 I-0.00400 J0
G1 Z[#50+8*#52]
G2 I-0.00400 J0
G1 Z[#50+7*#52]
G2 I-0.00400 J0
G1 Z[#50+6*#52]
G2 I-0.00400 J0
G1 Z[#50+5*#52]
G2 I-0.00400 J0
G1 Z[#50+4*#52]
G2 I-0.00400 J0
G1 Z[#50+3*#52]
G2 I-0.00400 J0
G1 Z[#50+2*#52]
G2 I-0.00400 J0
G1 Z[#50+1*#52]
G2 I-0.00400 J0
G0 Z0.02000

G0 X-0.19620 Y2.64620
G1 Z[#50+12*#52]
G2 I-0.00400 J0
G1 Z[#50+11*#52]
G2 I-0.00400 J0
G1 Z[#50+10*#52]
G2 I-0.00400 J0
G1 Z[#50+9*#52]
G2 I-0.00400 J0
G1 Z[#50+8*#52]
G2 I-0.00400 J0
G1 Z[#50+7*#52]
G2 I-0.00400 J0
G1 Z[#50+6*#52]
G2 I-0.00400 J0
G1 Z[#50+5*#52]
G2 I-0.00400 J0
G1 Z[#50+4*#52]
G2 I-0.00400 J0
G1 Z[#50+3*#52]
G2 I-0.00400 J0
G1 Z[#50+2*#52]
G2 I-0.00400 J0
G1 Z[#50+1*#52]
G2 I-0.00400 J0
G0 Z0.02000

G0 X-0.19620 Y2.54620
G1 Z[#50+12*#52]
G2 I-0.00400 J0
G1 Z[#50+11*#52]
G2 I-0.00400 J0
G1 Z[#50+10*#52]
G2 I-0.00400 J0
G1 Z[#50+9*#52]
G2 I-0.00400 J0
G1 Z[#50+8*#52]
G2 I-0.00400 J0
G1 Z[#50+7*#52]
G2 I-0.00400 J0
G1 Z[#50+6*#52]
G2 I-0.00400 J0
G1 Z[#50+5*#52]
G2 I-0.00400 J0
G1 Z[#50+4*#52]
G2 I-0.00400 J0
G1 Z[#50+3*#52]
G2 I-0.00400 J0
G1 Z[#50+2*#52]
G2 I-0.00400 J0
G1 Z[#50+1*#52]
G2 I-0.00400 J0
G0 Z0.02000

G0 X-0.19620 Y2.44620
G1 Z[#50+12*#52]
G2 I-0.00400 J0
G1 Z[#50+11*#52]
G2 I-0.00400 J0
G1 Z[#50+10*#52]
G2 I-0.00400 J0
G1 Z[#50+9*#52]
G2 I-0.00400 J0
G1 Z[#50+8*#52]
G2 I-0.00400 J0
G1 Z[#50+7*#52]
G2 I-0.00400 J0
G1 Z[#50+6*#52]
G2 I-0.00400 J0
G1 Z[#50+5*#52]
G2 I-0.00400 J0
G1 Z[#50+4*#52]
G2 I-0.00400 J0
G1 Z[#50+3*#52]
G2 I-0.00400 J0
G1 Z[#50+2*#52]
G2 I-0.00400 J0
G1 Z[#50+1*#52]
G2 I-0.00400 J0
G0 Z0.02000

G0 X-0.19620 Y2.34620
G1 Z[#50+12*#52]
G2 I-0.00400 J0
G1 Z[#50+11*#52]
G2 I-0.00400 J0
G1 Z[#50+10*#52]
G2 I-0.00400 J0
G1 Z[#50+9*#52]
G2 I-0.00400 J0
G1 Z[#50+8*#52]
G2 I-0.00400 J0
G1 Z[#50+7*#52]
G2 I-0.00400 J0
G1 Z[#50+6*#52]
G2 I-0.00400 J0
G1 Z[#50+5*#52]
G2 I-0.00400 J0
G1 Z[#50+4*#52]
G2 I-0.00400 J0
G1 Z[#50+3*#52]
G2 I-0.00400 J0
G1 Z[#50+2*#52]
G2 I-0.00400 J0
G1 Z[#50+1*#52]
G2 I-0.00400 J0
G0 Z0.02000

G0 X-0.50000 Y3.07000
G1 Z#50
G0 Z#51

G0 X-0.70000 Y3.07000
G1 Z#50
G0 Z#51

G0 X-1.21300 Y3.61000
G1 Z#50
G0 Z#51

G0 X-1.21300 Y2.74400
G1 Z#50
G0 Z#51

G0 X-1.24020 Y2.12120
G1 Z#50
G0 Z#51

G0 X-1.29200 Y3.61000
G1 Z#50
G0 Z#51

G0 X-1.29200 Y2.74400
G1 Z#50
G0 Z#51

G0 X-1.37100 Y3.61000
G1 Z#50
G0 Z#51

G0 X-1.37100 Y2.74400
G1 Z#50
G0 Z#51

G0 X-1.44020 Y2.12120
G1 Z#50
G0 Z#51

G0 X-1.45000 Y3.61000
G1 Z#50
G0 Z#51

G0 X-1.45000 Y2.74400
G1 Z#50
G0 Z#51

G0 X-1.52900 Y3.61000
G1 Z#50
G0 Z#51

G0 X-1.52900 Y2.74400
G1 Z#50
G0 Z#51

G0 X-1.60800 Y3.61000
G1 Z#50
G0 Z#51

G0 X-1.60800 Y2.74400
G1 Z#50
G0 Z#51

G0 X-1.68700 Y3.61000
G1 Z#50
G0 Z#51

G0 X-1.68700 Y2.74400
G1 Z#50
G0 Z#51

G0 X-1.76600 Y3.61000
G1 Z#50
G0 Z#51

G0 X-1.76600 Y2.74400
G1 Z#50
G0 Z#51

G0 X-1.84500 Y3.61000
G1 Z#50
G0 Z#51

G0 X-1.84500 Y2.74400
G1 Z#50
G0 Z#51

G0 X-1.92400 Y3.61000
G1 Z#50
G0 Z#51

G0 X-1.92400 Y2.74400
G1 Z#50
G0 Z#51

G0 X-0.93000 Y3.47500
G1 Z[#50+12*#52]
G2 I-0.01000 J0
G1 Z[#50+11*#52]
G2 I-0.01000 J0
G1 Z[#50+10*#52]
G2 I-0.01000 J0
G1 Z[#50+9*#52]
G2 I-0.01000 J0
G1 Z[#50+8*#52]
G2 I-0.01000 J0
G1 Z[#50+7*#52]
G2 I-0.01000 J0
G1 Z[#50+6*#52]
G2 I-0.01000 J0
G1 Z[#50+5*#52]
G2 I-0.01000 J0
G1 Z[#50+4*#52]
G2 I-0.01000 J0
G1 Z[#50+3*#52]
G2 I-0.01000 J0
G1 Z[#50+2*#52]
G2 I-0.01000 J0
G1 Z[#50+1*#52]
G2 I-0.01000 J0
G0 Z0.02000

G0 X-1.79500 Y3.54500
G1 Z[#50+12*#52]
G2 I-0.01000 J0
G1 Z[#50+11*#52]
G2 I-0.01000 J0
G1 Z[#50+10*#52]
G2 I-0.01000 J0
G1 Z[#50+9*#52]
G2 I-0.01000 J0
G1 Z[#50+8*#52]
G2 I-0.01000 J0
G1 Z[#50+7*#52]
G2 I-0.01000 J0
G1 Z[#50+6*#52]
G2 I-0.01000 J0
G1 Z[#50+5*#52]
G2 I-0.01000 J0
G1 Z[#50+4*#52]
G2 I-0.01000 J0
G1 Z[#50+3*#52]
G2 I-0.01000 J0
G1 Z[#50+2*#52]
G2 I-0.01000 J0
G1 Z[#50+1*#52]
G2 I-0.01000 J0
G0 Z0.02000

G0 X-1.94000 Y3.16000
G1 Z[#50+12*#52]
G2 I-0.01000 J0
G1 Z[#50+11*#52]
G2 I-0.01000 J0
G1 Z[#50+10*#52]
G2 I-0.01000 J0
G1 Z[#50+9*#52]
G2 I-0.01000 J0
G1 Z[#50+8*#52]
G2 I-0.01000 J0
G1 Z[#50+7*#52]
G2 I-0.01000 J0
G1 Z[#50+6*#52]
G2 I-0.01000 J0
G1 Z[#50+5*#52]
G2 I-0.01000 J0
G1 Z[#50+4*#52]
G2 I-0.01000 J0
G1 Z[#50+3*#52]
G2 I-0.01000 J0
G1 Z[#50+2*#52]
G2 I-0.01000 J0
G1 Z[#50+1*#52]
G2 I-0.01000 J0
G0 Z0.02000

G0 X-0.19250 Y4.33500
G1 Z[#50+12*#52]
G2 I-0.00250 J0
G1 Z[#50+11*#52]
G2 I-0.00250 J0
G1 Z[#50+10*#52]
G2 I-0.00250 J0
G1 Z[#50+9*#52]
G2 I-0.00250 J0
G1 Z[#50+8*#52]
G2 I-0.00250 J0
G1 Z[#50+7*#52]
G2 I-0.00250 J0
G1 Z[#50+6*#52]
G2 I-0.00250 J0
G1 Z[#50+5*#52]
G2 I-0.00250 J0
G1 Z[#50+4*#52]
G2 I-0.00250 J0
G1 Z[#50+3*#52]
G2 I-0.00250 J0
G1 Z[#50+2*#52]
G2 I-0.00250 J0
G1 Z[#50+1*#52]
G2 I-0.00250 J0
G0 Z0.02000

G0 X-0.24250 Y4.43500
G1 Z[#50+12*#52]
G2 I-0.00250 J0
G1 Z[#50+11*#52]
G2 I-0.00250 J0
G1 Z[#50+10*#52]
G2 I-0.00250 J0
G1 Z[#50+9*#52]
G2 I-0.00250 J0
G1 Z[#50+8*#52]
G2 I-0.00250 J0
G1 Z[#50+7*#52]
G2 I-0.00250 J0
G1 Z[#50+6*#52]
G2 I-0.00250 J0
G1 Z[#50+5*#52]
G2 I-0.00250 J0
G1 Z[#50+4*#52]
G2 I-0.00250 J0
G1 Z[#50+3*#52]
G2 I-0.00250 J0
G1 Z[#50+2*#52]
G2 I-0.00250 J0
G1 Z[#50+1*#52]
G2 I-0.00250 J0
G0 Z0.02000

G0 X-0.29250 Y4.33500
G1 Z[#50+12*#52]
G2 I-0.00250 J0
G1 Z[#50+11*#52]
G2 I-0.00250 J0
G1 Z[#50+10*#52]
G2 I-0.00250 J0
G1 Z[#50+9*#52]
G2 I-0.00250 J0
G1 Z[#50+8*#52]
G2 I-0.00250 J0
G1 Z[#50+7*#52]
G2 I-0.00250 J0
G1 Z[#50+6*#52]
G2 I-0.00250 J0
G1 Z[#50+5*#52]
G2 I-0.00250 J0
G1 Z[#50+4*#52]
G2 I-0.00250 J0
G1 Z[#50+3*#52]
G2 I-0.00250 J0
G1 Z[#50+2*#52]
G2 I-0.00250 J0
G1 Z[#50+1*#52]
G2 I-0.00250 J0
G0 Z0.02000

G0 X-0.34250 Y4.43500
G1 Z[#50+12*#52]
G2 I-0.00250 J0
G1 Z[#50+11*#52]
G2 I-0.00250 J0
G1 Z[#50+10*#52]
G2 I-0.00250 J0
G1 Z[#50+9*#52]
G2 I-0.00250 J0
G1 Z[#50+8*#52]
G2 I-0.00250 J0
G1 Z[#50+7*#52]
G2 I-0.00250 J0
G1 Z[#50+6*#52]
G2 I-0.00250 J0
G1 Z[#50+5*#52]
G2 I-0.00250 J0
G1 Z[#50+4*#52]
G2 I-0.00250 J0
G1 Z[#50+3*#52]
G2 I-0.00250 J0
G1 Z[#50+2*#52]
G2 I-0.00250 J0
G1 Z[#50+1*#52]
G2 I-0.00250 J0
G0 Z0.02000

G0 X-0.39250 Y4.33500
G1 Z[#50+12*#52]
G2 I-0.00250 J0
G1 Z[#50+11*#52]
G2 I-0.00250 J0
G1 Z[#50+10*#52]
G2 I-0.00250 J0
G1 Z[#50+9*#52]
G2 I-0.00250 J0
G1 Z[#50+8*#52]
G2 I-0.00250 J0
G1 Z[#50+7*#52]
G2 I-0.00250 J0
G1 Z[#50+6*#52]
G2 I-0.00250 J0
G1 Z[#50+5*#52]
G2 I-0.00250 J0
G1 Z[#50+4*#52]
G2 I-0.00250 J0
G1 Z[#50+3*#52]
G2 I-0.00250 J0
G1 Z[#50+2*#52]
G2 I-0.00250 J0
G1 Z[#50+1*#52]
G2 I-0.00250 J0
G0 Z0.02000

G0 X-0.44250 Y4.43500
G1 Z[#50+12*#52]
G2 I-0.00250 J0
G1 Z[#50+11*#52]
G2 I-0.00250 J0
G1 Z[#50+10*#52]
G2 I-0.00250 J0
G1 Z[#50+9*#52]
G2 I-0.00250 J0
G1 Z[#50+8*#52]
G2 I-0.00250 J0
G1 Z[#50+7*#52]
G2 I-0.00250 J0
G1 Z[#50+6*#52]
G2 I-0.00250 J0
G1 Z[#50+5*#52]
G2 I-0.00250 J0
G1 Z[#50+4*#52]
G2 I-0.00250 J0
G1 Z[#50+3*#52]
G2 I-0.00250 J0
G1 Z[#50+2*#52]
G2 I-0.00250 J0
G1 Z[#50+1*#52]
G2 I-0.00250 J0
G0 Z0.02000

G0 X-0.49250 Y4.33500
G1 Z[#50+12*#52]
G2 I-0.00250 J0
G1 Z[#50+11*#52]
G2 I-0.00250 J0
G1 Z[#50+10*#52]
G2 I-0.00250 J0
G1 Z[#50+9*#52]
G2 I-0.00250 J0
G1 Z[#50+8*#52]
G2 I-0.00250 J0
G1 Z[#50+7*#52]
G2 I-0.00250 J0
G1 Z[#50+6*#52]
G2 I-0.00250 J0
G1 Z[#50+5*#52]
G2 I-0.00250 J0
G1 Z[#50+4*#52]
G2 I-0.00250 J0
G1 Z[#50+3*#52]
G2 I-0.00250 J0
G1 Z[#50+2*#52]
G2 I-0.00250 J0
G1 Z[#50+1*#52]
G2 I-0.00250 J0
G0 Z0.02000

G0 X-0.54250 Y4.43500
G1 Z[#50+12*#52]
G2 I-0.00250 J0
G1 Z[#50+11*#52]
G2 I-0.00250 J0
G1 Z[#50+10*#52]
G2 I-0.00250 J0
G1 Z[#50+9*#52]
G2 I-0.00250 J0
G1 Z[#50+8*#52]
G2 I-0.00250 J0
G1 Z[#50+7*#52]
G2 I-0.00250 J0
G1 Z[#50+6*#52]
G2 I-0.00250 J0
G1 Z[#50+5*#52]
G2 I-0.00250 J0
G1 Z[#50+4*#52]
G2 I-0.00250 J0
G1 Z[#50+3*#52]
G2 I-0.00250 J0
G1 Z[#50+2*#52]
G2 I-0.00250 J0
G1 Z[#50+1*#52]
G2 I-0.00250 J0
G0 Z0.02000

G0 X-0.71750 Y2.62000
G1 Z[#50+12*#52]
G2 I-0.00250 J0
G1 Z[#50+11*#52]
G2 I-0.00250 J0
G1 Z[#50+10*#52]
G2 I-0.00250 J0
G1 Z[#50+9*#52]
G2 I-0.00250 J0
G1 Z[#50+8*#52]
G2 I-0.00250 J0
G1 Z[#50+7*#52]
G2 I-0.00250 J0
G1 Z[#50+6*#52]
G2 I-0.00250 J0
G1 Z[#50+5*#52]
G2 I-0.00250 J0
G1 Z[#50+4*#52]
G2 I-0.00250 J0
G1 Z[#50+3*#52]
G2 I-0.00250 J0
G1 Z[#50+2*#52]
G2 I-0.00250 J0
G1 Z[#50+1*#52]
G2 I-0.00250 J0
G0 Z0.02000

G0 X-0.71750 Y2.52000
G1 Z[#50+12*#52]
G2 I-0.00250 J0
G1 Z[#50+11*#52]
G2 I-0.00250 J0
G1 Z[#50+10*#52]
G2 I-0.00250 J0
G1 Z[#50+9*#52]
G2 I-0.00250 J0
G1 Z[#50+8*#52]
G2 I-0.00250 J0
G1 Z[#50+7*#52]
G2 I-0.00250 J0
G1 Z[#50+6*#52]
G2 I-0.00250 J0
G1 Z[#50+5*#52]
G2 I-0.00250 J0
G1 Z[#50+4*#52]
G2 I-0.00250 J0
G1 Z[#50+3*#52]
G2 I-0.00250 J0
G1 Z[#50+2*#52]
G2 I-0.00250 J0
G1 Z[#50+1*#52]
G2 I-0.00250 J0
G0 Z0.02000

G0 X-0.71750 Y2.42000
G1 Z[#50+12*#52]
G2 I-0.00250 J0
G1 Z[#50+11*#52]
G2 I-0.00250 J0
G1 Z[#50+10*#52]
G2 I-0.00250 J0
G1 Z[#50+9*#52]
G2 I-0.00250 J0
G1 Z[#50+8*#52]
G2 I-0.00250 J0
G1 Z[#50+7*#52]
G2 I-0.00250 J0
G1 Z[#50+6*#52]
G2 I-0.00250 J0
G1 Z[#50+5*#52]
G2 I-0.00250 J0
G1 Z[#50+4*#52]
G2 I-0.00250 J0
G1 Z[#50+3*#52]
G2 I-0.00250 J0
G1 Z[#50+2*#52]
G2 I-0.00250 J0
G1 Z[#50+1*#52]
G2 I-0.00250 J0
G0 Z0.02000

G0 X-0.71750 Y2.32000
G1 Z[#50+12*#52]
G2 I-0.00250 J0
G1 Z[#50+11*#52]
G2 I-0.00250 J0
G1 Z[#50+10*#52]
G2 I-0.00250 J0
G1 Z[#50+9*#52]
G2 I-0.00250 J0
G1 Z[#50+8*#52]
G2 I-0.00250 J0
G1 Z[#50+7*#52]
G2 I-0.00250 J0
G1 Z[#50+6*#52]
G2 I-0.00250 J0
G1 Z[#50+5*#52]
G2 I-0.00250 J0
G1 Z[#50+4*#52]
G2 I-0.00250 J0
G1 Z[#50+3*#52]
G2 I-0.00250 J0
G1 Z[#50+2*#52]
G2 I-0.00250 J0
G1 Z[#50+1*#52]
G2 I-0.00250 J0
G0 Z0.02000

G0 X-0.81750 Y2.57000
G1 Z[#50+12*#52]
G2 I-0.00250 J0
G1 Z[#50+11*#52]
G2 I-0.00250 J0
G1 Z[#50+10*#52]
G2 I-0.00250 J0
G1 Z[#50+9*#52]
G2 I-0.00250 J0
G1 Z[#50+8*#52]
G2 I-0.00250 J0
G1 Z[#50+7*#52]
G2 I-0.00250 J0
G1 Z[#50+6*#52]
G2 I-0.00250 J0
G1 Z[#50+5*#52]
G2 I-0.00250 J0
G1 Z[#50+4*#52]
G2 I-0.00250 J0
G1 Z[#50+3*#52]
G2 I-0.00250 J0
G1 Z[#50+2*#52]
G2 I-0.00250 J0
G1 Z[#50+1*#52]
G2 I-0.00250 J0
G0 Z0.02000

G0 X-0.81750 Y2.47000
G1 Z[#50+12*#52]
G2 I-0.00250 J0
G1 Z[#50+11*#52]
G2 I-0.00250 J0
G1 Z[#50+10*#52]
G2 I-0.00250 J0
G1 Z[#50+9*#52]
G2 I-0.00250 J0
G1 Z[#50+8*#52]
G2 I-0.00250 J0
G1 Z[#50+7*#52]
G2 I-0.00250 J0
G1 Z[#50+6*#52]
G2 I-0.00250 J0
G1 Z[#50+5*#52]
G2 I-0.00250 J0
G1 Z[#50+4*#52]
G2 I-0.00250 J0
G1 Z[#50+3*#52]
G2 I-0.00250 J0
G1 Z[#50+2*#52]
G2 I-0.00250 J0
G1 Z[#50+1*#52]
G2 I-0.00250 J0
G0 Z0.02000

G0 X-0.81750 Y2.37000
G1 Z[#50+12*#52]
G2 I-0.00250 J0
G1 Z[#50+11*#52]
G2 I-0.00250 J0
G1 Z[#50+10*#52]
G2 I-0.00250 J0
G1 Z[#50+9*#52]
G2 I-0.00250 J0
G1 Z[#50+8*#52]
G2 I-0.00250 J0
G1 Z[#50+7*#52]
G2 I-0.00250 J0
G1 Z[#50+6*#52]
G2 I-0.00250 J0
G1 Z[#50+5*#52]
G2 I-0.00250 J0
G1 Z[#50+4*#52]
G2 I-0.00250 J0
G1 Z[#50+3*#52]
G2 I-0.00250 J0
G1 Z[#50+2*#52]
G2 I-0.00250 J0
G1 Z[#50+1*#52]
G2 I-0.00250 J0
G0 Z0.02000

G0 X-0.81750 Y2.27000
G1 Z[#50+12*#52]
G2 I-0.00250 J0
G1 Z[#50+11*#52]
G2 I-0.00250 J0
G1 Z[#50+10*#52]
G2 I-0.00250 J0
G1 Z[#50+9*#52]
G2 I-0.00250 J0
G1 Z[#50+8*#52]
G2 I-0.00250 J0
G1 Z[#50+7*#52]
G2 I-0.00250 J0
G1 Z[#50+6*#52]
G2 I-0.00250 J0
G1 Z[#50+5*#52]
G2 I-0.00250 J0
G1 Z[#50+4*#52]
G2 I-0.00250 J0
G1 Z[#50+3*#52]
G2 I-0.00250 J0
G1 Z[#50+2*#52]
G2 I-0.00250 J0
G1 Z[#50+1*#52]
G2 I-0.00250 J0
G0 Z0.02000

G0 X-0.91750 Y4.33500
G1 Z[#50+12*#52]
G2 I-0.00250 J0
G1 Z[#50+11*#52]
G2 I-0.00250 J0
G1 Z[#50+10*#52]
G2 I-0.00250 J0
G1 Z[#50+9*#52]
G2 I-0.00250 J0
G1 Z[#50+8*#52]
G2 I-0.00250 J0
G1 Z[#50+7*#52]
G2 I-0.00250 J0
G1 Z[#50+6*#52]
G2 I-0.00250 J0
G1 Z[#50+5*#52]
G2 I-0.00250 J0
G1 Z[#50+4*#52]
G2 I-0.00250 J0
G1 Z[#50+3*#52]
G2 I-0.00250 J0
G1 Z[#50+2*#52]
G2 I-0.00250 J0
G1 Z[#50+1*#52]
G2 I-0.00250 J0
G0 Z0.02000

G0 X-0.96750 Y4.43500
G1 Z[#50+12*#52]
G2 I-0.00250 J0
G1 Z[#50+11*#52]
G2 I-0.00250 J0
G1 Z[#50+10*#52]
G2 I-0.00250 J0
G1 Z[#50+9*#52]
G2 I-0.00250 J0
G1 Z[#50+8*#52]
G2 I-0.00250 J0
G1 Z[#50+7*#52]
G2 I-0.00250 J0
G1 Z[#50+6*#52]
G2 I-0.00250 J0
G1 Z[#50+5*#52]
G2 I-0.00250 J0
G1 Z[#50+4*#52]
G2 I-0.00250 J0
G1 Z[#50+3*#52]
G2 I-0.00250 J0
G1 Z[#50+2*#52]
G2 I-0.00250 J0
G1 Z[#50+1*#52]
G2 I-0.00250 J0
G0 Z0.02000

G0 X-1.01750 Y4.33500
G1 Z[#50+12*#52]
G2 I-0.00250 J0
G1 Z[#50+11*#52]
G2 I-0.00250 J0
G1 Z[#50+10*#52]
G2 I-0.00250 J0
G1 Z[#50+9*#52]
G2 I-0.00250 J0
G1 Z[#50+8*#52]
G2 I-0.00250 J0
G1 Z[#50+7*#52]
G2 I-0.00250 J0
G1 Z[#50+6*#52]
G2 I-0.00250 J0
G1 Z[#50+5*#52]
G2 I-0.00250 J0
G1 Z[#50+4*#52]
G2 I-0.00250 J0
G1 Z[#50+3*#52]
G2 I-0.00250 J0
G1 Z[#50+2*#52]
G2 I-0.00250 J0
G1 Z[#50+1*#52]
G2 I-0.00250 J0
G0 Z0.02000

G0 X-1.06750 Y4.43500
G1 Z[#50+12*#52]
G2 I-0.00250 J0
G1 Z[#50+11*#52]
G2 I-0.00250 J0
G1 Z[#50+10*#52]
G2 I-0.00250 J0
G1 Z[#50+9*#52]
G2 I-0.00250 J0
G1 Z[#50+8*#52]
G2 I-0.00250 J0
G1 Z[#50+7*#52]
G2 I-0.00250 J0
G1 Z[#50+6*#52]
G2 I-0.00250 J0
G1 Z[#50+5*#52]
G2 I-0.00250 J0
G1 Z[#50+4*#52]
G2 I-0.00250 J0
G1 Z[#50+3*#52]
G2 I-0.00250 J0
G1 Z[#50+2*#52]
G2 I-0.00250 J0
G1 Z[#50+1*#52]
G2 I-0.00250 J0
G0 Z0.02000

G0 X-1.11750 Y4.33500
G1 Z[#50+12*#52]
G2 I-0.00250 J0
G1 Z[#50+11*#52]
G2 I-0.00250 J0
G1 Z[#50+10*#52]
G2 I-0.00250 J0
G1 Z[#50+9*#52]
G2 I-0.00250 J0
G1 Z[#50+8*#52]
G2 I-0.00250 J0
G1 Z[#50+7*#52]
G2 I-0.00250 J0
G1 Z[#50+6*#52]
G2 I-0.00250 J0
G1 Z[#50+5*#52]
G2 I-0.00250 J0
G1 Z[#50+4*#52]
G2 I-0.00250 J0
G1 Z[#50+3*#52]
G2 I-0.00250 J0
G1 Z[#50+2*#52]
G2 I-0.00250 J0
G1 Z[#50+1*#52]
G2 I-0.00250 J0
G0 Z0.02000

G0 X-1.16750 Y4.43500
G1 Z[#50+12*#52]
G2 I-0.00250 J0
G1 Z[#50+11*#52]
G2 I-0.00250 J0
G1 Z[#50+10*#52]
G2 I-0.00250 J0
G1 Z[#50+9*#52]
G2 I-0.00250 J0
G1 Z[#50+8*#52]
G2 I-0.00250 J0
G1 Z[#50+7*#52]
G2 I-0.00250 J0
G1 Z[#50+6*#52]
G2 I-0.00250 J0
G1 Z[#50+5*#52]
G2 I-0.00250 J0
G1 Z[#50+4*#52]
G2 I-0.00250 J0
G1 Z[#50+3*#52]
G2 I-0.00250 J0
G1 Z[#50+2*#52]
G2 I-0.00250 J0
G1 Z[#50+1*#52]
G2 I-0.00250 J0
G0 Z0.02000

G0 X-1.21750 Y4.33500
G1 Z[#50+12*#52]
G2 I-0.00250 J0
G1 Z[#50+11*#52]
G2 I-0.00250 J0
G1 Z[#50+10*#52]
G2 I-0.00250 J0
G1 Z[#50+9*#52]
G2 I-0.00250 J0
G1 Z[#50+8*#52]
G2 I-0.00250 J0
G1 Z[#50+7*#52]
G2 I-0.00250 J0
G1 Z[#50+6*#52]
G2 I-0.00250 J0
G1 Z[#50+5*#52]
G2 I-0.00250 J0
G1 Z[#50+4*#52]
G2 I-0.00250 J0
G1 Z[#50+3*#52]
G2 I-0.00250 J0
G1 Z[#50+2*#52]
G2 I-0.00250 J0
G1 Z[#50+1*#52]
G2 I-0.00250 J0
G0 Z0.02000

G0 X-1.26750 Y4.43500
G1 Z[#50+12*#52]
G2 I-0.00250 J0
G1 Z[#50+11*#52]
G2 I-0.00250 J0
G1 Z[#50+10*#52]
G2 I-0.00250 J0
G1 Z[#50+9*#52]
G2 I-0.00250 J0
G1 Z[#50+8*#52]
G2 I-0.00250 J0
G1 Z[#50+7*#52]
G2 I-0.00250 J0
G1 Z[#50+6*#52]
G2 I-0.00250 J0
G1 Z[#50+5*#52]
G2 I-0.00250 J0
G1 Z[#50+4*#52]
G2 I-0.00250 J0
G1 Z[#50+3*#52]
G2 I-0.00250 J0
G1 Z[#50+2*#52]
G2 I-0.00250 J0
G1 Z[#50+1*#52]
G2 I-0.00250 J0
G0 Z0.02000

G0 X-1.64250 Y4.33500
G1 Z[#50+12*#52]
G2 I-0.00250 J0
G1 Z[#50+11*#52]
G2 I-0.00250 J0
G1 Z[#50+10*#52]
G2 I-0.00250 J0
G1 Z[#50+9*#52]
G2 I-0.00250 J0
G1 Z[#50+8*#52]
G2 I-0.00250 J0
G1 Z[#50+7*#52]
G2 I-0.00250 J0
G1 Z[#50+6*#52]
G2 I-0.00250 J0
G1 Z[#50+5*#52]
G2 I-0.00250 J0
G1 Z[#50+4*#52]
G2 I-0.00250 J0
G1 Z[#50+3*#52]
G2 I-0.00250 J0
G1 Z[#50+2*#52]
G2 I-0.00250 J0
G1 Z[#50+1*#52]
G2 I-0.00250 J0
G0 Z0.02000

G0 X-1.69250 Y4.43500
G1 Z[#50+12*#52]
G2 I-0.00250 J0
G1 Z[#50+11*#52]
G2 I-0.00250 J0
G1 Z[#50+10*#52]
G2 I-0.00250 J0
G1 Z[#50+9*#52]
G2 I-0.00250 J0
G1 Z[#50+8*#52]
G2 I-0.00250 J0
G1 Z[#50+7*#52]
G2 I-0.00250 J0
G1 Z[#50+6*#52]
G2 I-0.00250 J0
G1 Z[#50+5*#52]
G2 I-0.00250 J0
G1 Z[#50+4*#52]
G2 I-0.00250 J0
G1 Z[#50+3*#52]
G2 I-0.00250 J0
G1 Z[#50+2*#52]
G2 I-0.00250 J0
G1 Z[#50+1*#52]
G2 I-0.00250 J0
G0 Z0.02000

G0 X-1.74250 Y4.33500
G1 Z[#50+12*#52]
G2 I-0.00250 J0
G1 Z[#50+11*#52]
G2 I-0.00250 J0
G1 Z[#50+10*#52]
G2 I-0.00250 J0
G1 Z[#50+9*#52]
G2 I-0.00250 J0
G1 Z[#50+8*#52]
G2 I-0.00250 J0
G1 Z[#50+7*#52]
G2 I-0.00250 J0
G1 Z[#50+6*#52]
G2 I-0.00250 J0
G1 Z[#50+5*#52]
G2 I-0.00250 J0
G1 Z[#50+4*#52]
G2 I-0.00250 J0
G1 Z[#50+3*#52]
G2 I-0.00250 J0
G1 Z[#50+2*#52]
G2 I-0.00250 J0
G1 Z[#50+1*#52]
G2 I-0.00250 J0
G0 Z0.02000

G0 X-1.79250 Y4.43500
G1 Z[#50+12*#52]
G2 I-0.00250 J0
G1 Z[#50+11*#52]
G2 I-0.00250 J0
G1 Z[#50+10*#52]
G2 I-0.00250 J0
G1 Z[#50+9*#52]
G2 I-0.00250 J0
G1 Z[#50+8*#52]
G2 I-0.00250 J0
G1 Z[#50+7*#52]
G2 I-0.00250 J0
G1 Z[#50+6*#52]
G2 I-0.00250 J0
G1 Z[#50+5*#52]
G2 I-0.00250 J0
G1 Z[#50+4*#52]
G2 I-0.00250 J0
G1 Z[#50+3*#52]
G2 I-0.00250 J0
G1 Z[#50+2*#52]
G2 I-0.00250 J0
G1 Z[#50+1*#52]
G2 I-0.00250 J0
G0 Z0.02000

G0 X-1.84250 Y4.33500
G1 Z[#50+12*#52]
G2 I-0.00250 J0
G1 Z[#50+11*#52]
G2 I-0.00250 J0
G1 Z[#50+10*#52]
G2 I-0.00250 J0
G1 Z[#50+9*#52]
G2 I-0.00250 J0
G1 Z[#50+8*#52]
G2 I-0.00250 J0
G1 Z[#50+7*#52]
G2 I-0.00250 J0
G1 Z[#50+6*#52]
G2 I-0.00250 J0
G1 Z[#50+5*#52]
G2 I-0.00250 J0
G1 Z[#50+4*#52]
G2 I-0.00250 J0
G1 Z[#50+3*#52]
G2 I-0.00250 J0
G1 Z[#50+2*#52]
G2 I-0.00250 J0
G1 Z[#50+1*#52]
G2 I-0.00250 J0
G0 Z0.02000

G0 X-1.89250 Y4.43500
G1 Z[#50+12*#52]
G2 I-0.00250 J0
G1 Z[#50+11*#52]
G2 I-0.00250 J0
G1 Z[#50+10*#52]
G2 I-0.00250 J0
G1 Z[#50+9*#52]
G2 I-0.00250 J0
G1 Z[#50+8*#52]
G2 I-0.00250 J0
G1 Z[#50+7*#52]
G2 I-0.00250 J0
G1 Z[#50+6*#52]
G2 I-0.00250 J0
G1 Z[#50+5*#52]
G2 I-0.00250 J0
G1 Z[#50+4*#52]
G2 I-0.00250 J0
G1 Z[#50+3*#52]
G2 I-0.00250 J0
G1 Z[#50+2*#52]
G2 I-0.00250 J0
G1 Z[#50+1*#52]
G2 I-0.00250 J0
G0 Z0.02000

G0 X-1.94250 Y4.33500
G1 Z[#50+12*#52]
G2 I-0.00250 J0
G1 Z[#50+11*#52]
G2 I-0.00250 J0
G1 Z[#50+10*#52]
G2 I-0.00250 J0
G1 Z[#50+9*#52]
G2 I-0.00250 J0
G1 Z[#50+8*#52]
G2 I-0.00250 J0
G1 Z[#50+7*#52]
G2 I-0.00250 J0
G1 Z[#50+6*#52]
G2 I-0.00250 J0
G1 Z[#50+5*#52]
G2 I-0.00250 J0
G1 Z[#50+4*#52]
G2 I-0.00250 J0
G1 Z[#50+3*#52]
G2 I-0.00250 J0
G1 Z[#50+2*#52]
G2 I-0.00250 J0
G1 Z[#50+1*#52]
G2 I-0.00250 J0
G0 Z0.02000

G0 X-1.99250 Y4.43500
G1 Z[#50+12*#52]
G2 I-0.00250 J0
G1 Z[#50+11*#52]
G2 I-0.00250 J0
G1 Z[#50+10*#52]
G2 I-0.00250 J0
G1 Z[#50+9*#52]
G2 I-0.00250 J0
G1 Z[#50+8*#52]
G2 I-0.00250 J0
G1 Z[#50+7*#52]
G2 I-0.00250 J0
G1 Z[#50+6*#52]
G2 I-0.00250 J0
G1 Z[#50+5*#52]
G2 I-0.00250 J0
G1 Z[#50+4*#52]
G2 I-0.00250 J0
G1 Z[#50+3*#52]
G2 I-0.00250 J0
G1 Z[#50+2*#52]
G2 I-0.00250 J0
G1 Z[#50+1*#52]
G2 I-0.00250 J0
G0 Z0.02000

G0 X-0.09600 Y4.08500
G1 Z[#50+12*#52]
G2 I-0.04900 J0
G1 Z[#50+11*#52]
G2 I-0.04900 J0
G1 Z[#50+10*#52]
G2 I-0.04900 J0
G1 Z[#50+9*#52]
G2 I-0.04900 J0
G1 Z[#50+8*#52]
G2 I-0.04900 J0
G1 Z[#50+7*#52]
G2 I-0.04900 J0
G1 Z[#50+6*#52]
G2 I-0.04900 J0
G1 Z[#50+5*#52]
G2 I-0.04900 J0
G1 Z[#50+4*#52]
G2 I-0.04900 J0
G1 Z[#50+3*#52]
G2 I-0.04900 J0
G1 Z[#50+2*#52]
G2 I-0.04900 J0
G1 Z[#50+1*#52]
G2 I-0.04900 J0
G0 Z0.02000

G0 X-0.54600 Y4.08500
G1 Z[#50+12*#52]
G2 I-0.04900 J0
G1 Z[#50+11*#52]
G2 I-0.04900 J0
G1 Z[#50+10*#52]
G2 I-0.04900 J0
G1 Z[#50+9*#52]
G2 I-0.04900 J0
G1 Z[#50+8*#52]
G2 I-0.04900 J0
G1 Z[#50+7*#52]
G2 I-0.04900 J0
G1 Z[#50+6*#52]
G2 I-0.04900 J0
G1 Z[#50+5*#52]
G2 I-0.04900 J0
G1 Z[#50+4*#52]
G2 I-0.04900 J0
G1 Z[#50+3*#52]
G2 I-0.04900 J0
G1 Z[#50+2*#52]
G2 I-0.04900 J0
G1 Z[#50+1*#52]
G2 I-0.04900 J0
G0 Z0.02000

G0 X-0.82100 Y4.08500
G1 Z[#50+12*#52]
G2 I-0.04900 J0
G1 Z[#50+11*#52]
G2 I-0.04900 J0
G1 Z[#50+10*#52]
G2 I-0.04900 J0
G1 Z[#50+9*#52]
G2 I-0.04900 J0
G1 Z[#50+8*#52]
G2 I-0.04900 J0
G1 Z[#50+7*#52]
G2 I-0.04900 J0
G1 Z[#50+6*#52]
G2 I-0.04900 J0
G1 Z[#50+5*#52]
G2 I-0.04900 J0
G1 Z[#50+4*#52]
G2 I-0.04900 J0
G1 Z[#50+3*#52]
G2 I-0.04900 J0
G1 Z[#50+2*#52]
G2 I-0.04900 J0
G1 Z[#50+1*#52]
G2 I-0.04900 J0
G0 Z0.02000

G0 X-1.27100 Y4.08500
G1 Z[#50+12*#52]
G2 I-0.04900 J0
G1 Z[#50+11*#52]
G2 I-0.04900 J0
G1 Z[#50+10*#52]
G2 I-0.04900 J0
G1 Z[#50+9*#52]
G2 I-0.04900 J0
G1 Z[#50+8*#52]
G2 I-0.04900 J0
G1 Z[#50+7*#52]
G2 I-0.04900 J0
G1 Z[#50+6*#52]
G2 I-0.04900 J0
G1 Z[#50+5*#52]
G2 I-0.04900 J0
G1 Z[#50+4*#52]
G2 I-0.04900 J0
G1 Z[#50+3*#52]
G2 I-0.04900 J0
G1 Z[#50+2*#52]
G2 I-0.04900 J0
G1 Z[#50+1*#52]
G2 I-0.04900 J0
G0 Z0.02000

G0 X-1.54600 Y4.08500
G1 Z[#50+12*#52]
G2 I-0.04900 J0
G1 Z[#50+11*#52]
G2 I-0.04900 J0
G1 Z[#50+10*#52]
G2 I-0.04900 J0
G1 Z[#50+9*#52]
G2 I-0.04900 J0
G1 Z[#50+8*#52]
G2 I-0.04900 J0
G1 Z[#50+7*#52]
G2 I-0.04900 J0
G1 Z[#50+6*#52]
G2 I-0.04900 J0
G1 Z[#50+5*#52]
G2 I-0.04900 J0
G1 Z[#50+4*#52]
G2 I-0.04900 J0
G1 Z[#50+3*#52]
G2 I-0.04900 J0
G1 Z[#50+2*#52]
G2 I-0.04900 J0
G1 Z[#50+1*#52]
G2 I-0.04900 J0
G0 Z0.02000

G0 X-1.99600 Y4.08500
G1 Z[#50+12*#52]
G2 I-0.04900 J0
G1 Z[#50+11*#52]
G2 I-0.04900 J0
G1 Z[#50+10*#52]
G2 I-0.04900 J0
G1 Z[#50+9*#52]
G2 I-0.04900 J0
G1 Z[#50+8*#52]
G2 I-0.04900 J0
G1 Z[#50+7*#52]
G2 I-0.04900 J0
G1 Z[#50+6*#52]
G2 I-0.04900 J0
G1 Z[#50+5*#52]
G2 I-0.04900 J0
G1 Z[#50+4*#52]
G2 I-0.04900 J0
G1 Z[#50+3*#52]
G2 I-0.04900 J0
G1 Z[#50+2*#52]
G2 I-0.04900 J0
G1 Z[#50+1*#52]
G2 I-0.04900 J0
G0 Z0.02000

G0 X-0.04310 Y3.96490
G1 Z[#50+12*#52]
G2 I-0.01650 J0
G1 Z[#50+11*#52]
G2 I-0.01650 J0
G1 Z[#50+10*#52]
G2 I-0.01650 J0
G1 Z[#50+9*#52]
G2 I-0.01650 J0
G1 Z[#50+8*#52]
G2 I-0.01650 J0
G1 Z[#50+7*#52]
G2 I-0.01650 J0
G1 Z[#50+6*#52]
G2 I-0.01650 J0
G1 Z[#50+5*#52]
G2 I-0.01650 J0
G1 Z[#50+4*#52]
G2 I-0.01650 J0
G1 Z[#50+3*#52]
G2 I-0.01650 J0
G1 Z[#50+2*#52]
G2 I-0.01650 J0
G1 Z[#50+1*#52]
G2 I-0.01650 J0
G0 Z0.02000

G0 X-0.57360 Y2.75030
G1 Z[#50+12*#52]
G2 I-0.01650 J0
G1 Z[#50+11*#52]
G2 I-0.01650 J0
G1 Z[#50+10*#52]
G2 I-0.01650 J0
G1 Z[#50+9*#52]
G2 I-0.01650 J0
G1 Z[#50+8*#52]
G2 I-0.01650 J0
G1 Z[#50+7*#52]
G2 I-0.01650 J0
G1 Z[#50+6*#52]
G2 I-0.01650 J0
G1 Z[#50+5*#52]
G2 I-0.01650 J0
G1 Z[#50+4*#52]
G2 I-0.01650 J0
G1 Z[#50+3*#52]
G2 I-0.01650 J0
G1 Z[#50+2*#52]
G2 I-0.01650 J0
G1 Z[#50+1*#52]
G2 I-0.01650 J0
G0 Z0.02000

G0 X-0.57360 Y2.14010
G1 Z[#50+12*#52]
G2 I-0.01650 J0
G1 Z[#50+11*#52]
G2 I-0.01650 J0
G1 Z[#50+10*#52]
G2 I-0.01650 J0
G1 Z[#50+9*#52]
G2 I-0.01650 J0
G1 Z[#50+8*#52]
G2 I-0.01650 J0
G1 Z[#50+7*#52]
G2 I-0.01650 J0
G1 Z[#50+6*#52]
G2 I-0.01650 J0
G1 Z[#50+5*#52]
G2 I-0.01650 J0
G1 Z[#50+4*#52]
G2 I-0.01650 J0
G1 Z[#50+3*#52]
G2 I-0.01650 J0
G1 Z[#50+2*#52]
G2 I-0.01650 J0
G1 Z[#50+1*#52]
G2 I-0.01650 J0
G0 Z0.02000

G0 X-0.66310 Y3.96490
G1 Z[#50+12*#52]
G2 I-0.01650 J0
G1 Z[#50+11*#52]
G2 I-0.01650 J0
G1 Z[#50+10*#52]
G2 I-0.01650 J0
G1 Z[#50+9*#52]
G2 I-0.01650 J0
G1 Z[#50+8*#52]
G2 I-0.01650 J0
G1 Z[#50+7*#52]
G2 I-0.01650 J0
G1 Z[#50+6*#52]
G2 I-0.01650 J0
G1 Z[#50+5*#52]
G2 I-0.01650 J0
G1 Z[#50+4*#52]
G2 I-0.01650 J0
G1 Z[#50+3*#52]
G2 I-0.01650 J0
G1 Z[#50+2*#52]
G2 I-0.01650 J0
G1 Z[#50+1*#52]
G2 I-0.01650 J0
G0 Z0.02000

G0 X-0.76810 Y3.96490
G1 Z[#50+12*#52]
G2 I-0.01650 J0
G1 Z[#50+11*#52]
G2 I-0.01650 J0
G1 Z[#50+10*#52]
G2 I-0.01650 J0
G1 Z[#50+9*#52]
G2 I-0.01650 J0
G1 Z[#50+8*#52]
G2 I-0.01650 J0
G1 Z[#50+7*#52]
G2 I-0.01650 J0
G1 Z[#50+6*#52]
G2 I-0.01650 J0
G1 Z[#50+5*#52]
G2 I-0.01650 J0
G1 Z[#50+4*#52]
G2 I-0.01650 J0
G1 Z[#50+3*#52]
G2 I-0.01650 J0
G1 Z[#50+2*#52]
G2 I-0.01650 J0
G1 Z[#50+1*#52]
G2 I-0.01650 J0
G0 Z0.02000

G0 X-1.38810 Y3.96490
G1 Z[#50+12*#52]
G2 I-0.01650 J0
G1 Z[#50+11*#52]
G2 I-0.01650 J0
G1 Z[#50+10*#52]
G2 I-0.01650 J0
G1 Z[#50+9*#52]
G2 I-0.01650 J0
G1 Z[#50+8*#52]
G2 I-0.01650 J0
G1 Z[#50+7*#52]
G2 I-0.01650 J0
G1 Z[#50+6*#52]
G2 I-0.01650 J0
G1 Z[#50+5*#52]
G2 I-0.01650 J0
G1 Z[#50+4*#52]
G2 I-0.01650 J0
G1 Z[#50+3*#52]
G2 I-0.01650 J0
G1 Z[#50+2*#52]
G2 I-0.01650 J0
G1 Z[#50+1*#52]
G2 I-0.01650 J0
G0 Z0.02000

G0 X-1.49310 Y3.96490
G1 Z[#50+12*#52]
G2 I-0.01650 J0
G1 Z[#50+11*#52]
G2 I-0.01650 J0
G1 Z[#50+10*#52]
G2 I-0.01650 J0
G1 Z[#50+9*#52]
G2 I-0.01650 J0
G1 Z[#50+8*#52]
G2 I-0.01650 J0
G1 Z[#50+7*#52]
G2 I-0.01650 J0
G1 Z[#50+6*#52]
G2 I-0.01650 J0
G1 Z[#50+5*#52]
G2 I-0.01650 J0
G1 Z[#50+4*#52]
G2 I-0.01650 J0
G1 Z[#50+3*#52]
G2 I-0.01650 J0
G1 Z[#50+2*#52]
G2 I-0.01650 J0
G1 Z[#50+1*#52]
G2 I-0.01650 J0
G0 Z0.02000

G0 X-2.11310 Y3.96490
G1 Z[#50+12*#52]
G2 I-0.01650 J0
G1 Z[#50+11*#52]
G2 I-0.01650 J0
G1 Z[#50+10*#52]
G2 I-0.01650 J0
G1 Z[#50+9*#52]
G2 I-0.01650 J0
G1 Z[#50+8*#52]
G2 I-0.01650 J0
G1 Z[#50+7*#52]
G2 I-0.01650 J0
G1 Z[#50+6*#52]
G2 I-0.01650 J0
G1 Z[#50+5*#52]
G2 I-0.01650 J0
G1 Z[#50+4*#52]
G2 I-0.01650 J0
G1 Z[#50+3*#52]
G2 I-0.01650 J0
G1 Z[#50+2*#52]
G2 I-0.01650 J0
G1 Z[#50+1*#52]
G2 I-0.01650 J0
G0 Z0.02000

G0 X-0.30570 Y2.70620
G1 Z[#50+12*#52]
G2 I-0.00450 J0
G1 Z[#50+11*#52]
G2 I-0.00450 J0
G1 Z[#50+10*#52]
G2 I-0.00450 J0
G1 Z[#50+9*#52]
G2 I-0.00450 J0
G1 Z[#50+8*#52]
G2 I-0.00450 J0
G1 Z[#50+7*#52]
G2 I-0.00450 J0
G1 Z[#50+6*#52]
G2 I-0.00450 J0
G1 Z[#50+5*#52]
G2 I-0.00450 J0
G1 Z[#50+4*#52]
G2 I-0.00450 J0
G1 Z[#50+3*#52]
G2 I-0.00450 J0
G1 Z[#50+2*#52]
G2 I-0.00450 J0
G1 Z[#50+1*#52]
G2 I-0.00450 J0
G0 Z0.02000

G0 X-0.30570 Y2.60620
G1 Z[#50+12*#52]
G2 I-0.00450 J0
G1 Z[#50+11*#52]
G2 I-0.00450 J0
G1 Z[#50+10*#52]
G2 I-0.00450 J0
G1 Z[#50+9*#52]
G2 I-0.00450 J0
G1 Z[#50+8*#52]
G2 I-0.00450 J0
G1 Z[#50+7*#52]
G2 I-0.00450 J0
G1 Z[#50+6*#52]
G2 I-0.00450 J0
G1 Z[#50+5*#52]
G2 I-0.00450 J0
G1 Z[#50+4*#52]
G2 I-0.00450 J0
G1 Z[#50+3*#52]
G2 I-0.00450 J0
G1 Z[#50+2*#52]
G2 I-0.00450 J0
G1 Z[#50+1*#52]
G2 I-0.00450 J0
G0 Z0.02000

G0 X-0.30570 Y2.28420
G1 Z[#50+12*#52]
G2 I-0.00450 J0
G1 Z[#50+11*#52]
G2 I-0.00450 J0
G1 Z[#50+10*#52]
G2 I-0.00450 J0
G1 Z[#50+9*#52]
G2 I-0.00450 J0
G1 Z[#50+8*#52]
G2 I-0.00450 J0
G1 Z[#50+7*#52]
G2 I-0.00450 J0
G1 Z[#50+6*#52]
G2 I-0.00450 J0
G1 Z[#50+5*#52]
G2 I-0.00450 J0
G1 Z[#50+4*#52]
G2 I-0.00450 J0
G1 Z[#50+3*#52]
G2 I-0.00450 J0
G1 Z[#50+2*#52]
G2 I-0.00450 J0
G1 Z[#50+1*#52]
G2 I-0.00450 J0
G0 Z0.02000

G0 X-0.30570 Y2.18420
G1 Z[#50+12*#52]
G2 I-0.00450 J0
G1 Z[#50+11*#52]
G2 I-0.00450 J0
G1 Z[#50+10*#52]
G2 I-0.00450 J0
G1 Z[#50+9*#52]
G2 I-0.00450 J0
G1 Z[#50+8*#52]
G2 I-0.00450 J0
G1 Z[#50+7*#52]
G2 I-0.00450 J0
G1 Z[#50+6*#52]
G2 I-0.00450 J0
G1 Z[#50+5*#52]
G2 I-0.00450 J0
G1 Z[#50+4*#52]
G2 I-0.00450 J0
G1 Z[#50+3*#52]
G2 I-0.00450 J0
G1 Z[#50+2*#52]
G2 I-0.00450 J0
G1 Z[#50+1*#52]
G2 I-0.00450 J0
G0 Z0.02000

G0 X-0.42200 Y2.67000
G1 Z[#50+12*#52]
G2 I-0.04800 J0
G1 Z[#50+11*#52]
G2 I-0.04800 J0
G1 Z[#50+10*#52]
G2 I-0.04800 J0
G1 Z[#50+9*#52]
G2 I-0.04800 J0
G1 Z[#50+8*#52]
G2 I-0.04800 J0
G1 Z[#50+7*#52]
G2 I-0.04800 J0
G1 Z[#50+6*#52]
G2 I-0.04800 J0
G1 Z[#50+5*#52]
G2 I-0.04800 J0
G1 Z[#50+4*#52]
G2 I-0.04800 J0
G1 Z[#50+3*#52]
G2 I-0.04800 J0
G1 Z[#50+2*#52]
G2 I-0.04800 J0
G1 Z[#50+1*#52]
G2 I-0.04800 J0
G0 Z0.02000

G0 X-0.42200 Y2.22000
G1 Z[#50+12*#52]
G2 I-0.04800 J0
G1 Z[#50+11*#52]
G2 I-0.04800 J0
G1 Z[#50+10*#52]
G2 I-0.04800 J0
G1 Z[#50+9*#52]
G2 I-0.04800 J0
G1 Z[#50+8*#52]
G2 I-0.04800 J0
G1 Z[#50+7*#52]
G2 I-0.04800 J0
G1 Z[#50+6*#52]
G2 I-0.04800 J0
G1 Z[#50+5*#52]
G2 I-0.04800 J0
G1 Z[#50+4*#52]
G2 I-0.04800 J0
G1 Z[#50+3*#52]
G2 I-0.04800 J0
G1 Z[#50+2*#52]
G2 I-0.04800 J0
G1 Z[#50+1*#52]
G2 I-0.04800 J0
G0 Z0.02000

G0 X0.21000 Y3.18500
G1 Z#50
G0 Z#51

G0 X0.14500 Y3.34500
G1 Z#50
G0 Z#51

G0 X0.08500 Y3.37500
G1 Z#50
G0 Z#51

G0 X0.05500 Y3.21000
G1 Z#50
G0 Z#51

G0 X-0.05000 Y3.27500
G1 Z#50
G0 Z#51

G0 X-0.05000 Y3.20500
G1 Z#50
G0 Z#51

G0 X-0.05500 Y2.96000
G1 Z#50
G0 Z#51

G0 X-0.08000 Y3.61000
G1 Z#50
G0 Z#51

G0 X-0.15500 Y3.27500
G1 Z#50
G0 Z#51

G0 X-0.16500 Y3.83500
G1 Z#50
G0 Z#51

G0 X-0.17500 Y3.58600
G1 Z#50
G0 Z#51

G0 X-0.17500 Y3.52500
G1 Z#50
G0 Z#51

G0 X-0.17500 Y3.46400
G1 Z#50
G0 Z#51

G0 X-0.20000 Y3.04000
G1 Z#50
G0 Z#51

G0 X-0.23000 Y3.22000
G1 Z#50
G0 Z#51

G0 X-0.24000 Y3.49000
G1 Z#50
G0 Z#51

G0 X-0.26500 Y3.44000
G1 Z#50
G0 Z#51

G0 X-0.28000 Y2.66000
G1 Z#50
G0 Z#51

G0 X-0.30000 Y3.33500
G1 Z#50
G0 Z#51

G0 X-0.30000 Y3.20500
G1 Z#50
G0 Z#51

G0 X-0.30500 Y3.56000
G1 Z#50
G0 Z#51

G0 X-0.31000 Y3.41000
G1 Z#50
G0 Z#51

G0 X-0.31020 Y2.48120
G1 Z#50
G0 Z#51

G0 X-0.32000 Y4.29000
G1 Z#50
G0 Z#51

G0 X-0.32000 Y4.17500
G1 Z#50
G0 Z#51

G0 X-0.32500 Y3.37500
G1 Z#50
G0 Z#51

G0 X-0.34000 Y3.16500
G1 Z#50
G0 Z#51

G0 X-0.34500 Y4.09000
G1 Z#50
G0 Z#51

G0 X-0.34500 Y3.96500
G1 Z#50
G0 Z#51

G0 X-0.36520 Y2.12620
G1 Z#50
G0 Z#51

G0 X-0.37000 Y4.29000
G1 Z#50
G0 Z#51

G0 X-0.39500 Y4.09000
G1 Z#50
G0 Z#51

G0 X-0.39850 Y3.44000
G1 Z#50
G0 Z#51

G0 X-0.39850 Y3.40500
G1 Z#50
G0 Z#51

G0 X-0.40000 Y3.60000
G1 Z#50
G0 Z#51

G0 X-0.40000 Y3.04000
G1 Z#50
G0 Z#51

G0 X-0.42000 Y4.29000
G1 Z#50
G0 Z#51

G0 X-0.42000 Y4.17500
G1 Z#50
G0 Z#51

G0 X-0.42500 Y3.71000
G1 Z#50
G0 Z#51

G0 X-0.44000 Y3.96500
G1 Z#50
G0 Z#51

G0 X-0.44850 Y3.61400
G1 Z#50
G0 Z#51

G0 X-0.46000 Y3.50000
G1 Z#50
G0 Z#51

G0 X-0.46020 Y2.57120
G1 Z#50
G0 Z#51

G0 X-0.47850 Y3.20000
G1 Z#50
G0 Z#51

G0 X-0.48250 Y3.61400
G1 Z#50
G0 Z#51

G0 X-0.51350 Y3.20000
G1 Z#50
G0 Z#51

G0 X-0.51650 Y3.61400
G1 Z#50
G0 Z#51

G0 X-0.52000 Y2.76000
G1 Z#50
G0 Z#51

G0 X-0.55000 Y3.20000
G1 Z#50
G0 Z#51

G0 X-0.56500 Y3.49500
G1 Z#50
G0 Z#51

G0 X-0.58000 Y3.36000
G1 Z#50
G0 Z#51

G0 X-0.60000 Y3.03000
G1 Z#50
G0 Z#51

G0 X-0.64000 Y3.72000
G1 Z#50
G0 Z#51

G0 X-0.66020 Y2.25620
G1 Z#50
G0 Z#51

G0 X-0.66520 Y2.47120
G1 Z#50
G0 Z#51

G0 X-0.67000 Y3.58000
G1 Z#50
G0 Z#51

G0 X-0.67520 Y2.12120
G1 Z#50
G0 Z#51

G0 X-0.68000 Y3.82500
G1 Z#50
G0 Z#51

G0 X-0.68020 Y2.67120
G1 Z#50
G0 Z#51

G0 X-0.70000 Y3.20000
G1 Z#50
G0 Z#51

G0 X-0.70020 Y2.18120
G1 Z#50
G0 Z#51

G0 X-0.70500 Y3.39000
G1 Z#50
G0 Z#51

G0 X-0.71020 Y2.12620
G1 Z#50
G0 Z#51

G0 X-0.71500 Y3.47500
G1 Z#50
G0 Z#51

G0 X-0.73500 Y3.36000
G1 Z#50
G0 Z#51

G0 X-0.73500 Y3.20000
G1 Z#50
G0 Z#51

G0 X-0.76500 Y3.33000
G1 Z#50
G0 Z#51

G0 X-0.77000 Y3.61000
G1 Z#50
G0 Z#51

G0 X-0.80500 Y3.33000
G1 Z#50
G0 Z#51

G0 X-0.81000 Y3.66000
G1 Z#50
G0 Z#51

G0 X-0.81350 Y3.28000
G1 Z#50
G0 Z#51

G0 X-0.81500 Y3.23500
G1 Z#50
G0 Z#51

G0 X-0.82520 Y2.71620
G1 Z#50
G0 Z#51

G0 X-0.89000 Y3.83500
G1 Z#50
G0 Z#51

G0 X-0.91520 Y2.52120
G1 Z#50
G0 Z#51

G0 X-0.91520 Y2.37620
G1 Z#50
G0 Z#51

G0 X-0.91520 Y2.33120
G1 Z#50
G0 Z#51

G0 X-0.91520 Y2.26120
G1 Z#50
G0 Z#51

G0 X-0.94000 Y3.57500
G1 Z#50
G0 Z#51

G0 X-0.94500 Y3.33000
G1 Z#50
G0 Z#51

G0 X-0.96500 Y3.62500
G1 Z#50
G0 Z#51

G0 X-0.96500 Y3.12500
G1 Z#50
G0 Z#51

G0 X-0.96520 Y2.52120
G1 Z#50
G0 Z#51

G0 X-1.01500 Y3.70000
G1 Z#50
G0 Z#51

G0 X-1.02500 Y3.48500
G1 Z#50
G0 Z#51

G0 X-1.02500 Y3.37500
G1 Z#50
G0 Z#51

G0 X-1.02500 Y3.28500
G1 Z#50
G0 Z#51

G0 X-1.04500 Y4.29000
G1 Z#50
G0 Z#51

G0 X-1.04500 Y4.17500
G1 Z#50
G0 Z#51

G0 X-1.06500 Y3.70000
G1 Z#50
G0 Z#51

G0 X-1.06500 Y3.56000
G1 Z#50
G0 Z#51

G0 X-1.06520 Y2.52120
G1 Z#50
G0 Z#51

G0 X-1.06520 Y2.26120
G1 Z#50
G0 Z#51

G0 X-1.07000 Y4.09000
G1 Z#50
G0 Z#51

G0 X-1.07000 Y3.96500
G1 Z#50
G0 Z#51

G0 X-1.07000 Y3.37500
G1 Z#50
G0 Z#51

G0 X-1.07000 Y3.28500
G1 Z#50
G0 Z#51

G0 X-1.09500 Y4.29000
G1 Z#50
G0 Z#51

G0 X-1.11500 Y3.70000
G1 Z#50
G0 Z#51

G0 X-1.11500 Y3.56000
G1 Z#50
G0 Z#51

G0 X-1.11500 Y3.45500
G1 Z#50
G0 Z#51

G0 X-1.11500 Y3.37500
G1 Z#50
G0 Z#51

G0 X-1.11500 Y3.28500
G1 Z#50
G0 Z#51

G0 X-1.11520 Y2.52120
G1 Z#50
G0 Z#51

G0 X-1.11520 Y2.33120
G1 Z#50
G0 Z#51

G0 X-1.11520 Y2.26120
G1 Z#50
G0 Z#51

G0 X-1.12000 Y4.09000
G1 Z#50
G0 Z#51

G0 X-1.14020 Y2.46620
G1 Z#50
G0 Z#51

G0 X-1.14500 Y4.29000
G1 Z#50
G0 Z#51

G0 X-1.14500 Y4.17500
G1 Z#50
G0 Z#51

G0 X-1.16500 Y3.96500
G1 Z#50
G0 Z#51

G0 X-1.16500 Y3.70000
G1 Z#50
G0 Z#51

G0 X-1.16500 Y3.56000
G1 Z#50
G0 Z#51

G0 X-1.16500 Y3.45500
G1 Z#50
G0 Z#51

G0 X-1.16500 Y3.37500
G1 Z#50
G0 Z#51

G0 X-1.16500 Y3.28500
G1 Z#50
G0 Z#51

G0 X-1.16520 Y2.52120
G1 Z#50
G0 Z#51

G0 X-1.16520 Y2.33120
G1 Z#50
G0 Z#51

G0 X-1.16520 Y2.26120
G1 Z#50
G0 Z#51

G0 X-1.21520 Y2.26120
G1 Z#50
G0 Z#51

G0 X-1.25500 Y3.50500
G1 Z#50
G0 Z#51

G0 X-1.26500 Y3.70000
G1 Z#50
G0 Z#51

G0 X-1.26520 Y2.52120
G1 Z#50
G0 Z#51

G0 X-1.26520 Y2.26120
G1 Z#50
G0 Z#51

G0 X-1.31500 Y3.70000
G1 Z#50
G0 Z#51

G0 X-1.31520 Y2.33120
G1 Z#50
G0 Z#51

G0 X-1.31520 Y2.26120
G1 Z#50
G0 Z#51

G0 X-1.36000 Y2.87000
G1 Z#50
G0 Z#51

G0 X-1.36500 Y3.70000
G1 Z#50
G0 Z#51

G0 X-1.36520 Y2.33120
G1 Z#50
G0 Z#51

G0 X-1.36520 Y2.26120
G1 Z#50
G0 Z#51

G0 X-1.41000 Y3.58000
G1 Z#50
G0 Z#51

G0 X-1.41000 Y2.78500
G1 Z#50
G0 Z#51

G0 X-1.41500 Y3.06000
G1 Z#50
G0 Z#51

G0 X-1.41500 Y2.91000
G1 Z#50
G0 Z#51

G0 X-1.41520 Y2.33120
G1 Z#50
G0 Z#51

G0 X-1.41520 Y2.26120
G1 Z#50
G0 Z#51

G0 X-1.45500 Y2.49000
G1 Z#50
G0 Z#51

G0 X-1.46520 Y2.26120
G1 Z#50
G0 Z#51

G0 X-1.49000 Y2.95000
G1 Z#50
G0 Z#51

G0 X-1.49000 Y2.86000
G1 Z#50
G0 Z#51

G0 X-1.51000 Y3.80980
G1 Z#50
G0 Z#51

G0 X-1.51520 Y2.52120
G1 Z#50
G0 Z#51

G0 X-1.51520 Y2.26120
G1 Z#50
G0 Z#51

G0 X-1.53500 Y4.42500
G1 Z#50
G0 Z#51

G0 X-1.55000 Y3.43500
G1 Z#50
G0 Z#51

G0 X-1.56520 Y2.52120
G1 Z#50
G0 Z#51

G0 X-1.56520 Y2.42120
G1 Z#50
G0 Z#51

G0 X-1.56520 Y2.33120
G1 Z#50
G0 Z#51

G0 X-1.56520 Y2.26120
G1 Z#50
G0 Z#51

G0 X-1.58000 Y3.46500
G1 Z#50
G0 Z#51

G0 X-1.59000 Y4.26000
G1 Z#50
G0 Z#51

G0 X-1.59000 Y3.81000
G1 Z#50
G0 Z#51

G0 X-1.61500 Y3.13500
G1 Z#50
G0 Z#51

G0 X-1.62500 Y3.81100
G1 Z#50
G0 Z#51

G0 X-1.64500 Y3.57500
G1 Z#50
G0 Z#51

G0 X-1.67000 Y4.28500
G1 Z#50
G0 Z#51

G0 X-1.69000 Y3.80500
G1 Z#50
G0 Z#51

G0 X-1.71000 Y3.53000
G1 Z#50
G0 Z#51

G0 X-1.71000 Y3.49000
G1 Z#50
G0 Z#51

G0 X-1.72000 Y4.28500
G1 Z#50
G0 Z#51

G0 X-1.73500 Y4.08000
G1 Z#50
G0 Z#51

G0 X-1.79500 Y4.08000
G1 Z#50
G0 Z#51

G0 X-1.82000 Y4.28500
G1 Z#50
G0 Z#51

G0 X-1.84500 Y4.08000
G1 Z#50
G0 Z#51

G0 X-1.87000 Y4.28500
G1 Z#50
G0 Z#51

G0 X-1.88500 Y3.14000
G1 Z#50
G0 Z#51

G0 X-1.90500 Y4.08000
G1 Z#50
G0 Z#51

G0 X-1.91500 Y3.70000
G1 Z#50
G0 Z#51

G0 X-1.93500 Y3.53000
G1 Z#50
G0 Z#51

G0 X-1.93500 Y3.48000
G1 Z#50
G0 Z#51

G0 X-1.93500 Y3.43000
G1 Z#50
G0 Z#51

G0 X-1.93500 Y3.33000
G1 Z#50
G0 Z#51

G0 X-1.93500 Y3.28000
G1 Z#50
G0 Z#51

G0 X-1.93500 Y3.23000
G1 Z#50
G0 Z#51

G0 X-1.97000 Y4.28500
G1 Z#50
G0 Z#51

G0 X-1.98500 Y3.75000
G1 Z#50
G0 Z#51

G0 X-1.99000 Y3.59500
G1 Z#50
G0 Z#51

G0 X-2.01500 Y3.43000
G1 Z#50
G0 Z#51

G0 X-2.01500 Y3.33000
G1 Z#50
G0 Z#51

G0 X-2.02000 Y4.28500
G1 Z#50
G0 Z#51

G0 X-2.02000 Y3.79500
G1 Z#50
G0 Z#51

G0 X-2.05000 Y4.26000
G1 Z#50
G0 Z#51

G00 Z0.02000 ( All done -- retract )

M9 ( Coolant off. )
M2 ( Program end. )

