( pcb2gcode 1.1.4 )

( This file uses a mill head of 0.03 to drill the 9bit sizes. )

G94     ( Inches per minute feed rate. )
G20     ( Units == INCHES.             )
G90     ( Absolute coordinates.        )
S10000  ( RPM spindle speed.           )
M3
G91.1
G0 Z0.10000

F1.00000
#50=-0.10000 ; zwork
#51=0.02000 ; zsafe
#52=0.00800 ; stepsize
G0 X2.35900 Y1.11000
G1 Z[#50+12*#52]
G2 I-0.00400 J0
G1 Z[#50+11*#52]
G2 I-0.00400 J0
G1 Z[#50+10*#52]
G2 I-0.00400 J0
G1 Z[#50+9*#52]
G2 I-0.00400 J0
G1 Z[#50+8*#52]
G2 I-0.00400 J0
G1 Z[#50+7*#52]
G2 I-0.00400 J0
G1 Z[#50+6*#52]
G2 I-0.00400 J0
G1 Z[#50+5*#52]
G2 I-0.00400 J0
G1 Z[#50+4*#52]
G2 I-0.00400 J0
G1 Z[#50+3*#52]
G2 I-0.00400 J0
G1 Z[#50+2*#52]
G2 I-0.00400 J0
G1 Z[#50+1*#52]
G2 I-0.00400 J0
G0 Z0.02000

G0 X2.35900 Y1.01000
G1 Z[#50+12*#52]
G2 I-0.00400 J0
G1 Z[#50+11*#52]
G2 I-0.00400 J0
G1 Z[#50+10*#52]
G2 I-0.00400 J0
G1 Z[#50+9*#52]
G2 I-0.00400 J0
G1 Z[#50+8*#52]
G2 I-0.00400 J0
G1 Z[#50+7*#52]
G2 I-0.00400 J0
G1 Z[#50+6*#52]
G2 I-0.00400 J0
G1 Z[#50+5*#52]
G2 I-0.00400 J0
G1 Z[#50+4*#52]
G2 I-0.00400 J0
G1 Z[#50+3*#52]
G2 I-0.00400 J0
G1 Z[#50+2*#52]
G2 I-0.00400 J0
G1 Z[#50+1*#52]
G2 I-0.00400 J0
G0 Z0.02000

G0 X2.25900 Y1.11000
G1 Z[#50+12*#52]
G2 I-0.00400 J0
G1 Z[#50+11*#52]
G2 I-0.00400 J0
G1 Z[#50+10*#52]
G2 I-0.00400 J0
G1 Z[#50+9*#52]
G2 I-0.00400 J0
G1 Z[#50+8*#52]
G2 I-0.00400 J0
G1 Z[#50+7*#52]
G2 I-0.00400 J0
G1 Z[#50+6*#52]
G2 I-0.00400 J0
G1 Z[#50+5*#52]
G2 I-0.00400 J0
G1 Z[#50+4*#52]
G2 I-0.00400 J0
G1 Z[#50+3*#52]
G2 I-0.00400 J0
G1 Z[#50+2*#52]
G2 I-0.00400 J0
G1 Z[#50+1*#52]
G2 I-0.00400 J0
G0 Z0.02000

G0 X2.25900 Y1.01000
G1 Z[#50+12*#52]
G2 I-0.00400 J0
G1 Z[#50+11*#52]
G2 I-0.00400 J0
G1 Z[#50+10*#52]
G2 I-0.00400 J0
G1 Z[#50+9*#52]
G2 I-0.00400 J0
G1 Z[#50+8*#52]
G2 I-0.00400 J0
G1 Z[#50+7*#52]
G2 I-0.00400 J0
G1 Z[#50+6*#52]
G2 I-0.00400 J0
G1 Z[#50+5*#52]
G2 I-0.00400 J0
G1 Z[#50+4*#52]
G2 I-0.00400 J0
G1 Z[#50+3*#52]
G2 I-0.00400 J0
G1 Z[#50+2*#52]
G2 I-0.00400 J0
G1 Z[#50+1*#52]
G2 I-0.00400 J0
G0 Z0.02000

G0 X2.19400 Y1.67000
G1 Z[#50+12*#52]
G2 I-0.00400 J0
G1 Z[#50+11*#52]
G2 I-0.00400 J0
G1 Z[#50+10*#52]
G2 I-0.00400 J0
G1 Z[#50+9*#52]
G2 I-0.00400 J0
G1 Z[#50+8*#52]
G2 I-0.00400 J0
G1 Z[#50+7*#52]
G2 I-0.00400 J0
G1 Z[#50+6*#52]
G2 I-0.00400 J0
G1 Z[#50+5*#52]
G2 I-0.00400 J0
G1 Z[#50+4*#52]
G2 I-0.00400 J0
G1 Z[#50+3*#52]
G2 I-0.00400 J0
G1 Z[#50+2*#52]
G2 I-0.00400 J0
G1 Z[#50+1*#52]
G2 I-0.00400 J0
G0 Z0.02000

G0 X2.19400 Y1.37500
G1 Z[#50+12*#52]
G2 I-0.00400 J0
G1 Z[#50+11*#52]
G2 I-0.00400 J0
G1 Z[#50+10*#52]
G2 I-0.00400 J0
G1 Z[#50+9*#52]
G2 I-0.00400 J0
G1 Z[#50+8*#52]
G2 I-0.00400 J0
G1 Z[#50+7*#52]
G2 I-0.00400 J0
G1 Z[#50+6*#52]
G2 I-0.00400 J0
G1 Z[#50+5*#52]
G2 I-0.00400 J0
G1 Z[#50+4*#52]
G2 I-0.00400 J0
G1 Z[#50+3*#52]
G2 I-0.00400 J0
G1 Z[#50+2*#52]
G2 I-0.00400 J0
G1 Z[#50+1*#52]
G2 I-0.00400 J0
G0 Z0.02000

G0 X2.15900 Y1.11000
G1 Z[#50+12*#52]
G2 I-0.00400 J0
G1 Z[#50+11*#52]
G2 I-0.00400 J0
G1 Z[#50+10*#52]
G2 I-0.00400 J0
G1 Z[#50+9*#52]
G2 I-0.00400 J0
G1 Z[#50+8*#52]
G2 I-0.00400 J0
G1 Z[#50+7*#52]
G2 I-0.00400 J0
G1 Z[#50+6*#52]
G2 I-0.00400 J0
G1 Z[#50+5*#52]
G2 I-0.00400 J0
G1 Z[#50+4*#52]
G2 I-0.00400 J0
G1 Z[#50+3*#52]
G2 I-0.00400 J0
G1 Z[#50+2*#52]
G2 I-0.00400 J0
G1 Z[#50+1*#52]
G2 I-0.00400 J0
G0 Z0.02000

G0 X2.15900 Y1.01000
G1 Z[#50+12*#52]
G2 I-0.00400 J0
G1 Z[#50+11*#52]
G2 I-0.00400 J0
G1 Z[#50+10*#52]
G2 I-0.00400 J0
G1 Z[#50+9*#52]
G2 I-0.00400 J0
G1 Z[#50+8*#52]
G2 I-0.00400 J0
G1 Z[#50+7*#52]
G2 I-0.00400 J0
G1 Z[#50+6*#52]
G2 I-0.00400 J0
G1 Z[#50+5*#52]
G2 I-0.00400 J0
G1 Z[#50+4*#52]
G2 I-0.00400 J0
G1 Z[#50+3*#52]
G2 I-0.00400 J0
G1 Z[#50+2*#52]
G2 I-0.00400 J0
G1 Z[#50+1*#52]
G2 I-0.00400 J0
G0 Z0.02000

G0 X2.15880 Y0.74620
G1 Z[#50+12*#52]
G2 I-0.00400 J0
G1 Z[#50+11*#52]
G2 I-0.00400 J0
G1 Z[#50+10*#52]
G2 I-0.00400 J0
G1 Z[#50+9*#52]
G2 I-0.00400 J0
G1 Z[#50+8*#52]
G2 I-0.00400 J0
G1 Z[#50+7*#52]
G2 I-0.00400 J0
G1 Z[#50+6*#52]
G2 I-0.00400 J0
G1 Z[#50+5*#52]
G2 I-0.00400 J0
G1 Z[#50+4*#52]
G2 I-0.00400 J0
G1 Z[#50+3*#52]
G2 I-0.00400 J0
G1 Z[#50+2*#52]
G2 I-0.00400 J0
G1 Z[#50+1*#52]
G2 I-0.00400 J0
G0 Z0.02000

G0 X2.15880 Y0.64620
G1 Z[#50+12*#52]
G2 I-0.00400 J0
G1 Z[#50+11*#52]
G2 I-0.00400 J0
G1 Z[#50+10*#52]
G2 I-0.00400 J0
G1 Z[#50+9*#52]
G2 I-0.00400 J0
G1 Z[#50+8*#52]
G2 I-0.00400 J0
G1 Z[#50+7*#52]
G2 I-0.00400 J0
G1 Z[#50+6*#52]
G2 I-0.00400 J0
G1 Z[#50+5*#52]
G2 I-0.00400 J0
G1 Z[#50+4*#52]
G2 I-0.00400 J0
G1 Z[#50+3*#52]
G2 I-0.00400 J0
G1 Z[#50+2*#52]
G2 I-0.00400 J0
G1 Z[#50+1*#52]
G2 I-0.00400 J0
G0 Z0.02000

G0 X2.15880 Y0.54620
G1 Z[#50+12*#52]
G2 I-0.00400 J0
G1 Z[#50+11*#52]
G2 I-0.00400 J0
G1 Z[#50+10*#52]
G2 I-0.00400 J0
G1 Z[#50+9*#52]
G2 I-0.00400 J0
G1 Z[#50+8*#52]
G2 I-0.00400 J0
G1 Z[#50+7*#52]
G2 I-0.00400 J0
G1 Z[#50+6*#52]
G2 I-0.00400 J0
G1 Z[#50+5*#52]
G2 I-0.00400 J0
G1 Z[#50+4*#52]
G2 I-0.00400 J0
G1 Z[#50+3*#52]
G2 I-0.00400 J0
G1 Z[#50+2*#52]
G2 I-0.00400 J0
G1 Z[#50+1*#52]
G2 I-0.00400 J0
G0 Z0.02000

G0 X2.15880 Y0.44620
G1 Z[#50+12*#52]
G2 I-0.00400 J0
G1 Z[#50+11*#52]
G2 I-0.00400 J0
G1 Z[#50+10*#52]
G2 I-0.00400 J0
G1 Z[#50+9*#52]
G2 I-0.00400 J0
G1 Z[#50+8*#52]
G2 I-0.00400 J0
G1 Z[#50+7*#52]
G2 I-0.00400 J0
G1 Z[#50+6*#52]
G2 I-0.00400 J0
G1 Z[#50+5*#52]
G2 I-0.00400 J0
G1 Z[#50+4*#52]
G2 I-0.00400 J0
G1 Z[#50+3*#52]
G2 I-0.00400 J0
G1 Z[#50+2*#52]
G2 I-0.00400 J0
G1 Z[#50+1*#52]
G2 I-0.00400 J0
G0 Z0.02000

G0 X2.15880 Y0.34620
G1 Z[#50+12*#52]
G2 I-0.00400 J0
G1 Z[#50+11*#52]
G2 I-0.00400 J0
G1 Z[#50+10*#52]
G2 I-0.00400 J0
G1 Z[#50+9*#52]
G2 I-0.00400 J0
G1 Z[#50+8*#52]
G2 I-0.00400 J0
G1 Z[#50+7*#52]
G2 I-0.00400 J0
G1 Z[#50+6*#52]
G2 I-0.00400 J0
G1 Z[#50+5*#52]
G2 I-0.00400 J0
G1 Z[#50+4*#52]
G2 I-0.00400 J0
G1 Z[#50+3*#52]
G2 I-0.00400 J0
G1 Z[#50+2*#52]
G2 I-0.00400 J0
G1 Z[#50+1*#52]
G2 I-0.00400 J0
G0 Z0.02000

G0 X2.09400 Y1.67000
G1 Z[#50+12*#52]
G2 I-0.00400 J0
G1 Z[#50+11*#52]
G2 I-0.00400 J0
G1 Z[#50+10*#52]
G2 I-0.00400 J0
G1 Z[#50+9*#52]
G2 I-0.00400 J0
G1 Z[#50+8*#52]
G2 I-0.00400 J0
G1 Z[#50+7*#52]
G2 I-0.00400 J0
G1 Z[#50+6*#52]
G2 I-0.00400 J0
G1 Z[#50+5*#52]
G2 I-0.00400 J0
G1 Z[#50+4*#52]
G2 I-0.00400 J0
G1 Z[#50+3*#52]
G2 I-0.00400 J0
G1 Z[#50+2*#52]
G2 I-0.00400 J0
G1 Z[#50+1*#52]
G2 I-0.00400 J0
G0 Z0.02000

G0 X2.09400 Y1.37500
G1 Z[#50+12*#52]
G2 I-0.00400 J0
G1 Z[#50+11*#52]
G2 I-0.00400 J0
G1 Z[#50+10*#52]
G2 I-0.00400 J0
G1 Z[#50+9*#52]
G2 I-0.00400 J0
G1 Z[#50+8*#52]
G2 I-0.00400 J0
G1 Z[#50+7*#52]
G2 I-0.00400 J0
G1 Z[#50+6*#52]
G2 I-0.00400 J0
G1 Z[#50+5*#52]
G2 I-0.00400 J0
G1 Z[#50+4*#52]
G2 I-0.00400 J0
G1 Z[#50+3*#52]
G2 I-0.00400 J0
G1 Z[#50+2*#52]
G2 I-0.00400 J0
G1 Z[#50+1*#52]
G2 I-0.00400 J0
G0 Z0.02000

G0 X2.05880 Y0.74620
G1 Z[#50+12*#52]
G2 I-0.00400 J0
G1 Z[#50+11*#52]
G2 I-0.00400 J0
G1 Z[#50+10*#52]
G2 I-0.00400 J0
G1 Z[#50+9*#52]
G2 I-0.00400 J0
G1 Z[#50+8*#52]
G2 I-0.00400 J0
G1 Z[#50+7*#52]
G2 I-0.00400 J0
G1 Z[#50+6*#52]
G2 I-0.00400 J0
G1 Z[#50+5*#52]
G2 I-0.00400 J0
G1 Z[#50+4*#52]
G2 I-0.00400 J0
G1 Z[#50+3*#52]
G2 I-0.00400 J0
G1 Z[#50+2*#52]
G2 I-0.00400 J0
G1 Z[#50+1*#52]
G2 I-0.00400 J0
G0 Z0.02000

G0 X2.05880 Y0.64620
G1 Z[#50+12*#52]
G2 I-0.00400 J0
G1 Z[#50+11*#52]
G2 I-0.00400 J0
G1 Z[#50+10*#52]
G2 I-0.00400 J0
G1 Z[#50+9*#52]
G2 I-0.00400 J0
G1 Z[#50+8*#52]
G2 I-0.00400 J0
G1 Z[#50+7*#52]
G2 I-0.00400 J0
G1 Z[#50+6*#52]
G2 I-0.00400 J0
G1 Z[#50+5*#52]
G2 I-0.00400 J0
G1 Z[#50+4*#52]
G2 I-0.00400 J0
G1 Z[#50+3*#52]
G2 I-0.00400 J0
G1 Z[#50+2*#52]
G2 I-0.00400 J0
G1 Z[#50+1*#52]
G2 I-0.00400 J0
G0 Z0.02000

G0 X2.05880 Y0.54620
G1 Z[#50+12*#52]
G2 I-0.00400 J0
G1 Z[#50+11*#52]
G2 I-0.00400 J0
G1 Z[#50+10*#52]
G2 I-0.00400 J0
G1 Z[#50+9*#52]
G2 I-0.00400 J0
G1 Z[#50+8*#52]
G2 I-0.00400 J0
G1 Z[#50+7*#52]
G2 I-0.00400 J0
G1 Z[#50+6*#52]
G2 I-0.00400 J0
G1 Z[#50+5*#52]
G2 I-0.00400 J0
G1 Z[#50+4*#52]
G2 I-0.00400 J0
G1 Z[#50+3*#52]
G2 I-0.00400 J0
G1 Z[#50+2*#52]
G2 I-0.00400 J0
G1 Z[#50+1*#52]
G2 I-0.00400 J0
G0 Z0.02000

G0 X2.05880 Y0.44620
G1 Z[#50+12*#52]
G2 I-0.00400 J0
G1 Z[#50+11*#52]
G2 I-0.00400 J0
G1 Z[#50+10*#52]
G2 I-0.00400 J0
G1 Z[#50+9*#52]
G2 I-0.00400 J0
G1 Z[#50+8*#52]
G2 I-0.00400 J0
G1 Z[#50+7*#52]
G2 I-0.00400 J0
G1 Z[#50+6*#52]
G2 I-0.00400 J0
G1 Z[#50+5*#52]
G2 I-0.00400 J0
G1 Z[#50+4*#52]
G2 I-0.00400 J0
G1 Z[#50+3*#52]
G2 I-0.00400 J0
G1 Z[#50+2*#52]
G2 I-0.00400 J0
G1 Z[#50+1*#52]
G2 I-0.00400 J0
G0 Z0.02000

G0 X2.05880 Y0.34620
G1 Z[#50+12*#52]
G2 I-0.00400 J0
G1 Z[#50+11*#52]
G2 I-0.00400 J0
G1 Z[#50+10*#52]
G2 I-0.00400 J0
G1 Z[#50+9*#52]
G2 I-0.00400 J0
G1 Z[#50+8*#52]
G2 I-0.00400 J0
G1 Z[#50+7*#52]
G2 I-0.00400 J0
G1 Z[#50+6*#52]
G2 I-0.00400 J0
G1 Z[#50+5*#52]
G2 I-0.00400 J0
G1 Z[#50+4*#52]
G2 I-0.00400 J0
G1 Z[#50+3*#52]
G2 I-0.00400 J0
G1 Z[#50+2*#52]
G2 I-0.00400 J0
G1 Z[#50+1*#52]
G2 I-0.00400 J0
G0 Z0.02000

G0 X1.75500 Y1.07000
G1 Z#50
G0 Z#51

G0 X1.55500 Y1.07000
G1 Z#50
G0 Z#51

G0 X1.04200 Y1.61000
G1 Z#50
G0 Z#51

G0 X1.04200 Y0.74400
G1 Z#50
G0 Z#51

G0 X1.01480 Y0.12120
G1 Z#50
G0 Z#51

G0 X0.96300 Y1.61000
G1 Z#50
G0 Z#51

G0 X0.96300 Y0.74400
G1 Z#50
G0 Z#51

G0 X0.88400 Y1.61000
G1 Z#50
G0 Z#51

G0 X0.88400 Y0.74400
G1 Z#50
G0 Z#51

G0 X0.81480 Y0.12120
G1 Z#50
G0 Z#51

G0 X0.80500 Y1.61000
G1 Z#50
G0 Z#51

G0 X0.80500 Y0.74400
G1 Z#50
G0 Z#51

G0 X0.72600 Y1.61000
G1 Z#50
G0 Z#51

G0 X0.72600 Y0.74400
G1 Z#50
G0 Z#51

G0 X0.64700 Y1.61000
G1 Z#50
G0 Z#51

G0 X0.64700 Y0.74400
G1 Z#50
G0 Z#51

G0 X0.56800 Y1.61000
G1 Z#50
G0 Z#51

G0 X0.56800 Y0.74400
G1 Z#50
G0 Z#51

G0 X0.48900 Y1.61000
G1 Z#50
G0 Z#51

G0 X0.48900 Y0.74400
G1 Z#50
G0 Z#51

G0 X0.41000 Y1.61000
G1 Z#50
G0 Z#51

G0 X0.41000 Y0.74400
G1 Z#50
G0 Z#51

G0 X0.33100 Y1.61000
G1 Z#50
G0 Z#51

G0 X0.33100 Y0.74400
G1 Z#50
G0 Z#51

G0 X1.32500 Y1.47500
G1 Z[#50+12*#52]
G2 I-0.01000 J0
G1 Z[#50+11*#52]
G2 I-0.01000 J0
G1 Z[#50+10*#52]
G2 I-0.01000 J0
G1 Z[#50+9*#52]
G2 I-0.01000 J0
G1 Z[#50+8*#52]
G2 I-0.01000 J0
G1 Z[#50+7*#52]
G2 I-0.01000 J0
G1 Z[#50+6*#52]
G2 I-0.01000 J0
G1 Z[#50+5*#52]
G2 I-0.01000 J0
G1 Z[#50+4*#52]
G2 I-0.01000 J0
G1 Z[#50+3*#52]
G2 I-0.01000 J0
G1 Z[#50+2*#52]
G2 I-0.01000 J0
G1 Z[#50+1*#52]
G2 I-0.01000 J0
G0 Z0.02000

G0 X0.46000 Y1.54500
G1 Z[#50+12*#52]
G2 I-0.01000 J0
G1 Z[#50+11*#52]
G2 I-0.01000 J0
G1 Z[#50+10*#52]
G2 I-0.01000 J0
G1 Z[#50+9*#52]
G2 I-0.01000 J0
G1 Z[#50+8*#52]
G2 I-0.01000 J0
G1 Z[#50+7*#52]
G2 I-0.01000 J0
G1 Z[#50+6*#52]
G2 I-0.01000 J0
G1 Z[#50+5*#52]
G2 I-0.01000 J0
G1 Z[#50+4*#52]
G2 I-0.01000 J0
G1 Z[#50+3*#52]
G2 I-0.01000 J0
G1 Z[#50+2*#52]
G2 I-0.01000 J0
G1 Z[#50+1*#52]
G2 I-0.01000 J0
G0 Z0.02000

G0 X0.31500 Y1.16000
G1 Z[#50+12*#52]
G2 I-0.01000 J0
G1 Z[#50+11*#52]
G2 I-0.01000 J0
G1 Z[#50+10*#52]
G2 I-0.01000 J0
G1 Z[#50+9*#52]
G2 I-0.01000 J0
G1 Z[#50+8*#52]
G2 I-0.01000 J0
G1 Z[#50+7*#52]
G2 I-0.01000 J0
G1 Z[#50+6*#52]
G2 I-0.01000 J0
G1 Z[#50+5*#52]
G2 I-0.01000 J0
G1 Z[#50+4*#52]
G2 I-0.01000 J0
G1 Z[#50+3*#52]
G2 I-0.01000 J0
G1 Z[#50+2*#52]
G2 I-0.01000 J0
G1 Z[#50+1*#52]
G2 I-0.01000 J0
G0 Z0.02000

G0 X2.06250 Y2.33500
G1 Z[#50+12*#52]
G2 I-0.00250 J0
G1 Z[#50+11*#52]
G2 I-0.00250 J0
G1 Z[#50+10*#52]
G2 I-0.00250 J0
G1 Z[#50+9*#52]
G2 I-0.00250 J0
G1 Z[#50+8*#52]
G2 I-0.00250 J0
G1 Z[#50+7*#52]
G2 I-0.00250 J0
G1 Z[#50+6*#52]
G2 I-0.00250 J0
G1 Z[#50+5*#52]
G2 I-0.00250 J0
G1 Z[#50+4*#52]
G2 I-0.00250 J0
G1 Z[#50+3*#52]
G2 I-0.00250 J0
G1 Z[#50+2*#52]
G2 I-0.00250 J0
G1 Z[#50+1*#52]
G2 I-0.00250 J0
G0 Z0.02000

G0 X2.01250 Y2.43500
G1 Z[#50+12*#52]
G2 I-0.00250 J0
G1 Z[#50+11*#52]
G2 I-0.00250 J0
G1 Z[#50+10*#52]
G2 I-0.00250 J0
G1 Z[#50+9*#52]
G2 I-0.00250 J0
G1 Z[#50+8*#52]
G2 I-0.00250 J0
G1 Z[#50+7*#52]
G2 I-0.00250 J0
G1 Z[#50+6*#52]
G2 I-0.00250 J0
G1 Z[#50+5*#52]
G2 I-0.00250 J0
G1 Z[#50+4*#52]
G2 I-0.00250 J0
G1 Z[#50+3*#52]
G2 I-0.00250 J0
G1 Z[#50+2*#52]
G2 I-0.00250 J0
G1 Z[#50+1*#52]
G2 I-0.00250 J0
G0 Z0.02000

G0 X1.96250 Y2.33500
G1 Z[#50+12*#52]
G2 I-0.00250 J0
G1 Z[#50+11*#52]
G2 I-0.00250 J0
G1 Z[#50+10*#52]
G2 I-0.00250 J0
G1 Z[#50+9*#52]
G2 I-0.00250 J0
G1 Z[#50+8*#52]
G2 I-0.00250 J0
G1 Z[#50+7*#52]
G2 I-0.00250 J0
G1 Z[#50+6*#52]
G2 I-0.00250 J0
G1 Z[#50+5*#52]
G2 I-0.00250 J0
G1 Z[#50+4*#52]
G2 I-0.00250 J0
G1 Z[#50+3*#52]
G2 I-0.00250 J0
G1 Z[#50+2*#52]
G2 I-0.00250 J0
G1 Z[#50+1*#52]
G2 I-0.00250 J0
G0 Z0.02000

G0 X1.91250 Y2.43500
G1 Z[#50+12*#52]
G2 I-0.00250 J0
G1 Z[#50+11*#52]
G2 I-0.00250 J0
G1 Z[#50+10*#52]
G2 I-0.00250 J0
G1 Z[#50+9*#52]
G2 I-0.00250 J0
G1 Z[#50+8*#52]
G2 I-0.00250 J0
G1 Z[#50+7*#52]
G2 I-0.00250 J0
G1 Z[#50+6*#52]
G2 I-0.00250 J0
G1 Z[#50+5*#52]
G2 I-0.00250 J0
G1 Z[#50+4*#52]
G2 I-0.00250 J0
G1 Z[#50+3*#52]
G2 I-0.00250 J0
G1 Z[#50+2*#52]
G2 I-0.00250 J0
G1 Z[#50+1*#52]
G2 I-0.00250 J0
G0 Z0.02000

G0 X1.86250 Y2.33500
G1 Z[#50+12*#52]
G2 I-0.00250 J0
G1 Z[#50+11*#52]
G2 I-0.00250 J0
G1 Z[#50+10*#52]
G2 I-0.00250 J0
G1 Z[#50+9*#52]
G2 I-0.00250 J0
G1 Z[#50+8*#52]
G2 I-0.00250 J0
G1 Z[#50+7*#52]
G2 I-0.00250 J0
G1 Z[#50+6*#52]
G2 I-0.00250 J0
G1 Z[#50+5*#52]
G2 I-0.00250 J0
G1 Z[#50+4*#52]
G2 I-0.00250 J0
G1 Z[#50+3*#52]
G2 I-0.00250 J0
G1 Z[#50+2*#52]
G2 I-0.00250 J0
G1 Z[#50+1*#52]
G2 I-0.00250 J0
G0 Z0.02000

G0 X1.81250 Y2.43500
G1 Z[#50+12*#52]
G2 I-0.00250 J0
G1 Z[#50+11*#52]
G2 I-0.00250 J0
G1 Z[#50+10*#52]
G2 I-0.00250 J0
G1 Z[#50+9*#52]
G2 I-0.00250 J0
G1 Z[#50+8*#52]
G2 I-0.00250 J0
G1 Z[#50+7*#52]
G2 I-0.00250 J0
G1 Z[#50+6*#52]
G2 I-0.00250 J0
G1 Z[#50+5*#52]
G2 I-0.00250 J0
G1 Z[#50+4*#52]
G2 I-0.00250 J0
G1 Z[#50+3*#52]
G2 I-0.00250 J0
G1 Z[#50+2*#52]
G2 I-0.00250 J0
G1 Z[#50+1*#52]
G2 I-0.00250 J0
G0 Z0.02000

G0 X1.76250 Y2.33500
G1 Z[#50+12*#52]
G2 I-0.00250 J0
G1 Z[#50+11*#52]
G2 I-0.00250 J0
G1 Z[#50+10*#52]
G2 I-0.00250 J0
G1 Z[#50+9*#52]
G2 I-0.00250 J0
G1 Z[#50+8*#52]
G2 I-0.00250 J0
G1 Z[#50+7*#52]
G2 I-0.00250 J0
G1 Z[#50+6*#52]
G2 I-0.00250 J0
G1 Z[#50+5*#52]
G2 I-0.00250 J0
G1 Z[#50+4*#52]
G2 I-0.00250 J0
G1 Z[#50+3*#52]
G2 I-0.00250 J0
G1 Z[#50+2*#52]
G2 I-0.00250 J0
G1 Z[#50+1*#52]
G2 I-0.00250 J0
G0 Z0.02000

G0 X1.71250 Y2.43500
G1 Z[#50+12*#52]
G2 I-0.00250 J0
G1 Z[#50+11*#52]
G2 I-0.00250 J0
G1 Z[#50+10*#52]
G2 I-0.00250 J0
G1 Z[#50+9*#52]
G2 I-0.00250 J0
G1 Z[#50+8*#52]
G2 I-0.00250 J0
G1 Z[#50+7*#52]
G2 I-0.00250 J0
G1 Z[#50+6*#52]
G2 I-0.00250 J0
G1 Z[#50+5*#52]
G2 I-0.00250 J0
G1 Z[#50+4*#52]
G2 I-0.00250 J0
G1 Z[#50+3*#52]
G2 I-0.00250 J0
G1 Z[#50+2*#52]
G2 I-0.00250 J0
G1 Z[#50+1*#52]
G2 I-0.00250 J0
G0 Z0.02000

G0 X1.53750 Y0.62000
G1 Z[#50+12*#52]
G2 I-0.00250 J0
G1 Z[#50+11*#52]
G2 I-0.00250 J0
G1 Z[#50+10*#52]
G2 I-0.00250 J0
G1 Z[#50+9*#52]
G2 I-0.00250 J0
G1 Z[#50+8*#52]
G2 I-0.00250 J0
G1 Z[#50+7*#52]
G2 I-0.00250 J0
G1 Z[#50+6*#52]
G2 I-0.00250 J0
G1 Z[#50+5*#52]
G2 I-0.00250 J0
G1 Z[#50+4*#52]
G2 I-0.00250 J0
G1 Z[#50+3*#52]
G2 I-0.00250 J0
G1 Z[#50+2*#52]
G2 I-0.00250 J0
G1 Z[#50+1*#52]
G2 I-0.00250 J0
G0 Z0.02000

G0 X1.53750 Y0.52000
G1 Z[#50+12*#52]
G2 I-0.00250 J0
G1 Z[#50+11*#52]
G2 I-0.00250 J0
G1 Z[#50+10*#52]
G2 I-0.00250 J0
G1 Z[#50+9*#52]
G2 I-0.00250 J0
G1 Z[#50+8*#52]
G2 I-0.00250 J0
G1 Z[#50+7*#52]
G2 I-0.00250 J0
G1 Z[#50+6*#52]
G2 I-0.00250 J0
G1 Z[#50+5*#52]
G2 I-0.00250 J0
G1 Z[#50+4*#52]
G2 I-0.00250 J0
G1 Z[#50+3*#52]
G2 I-0.00250 J0
G1 Z[#50+2*#52]
G2 I-0.00250 J0
G1 Z[#50+1*#52]
G2 I-0.00250 J0
G0 Z0.02000

G0 X1.53750 Y0.42000
G1 Z[#50+12*#52]
G2 I-0.00250 J0
G1 Z[#50+11*#52]
G2 I-0.00250 J0
G1 Z[#50+10*#52]
G2 I-0.00250 J0
G1 Z[#50+9*#52]
G2 I-0.00250 J0
G1 Z[#50+8*#52]
G2 I-0.00250 J0
G1 Z[#50+7*#52]
G2 I-0.00250 J0
G1 Z[#50+6*#52]
G2 I-0.00250 J0
G1 Z[#50+5*#52]
G2 I-0.00250 J0
G1 Z[#50+4*#52]
G2 I-0.00250 J0
G1 Z[#50+3*#52]
G2 I-0.00250 J0
G1 Z[#50+2*#52]
G2 I-0.00250 J0
G1 Z[#50+1*#52]
G2 I-0.00250 J0
G0 Z0.02000

G0 X1.53750 Y0.32000
G1 Z[#50+12*#52]
G2 I-0.00250 J0
G1 Z[#50+11*#52]
G2 I-0.00250 J0
G1 Z[#50+10*#52]
G2 I-0.00250 J0
G1 Z[#50+9*#52]
G2 I-0.00250 J0
G1 Z[#50+8*#52]
G2 I-0.00250 J0
G1 Z[#50+7*#52]
G2 I-0.00250 J0
G1 Z[#50+6*#52]
G2 I-0.00250 J0
G1 Z[#50+5*#52]
G2 I-0.00250 J0
G1 Z[#50+4*#52]
G2 I-0.00250 J0
G1 Z[#50+3*#52]
G2 I-0.00250 J0
G1 Z[#50+2*#52]
G2 I-0.00250 J0
G1 Z[#50+1*#52]
G2 I-0.00250 J0
G0 Z0.02000

G0 X1.43750 Y0.57000
G1 Z[#50+12*#52]
G2 I-0.00250 J0
G1 Z[#50+11*#52]
G2 I-0.00250 J0
G1 Z[#50+10*#52]
G2 I-0.00250 J0
G1 Z[#50+9*#52]
G2 I-0.00250 J0
G1 Z[#50+8*#52]
G2 I-0.00250 J0
G1 Z[#50+7*#52]
G2 I-0.00250 J0
G1 Z[#50+6*#52]
G2 I-0.00250 J0
G1 Z[#50+5*#52]
G2 I-0.00250 J0
G1 Z[#50+4*#52]
G2 I-0.00250 J0
G1 Z[#50+3*#52]
G2 I-0.00250 J0
G1 Z[#50+2*#52]
G2 I-0.00250 J0
G1 Z[#50+1*#52]
G2 I-0.00250 J0
G0 Z0.02000

G0 X1.43750 Y0.47000
G1 Z[#50+12*#52]
G2 I-0.00250 J0
G1 Z[#50+11*#52]
G2 I-0.00250 J0
G1 Z[#50+10*#52]
G2 I-0.00250 J0
G1 Z[#50+9*#52]
G2 I-0.00250 J0
G1 Z[#50+8*#52]
G2 I-0.00250 J0
G1 Z[#50+7*#52]
G2 I-0.00250 J0
G1 Z[#50+6*#52]
G2 I-0.00250 J0
G1 Z[#50+5*#52]
G2 I-0.00250 J0
G1 Z[#50+4*#52]
G2 I-0.00250 J0
G1 Z[#50+3*#52]
G2 I-0.00250 J0
G1 Z[#50+2*#52]
G2 I-0.00250 J0
G1 Z[#50+1*#52]
G2 I-0.00250 J0
G0 Z0.02000

G0 X1.43750 Y0.37000
G1 Z[#50+12*#52]
G2 I-0.00250 J0
G1 Z[#50+11*#52]
G2 I-0.00250 J0
G1 Z[#50+10*#52]
G2 I-0.00250 J0
G1 Z[#50+9*#52]
G2 I-0.00250 J0
G1 Z[#50+8*#52]
G2 I-0.00250 J0
G1 Z[#50+7*#52]
G2 I-0.00250 J0
G1 Z[#50+6*#52]
G2 I-0.00250 J0
G1 Z[#50+5*#52]
G2 I-0.00250 J0
G1 Z[#50+4*#52]
G2 I-0.00250 J0
G1 Z[#50+3*#52]
G2 I-0.00250 J0
G1 Z[#50+2*#52]
G2 I-0.00250 J0
G1 Z[#50+1*#52]
G2 I-0.00250 J0
G0 Z0.02000

G0 X1.43750 Y0.27000
G1 Z[#50+12*#52]
G2 I-0.00250 J0
G1 Z[#50+11*#52]
G2 I-0.00250 J0
G1 Z[#50+10*#52]
G2 I-0.00250 J0
G1 Z[#50+9*#52]
G2 I-0.00250 J0
G1 Z[#50+8*#52]
G2 I-0.00250 J0
G1 Z[#50+7*#52]
G2 I-0.00250 J0
G1 Z[#50+6*#52]
G2 I-0.00250 J0
G1 Z[#50+5*#52]
G2 I-0.00250 J0
G1 Z[#50+4*#52]
G2 I-0.00250 J0
G1 Z[#50+3*#52]
G2 I-0.00250 J0
G1 Z[#50+2*#52]
G2 I-0.00250 J0
G1 Z[#50+1*#52]
G2 I-0.00250 J0
G0 Z0.02000

G0 X1.33750 Y2.33500
G1 Z[#50+12*#52]
G2 I-0.00250 J0
G1 Z[#50+11*#52]
G2 I-0.00250 J0
G1 Z[#50+10*#52]
G2 I-0.00250 J0
G1 Z[#50+9*#52]
G2 I-0.00250 J0
G1 Z[#50+8*#52]
G2 I-0.00250 J0
G1 Z[#50+7*#52]
G2 I-0.00250 J0
G1 Z[#50+6*#52]
G2 I-0.00250 J0
G1 Z[#50+5*#52]
G2 I-0.00250 J0
G1 Z[#50+4*#52]
G2 I-0.00250 J0
G1 Z[#50+3*#52]
G2 I-0.00250 J0
G1 Z[#50+2*#52]
G2 I-0.00250 J0
G1 Z[#50+1*#52]
G2 I-0.00250 J0
G0 Z0.02000

G0 X1.28750 Y2.43500
G1 Z[#50+12*#52]
G2 I-0.00250 J0
G1 Z[#50+11*#52]
G2 I-0.00250 J0
G1 Z[#50+10*#52]
G2 I-0.00250 J0
G1 Z[#50+9*#52]
G2 I-0.00250 J0
G1 Z[#50+8*#52]
G2 I-0.00250 J0
G1 Z[#50+7*#52]
G2 I-0.00250 J0
G1 Z[#50+6*#52]
G2 I-0.00250 J0
G1 Z[#50+5*#52]
G2 I-0.00250 J0
G1 Z[#50+4*#52]
G2 I-0.00250 J0
G1 Z[#50+3*#52]
G2 I-0.00250 J0
G1 Z[#50+2*#52]
G2 I-0.00250 J0
G1 Z[#50+1*#52]
G2 I-0.00250 J0
G0 Z0.02000

G0 X1.23750 Y2.33500
G1 Z[#50+12*#52]
G2 I-0.00250 J0
G1 Z[#50+11*#52]
G2 I-0.00250 J0
G1 Z[#50+10*#52]
G2 I-0.00250 J0
G1 Z[#50+9*#52]
G2 I-0.00250 J0
G1 Z[#50+8*#52]
G2 I-0.00250 J0
G1 Z[#50+7*#52]
G2 I-0.00250 J0
G1 Z[#50+6*#52]
G2 I-0.00250 J0
G1 Z[#50+5*#52]
G2 I-0.00250 J0
G1 Z[#50+4*#52]
G2 I-0.00250 J0
G1 Z[#50+3*#52]
G2 I-0.00250 J0
G1 Z[#50+2*#52]
G2 I-0.00250 J0
G1 Z[#50+1*#52]
G2 I-0.00250 J0
G0 Z0.02000

G0 X1.18750 Y2.43500
G1 Z[#50+12*#52]
G2 I-0.00250 J0
G1 Z[#50+11*#52]
G2 I-0.00250 J0
G1 Z[#50+10*#52]
G2 I-0.00250 J0
G1 Z[#50+9*#52]
G2 I-0.00250 J0
G1 Z[#50+8*#52]
G2 I-0.00250 J0
G1 Z[#50+7*#52]
G2 I-0.00250 J0
G1 Z[#50+6*#52]
G2 I-0.00250 J0
G1 Z[#50+5*#52]
G2 I-0.00250 J0
G1 Z[#50+4*#52]
G2 I-0.00250 J0
G1 Z[#50+3*#52]
G2 I-0.00250 J0
G1 Z[#50+2*#52]
G2 I-0.00250 J0
G1 Z[#50+1*#52]
G2 I-0.00250 J0
G0 Z0.02000

G0 X1.13750 Y2.33500
G1 Z[#50+12*#52]
G2 I-0.00250 J0
G1 Z[#50+11*#52]
G2 I-0.00250 J0
G1 Z[#50+10*#52]
G2 I-0.00250 J0
G1 Z[#50+9*#52]
G2 I-0.00250 J0
G1 Z[#50+8*#52]
G2 I-0.00250 J0
G1 Z[#50+7*#52]
G2 I-0.00250 J0
G1 Z[#50+6*#52]
G2 I-0.00250 J0
G1 Z[#50+5*#52]
G2 I-0.00250 J0
G1 Z[#50+4*#52]
G2 I-0.00250 J0
G1 Z[#50+3*#52]
G2 I-0.00250 J0
G1 Z[#50+2*#52]
G2 I-0.00250 J0
G1 Z[#50+1*#52]
G2 I-0.00250 J0
G0 Z0.02000

G0 X1.08750 Y2.43500
G1 Z[#50+12*#52]
G2 I-0.00250 J0
G1 Z[#50+11*#52]
G2 I-0.00250 J0
G1 Z[#50+10*#52]
G2 I-0.00250 J0
G1 Z[#50+9*#52]
G2 I-0.00250 J0
G1 Z[#50+8*#52]
G2 I-0.00250 J0
G1 Z[#50+7*#52]
G2 I-0.00250 J0
G1 Z[#50+6*#52]
G2 I-0.00250 J0
G1 Z[#50+5*#52]
G2 I-0.00250 J0
G1 Z[#50+4*#52]
G2 I-0.00250 J0
G1 Z[#50+3*#52]
G2 I-0.00250 J0
G1 Z[#50+2*#52]
G2 I-0.00250 J0
G1 Z[#50+1*#52]
G2 I-0.00250 J0
G0 Z0.02000

G0 X1.03750 Y2.33500
G1 Z[#50+12*#52]
G2 I-0.00250 J0
G1 Z[#50+11*#52]
G2 I-0.00250 J0
G1 Z[#50+10*#52]
G2 I-0.00250 J0
G1 Z[#50+9*#52]
G2 I-0.00250 J0
G1 Z[#50+8*#52]
G2 I-0.00250 J0
G1 Z[#50+7*#52]
G2 I-0.00250 J0
G1 Z[#50+6*#52]
G2 I-0.00250 J0
G1 Z[#50+5*#52]
G2 I-0.00250 J0
G1 Z[#50+4*#52]
G2 I-0.00250 J0
G1 Z[#50+3*#52]
G2 I-0.00250 J0
G1 Z[#50+2*#52]
G2 I-0.00250 J0
G1 Z[#50+1*#52]
G2 I-0.00250 J0
G0 Z0.02000

G0 X0.98750 Y2.43500
G1 Z[#50+12*#52]
G2 I-0.00250 J0
G1 Z[#50+11*#52]
G2 I-0.00250 J0
G1 Z[#50+10*#52]
G2 I-0.00250 J0
G1 Z[#50+9*#52]
G2 I-0.00250 J0
G1 Z[#50+8*#52]
G2 I-0.00250 J0
G1 Z[#50+7*#52]
G2 I-0.00250 J0
G1 Z[#50+6*#52]
G2 I-0.00250 J0
G1 Z[#50+5*#52]
G2 I-0.00250 J0
G1 Z[#50+4*#52]
G2 I-0.00250 J0
G1 Z[#50+3*#52]
G2 I-0.00250 J0
G1 Z[#50+2*#52]
G2 I-0.00250 J0
G1 Z[#50+1*#52]
G2 I-0.00250 J0
G0 Z0.02000

G0 X0.61250 Y2.33500
G1 Z[#50+12*#52]
G2 I-0.00250 J0
G1 Z[#50+11*#52]
G2 I-0.00250 J0
G1 Z[#50+10*#52]
G2 I-0.00250 J0
G1 Z[#50+9*#52]
G2 I-0.00250 J0
G1 Z[#50+8*#52]
G2 I-0.00250 J0
G1 Z[#50+7*#52]
G2 I-0.00250 J0
G1 Z[#50+6*#52]
G2 I-0.00250 J0
G1 Z[#50+5*#52]
G2 I-0.00250 J0
G1 Z[#50+4*#52]
G2 I-0.00250 J0
G1 Z[#50+3*#52]
G2 I-0.00250 J0
G1 Z[#50+2*#52]
G2 I-0.00250 J0
G1 Z[#50+1*#52]
G2 I-0.00250 J0
G0 Z0.02000

G0 X0.56250 Y2.43500
G1 Z[#50+12*#52]
G2 I-0.00250 J0
G1 Z[#50+11*#52]
G2 I-0.00250 J0
G1 Z[#50+10*#52]
G2 I-0.00250 J0
G1 Z[#50+9*#52]
G2 I-0.00250 J0
G1 Z[#50+8*#52]
G2 I-0.00250 J0
G1 Z[#50+7*#52]
G2 I-0.00250 J0
G1 Z[#50+6*#52]
G2 I-0.00250 J0
G1 Z[#50+5*#52]
G2 I-0.00250 J0
G1 Z[#50+4*#52]
G2 I-0.00250 J0
G1 Z[#50+3*#52]
G2 I-0.00250 J0
G1 Z[#50+2*#52]
G2 I-0.00250 J0
G1 Z[#50+1*#52]
G2 I-0.00250 J0
G0 Z0.02000

G0 X0.51250 Y2.33500
G1 Z[#50+12*#52]
G2 I-0.00250 J0
G1 Z[#50+11*#52]
G2 I-0.00250 J0
G1 Z[#50+10*#52]
G2 I-0.00250 J0
G1 Z[#50+9*#52]
G2 I-0.00250 J0
G1 Z[#50+8*#52]
G2 I-0.00250 J0
G1 Z[#50+7*#52]
G2 I-0.00250 J0
G1 Z[#50+6*#52]
G2 I-0.00250 J0
G1 Z[#50+5*#52]
G2 I-0.00250 J0
G1 Z[#50+4*#52]
G2 I-0.00250 J0
G1 Z[#50+3*#52]
G2 I-0.00250 J0
G1 Z[#50+2*#52]
G2 I-0.00250 J0
G1 Z[#50+1*#52]
G2 I-0.00250 J0
G0 Z0.02000

G0 X0.46250 Y2.43500
G1 Z[#50+12*#52]
G2 I-0.00250 J0
G1 Z[#50+11*#52]
G2 I-0.00250 J0
G1 Z[#50+10*#52]
G2 I-0.00250 J0
G1 Z[#50+9*#52]
G2 I-0.00250 J0
G1 Z[#50+8*#52]
G2 I-0.00250 J0
G1 Z[#50+7*#52]
G2 I-0.00250 J0
G1 Z[#50+6*#52]
G2 I-0.00250 J0
G1 Z[#50+5*#52]
G2 I-0.00250 J0
G1 Z[#50+4*#52]
G2 I-0.00250 J0
G1 Z[#50+3*#52]
G2 I-0.00250 J0
G1 Z[#50+2*#52]
G2 I-0.00250 J0
G1 Z[#50+1*#52]
G2 I-0.00250 J0
G0 Z0.02000

G0 X0.41250 Y2.33500
G1 Z[#50+12*#52]
G2 I-0.00250 J0
G1 Z[#50+11*#52]
G2 I-0.00250 J0
G1 Z[#50+10*#52]
G2 I-0.00250 J0
G1 Z[#50+9*#52]
G2 I-0.00250 J0
G1 Z[#50+8*#52]
G2 I-0.00250 J0
G1 Z[#50+7*#52]
G2 I-0.00250 J0
G1 Z[#50+6*#52]
G2 I-0.00250 J0
G1 Z[#50+5*#52]
G2 I-0.00250 J0
G1 Z[#50+4*#52]
G2 I-0.00250 J0
G1 Z[#50+3*#52]
G2 I-0.00250 J0
G1 Z[#50+2*#52]
G2 I-0.00250 J0
G1 Z[#50+1*#52]
G2 I-0.00250 J0
G0 Z0.02000

G0 X0.36250 Y2.43500
G1 Z[#50+12*#52]
G2 I-0.00250 J0
G1 Z[#50+11*#52]
G2 I-0.00250 J0
G1 Z[#50+10*#52]
G2 I-0.00250 J0
G1 Z[#50+9*#52]
G2 I-0.00250 J0
G1 Z[#50+8*#52]
G2 I-0.00250 J0
G1 Z[#50+7*#52]
G2 I-0.00250 J0
G1 Z[#50+6*#52]
G2 I-0.00250 J0
G1 Z[#50+5*#52]
G2 I-0.00250 J0
G1 Z[#50+4*#52]
G2 I-0.00250 J0
G1 Z[#50+3*#52]
G2 I-0.00250 J0
G1 Z[#50+2*#52]
G2 I-0.00250 J0
G1 Z[#50+1*#52]
G2 I-0.00250 J0
G0 Z0.02000

G0 X0.31250 Y2.33500
G1 Z[#50+12*#52]
G2 I-0.00250 J0
G1 Z[#50+11*#52]
G2 I-0.00250 J0
G1 Z[#50+10*#52]
G2 I-0.00250 J0
G1 Z[#50+9*#52]
G2 I-0.00250 J0
G1 Z[#50+8*#52]
G2 I-0.00250 J0
G1 Z[#50+7*#52]
G2 I-0.00250 J0
G1 Z[#50+6*#52]
G2 I-0.00250 J0
G1 Z[#50+5*#52]
G2 I-0.00250 J0
G1 Z[#50+4*#52]
G2 I-0.00250 J0
G1 Z[#50+3*#52]
G2 I-0.00250 J0
G1 Z[#50+2*#52]
G2 I-0.00250 J0
G1 Z[#50+1*#52]
G2 I-0.00250 J0
G0 Z0.02000

G0 X0.26250 Y2.43500
G1 Z[#50+12*#52]
G2 I-0.00250 J0
G1 Z[#50+11*#52]
G2 I-0.00250 J0
G1 Z[#50+10*#52]
G2 I-0.00250 J0
G1 Z[#50+9*#52]
G2 I-0.00250 J0
G1 Z[#50+8*#52]
G2 I-0.00250 J0
G1 Z[#50+7*#52]
G2 I-0.00250 J0
G1 Z[#50+6*#52]
G2 I-0.00250 J0
G1 Z[#50+5*#52]
G2 I-0.00250 J0
G1 Z[#50+4*#52]
G2 I-0.00250 J0
G1 Z[#50+3*#52]
G2 I-0.00250 J0
G1 Z[#50+2*#52]
G2 I-0.00250 J0
G1 Z[#50+1*#52]
G2 I-0.00250 J0
G0 Z0.02000

G0 X2.15900 Y2.08500
G1 Z[#50+12*#52]
G2 I-0.04900 J0
G1 Z[#50+11*#52]
G2 I-0.04900 J0
G1 Z[#50+10*#52]
G2 I-0.04900 J0
G1 Z[#50+9*#52]
G2 I-0.04900 J0
G1 Z[#50+8*#52]
G2 I-0.04900 J0
G1 Z[#50+7*#52]
G2 I-0.04900 J0
G1 Z[#50+6*#52]
G2 I-0.04900 J0
G1 Z[#50+5*#52]
G2 I-0.04900 J0
G1 Z[#50+4*#52]
G2 I-0.04900 J0
G1 Z[#50+3*#52]
G2 I-0.04900 J0
G1 Z[#50+2*#52]
G2 I-0.04900 J0
G1 Z[#50+1*#52]
G2 I-0.04900 J0
G0 Z0.02000

G0 X1.70900 Y2.08500
G1 Z[#50+12*#52]
G2 I-0.04900 J0
G1 Z[#50+11*#52]
G2 I-0.04900 J0
G1 Z[#50+10*#52]
G2 I-0.04900 J0
G1 Z[#50+9*#52]
G2 I-0.04900 J0
G1 Z[#50+8*#52]
G2 I-0.04900 J0
G1 Z[#50+7*#52]
G2 I-0.04900 J0
G1 Z[#50+6*#52]
G2 I-0.04900 J0
G1 Z[#50+5*#52]
G2 I-0.04900 J0
G1 Z[#50+4*#52]
G2 I-0.04900 J0
G1 Z[#50+3*#52]
G2 I-0.04900 J0
G1 Z[#50+2*#52]
G2 I-0.04900 J0
G1 Z[#50+1*#52]
G2 I-0.04900 J0
G0 Z0.02000

G0 X1.43400 Y2.08500
G1 Z[#50+12*#52]
G2 I-0.04900 J0
G1 Z[#50+11*#52]
G2 I-0.04900 J0
G1 Z[#50+10*#52]
G2 I-0.04900 J0
G1 Z[#50+9*#52]
G2 I-0.04900 J0
G1 Z[#50+8*#52]
G2 I-0.04900 J0
G1 Z[#50+7*#52]
G2 I-0.04900 J0
G1 Z[#50+6*#52]
G2 I-0.04900 J0
G1 Z[#50+5*#52]
G2 I-0.04900 J0
G1 Z[#50+4*#52]
G2 I-0.04900 J0
G1 Z[#50+3*#52]
G2 I-0.04900 J0
G1 Z[#50+2*#52]
G2 I-0.04900 J0
G1 Z[#50+1*#52]
G2 I-0.04900 J0
G0 Z0.02000

G0 X0.98400 Y2.08500
G1 Z[#50+12*#52]
G2 I-0.04900 J0
G1 Z[#50+11*#52]
G2 I-0.04900 J0
G1 Z[#50+10*#52]
G2 I-0.04900 J0
G1 Z[#50+9*#52]
G2 I-0.04900 J0
G1 Z[#50+8*#52]
G2 I-0.04900 J0
G1 Z[#50+7*#52]
G2 I-0.04900 J0
G1 Z[#50+6*#52]
G2 I-0.04900 J0
G1 Z[#50+5*#52]
G2 I-0.04900 J0
G1 Z[#50+4*#52]
G2 I-0.04900 J0
G1 Z[#50+3*#52]
G2 I-0.04900 J0
G1 Z[#50+2*#52]
G2 I-0.04900 J0
G1 Z[#50+1*#52]
G2 I-0.04900 J0
G0 Z0.02000

G0 X0.70900 Y2.08500
G1 Z[#50+12*#52]
G2 I-0.04900 J0
G1 Z[#50+11*#52]
G2 I-0.04900 J0
G1 Z[#50+10*#52]
G2 I-0.04900 J0
G1 Z[#50+9*#52]
G2 I-0.04900 J0
G1 Z[#50+8*#52]
G2 I-0.04900 J0
G1 Z[#50+7*#52]
G2 I-0.04900 J0
G1 Z[#50+6*#52]
G2 I-0.04900 J0
G1 Z[#50+5*#52]
G2 I-0.04900 J0
G1 Z[#50+4*#52]
G2 I-0.04900 J0
G1 Z[#50+3*#52]
G2 I-0.04900 J0
G1 Z[#50+2*#52]
G2 I-0.04900 J0
G1 Z[#50+1*#52]
G2 I-0.04900 J0
G0 Z0.02000

G0 X0.25900 Y2.08500
G1 Z[#50+12*#52]
G2 I-0.04900 J0
G1 Z[#50+11*#52]
G2 I-0.04900 J0
G1 Z[#50+10*#52]
G2 I-0.04900 J0
G1 Z[#50+9*#52]
G2 I-0.04900 J0
G1 Z[#50+8*#52]
G2 I-0.04900 J0
G1 Z[#50+7*#52]
G2 I-0.04900 J0
G1 Z[#50+6*#52]
G2 I-0.04900 J0
G1 Z[#50+5*#52]
G2 I-0.04900 J0
G1 Z[#50+4*#52]
G2 I-0.04900 J0
G1 Z[#50+3*#52]
G2 I-0.04900 J0
G1 Z[#50+2*#52]
G2 I-0.04900 J0
G1 Z[#50+1*#52]
G2 I-0.04900 J0
G0 Z0.02000

G0 X2.21190 Y1.96490
G1 Z[#50+12*#52]
G2 I-0.01650 J0
G1 Z[#50+11*#52]
G2 I-0.01650 J0
G1 Z[#50+10*#52]
G2 I-0.01650 J0
G1 Z[#50+9*#52]
G2 I-0.01650 J0
G1 Z[#50+8*#52]
G2 I-0.01650 J0
G1 Z[#50+7*#52]
G2 I-0.01650 J0
G1 Z[#50+6*#52]
G2 I-0.01650 J0
G1 Z[#50+5*#52]
G2 I-0.01650 J0
G1 Z[#50+4*#52]
G2 I-0.01650 J0
G1 Z[#50+3*#52]
G2 I-0.01650 J0
G1 Z[#50+2*#52]
G2 I-0.01650 J0
G1 Z[#50+1*#52]
G2 I-0.01650 J0
G0 Z0.02000

G0 X1.68140 Y0.75030
G1 Z[#50+12*#52]
G2 I-0.01650 J0
G1 Z[#50+11*#52]
G2 I-0.01650 J0
G1 Z[#50+10*#52]
G2 I-0.01650 J0
G1 Z[#50+9*#52]
G2 I-0.01650 J0
G1 Z[#50+8*#52]
G2 I-0.01650 J0
G1 Z[#50+7*#52]
G2 I-0.01650 J0
G1 Z[#50+6*#52]
G2 I-0.01650 J0
G1 Z[#50+5*#52]
G2 I-0.01650 J0
G1 Z[#50+4*#52]
G2 I-0.01650 J0
G1 Z[#50+3*#52]
G2 I-0.01650 J0
G1 Z[#50+2*#52]
G2 I-0.01650 J0
G1 Z[#50+1*#52]
G2 I-0.01650 J0
G0 Z0.02000

G0 X1.68140 Y0.14010
G1 Z[#50+12*#52]
G2 I-0.01650 J0
G1 Z[#50+11*#52]
G2 I-0.01650 J0
G1 Z[#50+10*#52]
G2 I-0.01650 J0
G1 Z[#50+9*#52]
G2 I-0.01650 J0
G1 Z[#50+8*#52]
G2 I-0.01650 J0
G1 Z[#50+7*#52]
G2 I-0.01650 J0
G1 Z[#50+6*#52]
G2 I-0.01650 J0
G1 Z[#50+5*#52]
G2 I-0.01650 J0
G1 Z[#50+4*#52]
G2 I-0.01650 J0
G1 Z[#50+3*#52]
G2 I-0.01650 J0
G1 Z[#50+2*#52]
G2 I-0.01650 J0
G1 Z[#50+1*#52]
G2 I-0.01650 J0
G0 Z0.02000

G0 X1.59190 Y1.96490
G1 Z[#50+12*#52]
G2 I-0.01650 J0
G1 Z[#50+11*#52]
G2 I-0.01650 J0
G1 Z[#50+10*#52]
G2 I-0.01650 J0
G1 Z[#50+9*#52]
G2 I-0.01650 J0
G1 Z[#50+8*#52]
G2 I-0.01650 J0
G1 Z[#50+7*#52]
G2 I-0.01650 J0
G1 Z[#50+6*#52]
G2 I-0.01650 J0
G1 Z[#50+5*#52]
G2 I-0.01650 J0
G1 Z[#50+4*#52]
G2 I-0.01650 J0
G1 Z[#50+3*#52]
G2 I-0.01650 J0
G1 Z[#50+2*#52]
G2 I-0.01650 J0
G1 Z[#50+1*#52]
G2 I-0.01650 J0
G0 Z0.02000

G0 X1.48690 Y1.96490
G1 Z[#50+12*#52]
G2 I-0.01650 J0
G1 Z[#50+11*#52]
G2 I-0.01650 J0
G1 Z[#50+10*#52]
G2 I-0.01650 J0
G1 Z[#50+9*#52]
G2 I-0.01650 J0
G1 Z[#50+8*#52]
G2 I-0.01650 J0
G1 Z[#50+7*#52]
G2 I-0.01650 J0
G1 Z[#50+6*#52]
G2 I-0.01650 J0
G1 Z[#50+5*#52]
G2 I-0.01650 J0
G1 Z[#50+4*#52]
G2 I-0.01650 J0
G1 Z[#50+3*#52]
G2 I-0.01650 J0
G1 Z[#50+2*#52]
G2 I-0.01650 J0
G1 Z[#50+1*#52]
G2 I-0.01650 J0
G0 Z0.02000

G0 X0.86690 Y1.96490
G1 Z[#50+12*#52]
G2 I-0.01650 J0
G1 Z[#50+11*#52]
G2 I-0.01650 J0
G1 Z[#50+10*#52]
G2 I-0.01650 J0
G1 Z[#50+9*#52]
G2 I-0.01650 J0
G1 Z[#50+8*#52]
G2 I-0.01650 J0
G1 Z[#50+7*#52]
G2 I-0.01650 J0
G1 Z[#50+6*#52]
G2 I-0.01650 J0
G1 Z[#50+5*#52]
G2 I-0.01650 J0
G1 Z[#50+4*#52]
G2 I-0.01650 J0
G1 Z[#50+3*#52]
G2 I-0.01650 J0
G1 Z[#50+2*#52]
G2 I-0.01650 J0
G1 Z[#50+1*#52]
G2 I-0.01650 J0
G0 Z0.02000

G0 X0.76190 Y1.96490
G1 Z[#50+12*#52]
G2 I-0.01650 J0
G1 Z[#50+11*#52]
G2 I-0.01650 J0
G1 Z[#50+10*#52]
G2 I-0.01650 J0
G1 Z[#50+9*#52]
G2 I-0.01650 J0
G1 Z[#50+8*#52]
G2 I-0.01650 J0
G1 Z[#50+7*#52]
G2 I-0.01650 J0
G1 Z[#50+6*#52]
G2 I-0.01650 J0
G1 Z[#50+5*#52]
G2 I-0.01650 J0
G1 Z[#50+4*#52]
G2 I-0.01650 J0
G1 Z[#50+3*#52]
G2 I-0.01650 J0
G1 Z[#50+2*#52]
G2 I-0.01650 J0
G1 Z[#50+1*#52]
G2 I-0.01650 J0
G0 Z0.02000

G0 X0.14190 Y1.96490
G1 Z[#50+12*#52]
G2 I-0.01650 J0
G1 Z[#50+11*#52]
G2 I-0.01650 J0
G1 Z[#50+10*#52]
G2 I-0.01650 J0
G1 Z[#50+9*#52]
G2 I-0.01650 J0
G1 Z[#50+8*#52]
G2 I-0.01650 J0
G1 Z[#50+7*#52]
G2 I-0.01650 J0
G1 Z[#50+6*#52]
G2 I-0.01650 J0
G1 Z[#50+5*#52]
G2 I-0.01650 J0
G1 Z[#50+4*#52]
G2 I-0.01650 J0
G1 Z[#50+3*#52]
G2 I-0.01650 J0
G1 Z[#50+2*#52]
G2 I-0.01650 J0
G1 Z[#50+1*#52]
G2 I-0.01650 J0
G0 Z0.02000

G0 X1.94930 Y0.70620
G1 Z[#50+12*#52]
G2 I-0.00450 J0
G1 Z[#50+11*#52]
G2 I-0.00450 J0
G1 Z[#50+10*#52]
G2 I-0.00450 J0
G1 Z[#50+9*#52]
G2 I-0.00450 J0
G1 Z[#50+8*#52]
G2 I-0.00450 J0
G1 Z[#50+7*#52]
G2 I-0.00450 J0
G1 Z[#50+6*#52]
G2 I-0.00450 J0
G1 Z[#50+5*#52]
G2 I-0.00450 J0
G1 Z[#50+4*#52]
G2 I-0.00450 J0
G1 Z[#50+3*#52]
G2 I-0.00450 J0
G1 Z[#50+2*#52]
G2 I-0.00450 J0
G1 Z[#50+1*#52]
G2 I-0.00450 J0
G0 Z0.02000

G0 X1.94930 Y0.60620
G1 Z[#50+12*#52]
G2 I-0.00450 J0
G1 Z[#50+11*#52]
G2 I-0.00450 J0
G1 Z[#50+10*#52]
G2 I-0.00450 J0
G1 Z[#50+9*#52]
G2 I-0.00450 J0
G1 Z[#50+8*#52]
G2 I-0.00450 J0
G1 Z[#50+7*#52]
G2 I-0.00450 J0
G1 Z[#50+6*#52]
G2 I-0.00450 J0
G1 Z[#50+5*#52]
G2 I-0.00450 J0
G1 Z[#50+4*#52]
G2 I-0.00450 J0
G1 Z[#50+3*#52]
G2 I-0.00450 J0
G1 Z[#50+2*#52]
G2 I-0.00450 J0
G1 Z[#50+1*#52]
G2 I-0.00450 J0
G0 Z0.02000

G0 X1.94930 Y0.28420
G1 Z[#50+12*#52]
G2 I-0.00450 J0
G1 Z[#50+11*#52]
G2 I-0.00450 J0
G1 Z[#50+10*#52]
G2 I-0.00450 J0
G1 Z[#50+9*#52]
G2 I-0.00450 J0
G1 Z[#50+8*#52]
G2 I-0.00450 J0
G1 Z[#50+7*#52]
G2 I-0.00450 J0
G1 Z[#50+6*#52]
G2 I-0.00450 J0
G1 Z[#50+5*#52]
G2 I-0.00450 J0
G1 Z[#50+4*#52]
G2 I-0.00450 J0
G1 Z[#50+3*#52]
G2 I-0.00450 J0
G1 Z[#50+2*#52]
G2 I-0.00450 J0
G1 Z[#50+1*#52]
G2 I-0.00450 J0
G0 Z0.02000

G0 X1.94930 Y0.18420
G1 Z[#50+12*#52]
G2 I-0.00450 J0
G1 Z[#50+11*#52]
G2 I-0.00450 J0
G1 Z[#50+10*#52]
G2 I-0.00450 J0
G1 Z[#50+9*#52]
G2 I-0.00450 J0
G1 Z[#50+8*#52]
G2 I-0.00450 J0
G1 Z[#50+7*#52]
G2 I-0.00450 J0
G1 Z[#50+6*#52]
G2 I-0.00450 J0
G1 Z[#50+5*#52]
G2 I-0.00450 J0
G1 Z[#50+4*#52]
G2 I-0.00450 J0
G1 Z[#50+3*#52]
G2 I-0.00450 J0
G1 Z[#50+2*#52]
G2 I-0.00450 J0
G1 Z[#50+1*#52]
G2 I-0.00450 J0
G0 Z0.02000

G0 X1.83300 Y0.67000
G1 Z[#50+12*#52]
G2 I-0.04800 J0
G1 Z[#50+11*#52]
G2 I-0.04800 J0
G1 Z[#50+10*#52]
G2 I-0.04800 J0
G1 Z[#50+9*#52]
G2 I-0.04800 J0
G1 Z[#50+8*#52]
G2 I-0.04800 J0
G1 Z[#50+7*#52]
G2 I-0.04800 J0
G1 Z[#50+6*#52]
G2 I-0.04800 J0
G1 Z[#50+5*#52]
G2 I-0.04800 J0
G1 Z[#50+4*#52]
G2 I-0.04800 J0
G1 Z[#50+3*#52]
G2 I-0.04800 J0
G1 Z[#50+2*#52]
G2 I-0.04800 J0
G1 Z[#50+1*#52]
G2 I-0.04800 J0
G0 Z0.02000

G0 X1.83300 Y0.22000
G1 Z[#50+12*#52]
G2 I-0.04800 J0
G1 Z[#50+11*#52]
G2 I-0.04800 J0
G1 Z[#50+10*#52]
G2 I-0.04800 J0
G1 Z[#50+9*#52]
G2 I-0.04800 J0
G1 Z[#50+8*#52]
G2 I-0.04800 J0
G1 Z[#50+7*#52]
G2 I-0.04800 J0
G1 Z[#50+6*#52]
G2 I-0.04800 J0
G1 Z[#50+5*#52]
G2 I-0.04800 J0
G1 Z[#50+4*#52]
G2 I-0.04800 J0
G1 Z[#50+3*#52]
G2 I-0.04800 J0
G1 Z[#50+2*#52]
G2 I-0.04800 J0
G1 Z[#50+1*#52]
G2 I-0.04800 J0
G0 Z0.02000

G0 X2.46500 Y1.18500
G1 Z#50
G0 Z#51

G0 X2.40000 Y1.34500
G1 Z#50
G0 Z#51

G0 X2.34000 Y1.37500
G1 Z#50
G0 Z#51

G0 X2.31000 Y1.21000
G1 Z#50
G0 Z#51

G0 X2.20500 Y1.27500
G1 Z#50
G0 Z#51

G0 X2.20500 Y1.20500
G1 Z#50
G0 Z#51

G0 X2.20000 Y0.96000
G1 Z#50
G0 Z#51

G0 X2.17500 Y1.61000
G1 Z#50
G0 Z#51

G0 X2.10000 Y1.27500
G1 Z#50
G0 Z#51

G0 X2.09000 Y1.83500
G1 Z#50
G0 Z#51

G0 X2.08000 Y1.58600
G1 Z#50
G0 Z#51

G0 X2.08000 Y1.52500
G1 Z#50
G0 Z#51

G0 X2.08000 Y1.46400
G1 Z#50
G0 Z#51

G0 X2.05500 Y1.04000
G1 Z#50
G0 Z#51

G0 X2.02500 Y1.22000
G1 Z#50
G0 Z#51

G0 X2.01500 Y1.49000
G1 Z#50
G0 Z#51

G0 X1.99000 Y1.44000
G1 Z#50
G0 Z#51

G0 X1.97500 Y0.66000
G1 Z#50
G0 Z#51

G0 X1.95500 Y1.33500
G1 Z#50
G0 Z#51

G0 X1.95500 Y1.20500
G1 Z#50
G0 Z#51

G0 X1.95000 Y1.56000
G1 Z#50
G0 Z#51

G0 X1.94500 Y1.41000
G1 Z#50
G0 Z#51

G0 X1.94480 Y0.48120
G1 Z#50
G0 Z#51

G0 X1.93500 Y2.29000
G1 Z#50
G0 Z#51

G0 X1.93500 Y2.17500
G1 Z#50
G0 Z#51

G0 X1.93000 Y1.37500
G1 Z#50
G0 Z#51

G0 X1.91500 Y1.16500
G1 Z#50
G0 Z#51

G0 X1.91000 Y2.09000
G1 Z#50
G0 Z#51

G0 X1.91000 Y1.96500
G1 Z#50
G0 Z#51

G0 X1.88980 Y0.12620
G1 Z#50
G0 Z#51

G0 X1.88500 Y2.29000
G1 Z#50
G0 Z#51

G0 X1.86000 Y2.09000
G1 Z#50
G0 Z#51

G0 X1.85650 Y1.44000
G1 Z#50
G0 Z#51

G0 X1.85650 Y1.40500
G1 Z#50
G0 Z#51

G0 X1.85500 Y1.60000
G1 Z#50
G0 Z#51

G0 X1.85500 Y1.04000
G1 Z#50
G0 Z#51

G0 X1.83500 Y2.29000
G1 Z#50
G0 Z#51

G0 X1.83500 Y2.17500
G1 Z#50
G0 Z#51

G0 X1.83000 Y1.71000
G1 Z#50
G0 Z#51

G0 X1.81500 Y1.96500
G1 Z#50
G0 Z#51

G0 X1.80650 Y1.61400
G1 Z#50
G0 Z#51

G0 X1.79500 Y1.50000
G1 Z#50
G0 Z#51

G0 X1.79480 Y0.57120
G1 Z#50
G0 Z#51

G0 X1.77650 Y1.20000
G1 Z#50
G0 Z#51

G0 X1.77250 Y1.61400
G1 Z#50
G0 Z#51

G0 X1.74150 Y1.20000
G1 Z#50
G0 Z#51

G0 X1.73850 Y1.61400
G1 Z#50
G0 Z#51

G0 X1.73500 Y0.76000
G1 Z#50
G0 Z#51

G0 X1.70500 Y1.20000
G1 Z#50
G0 Z#51

G0 X1.69000 Y1.49500
G1 Z#50
G0 Z#51

G0 X1.67500 Y1.36000
G1 Z#50
G0 Z#51

G0 X1.65500 Y1.03000
G1 Z#50
G0 Z#51

G0 X1.61500 Y1.72000
G1 Z#50
G0 Z#51

G0 X1.59480 Y0.25620
G1 Z#50
G0 Z#51

G0 X1.58980 Y0.47120
G1 Z#50
G0 Z#51

G0 X1.58500 Y1.58000
G1 Z#50
G0 Z#51

G0 X1.57980 Y0.12120
G1 Z#50
G0 Z#51

G0 X1.57500 Y1.82500
G1 Z#50
G0 Z#51

G0 X1.57500 Y1.22500
G1 Z#50
G0 Z#51

G0 X1.57480 Y0.67120
G1 Z#50
G0 Z#51

G0 X1.55480 Y0.18120
G1 Z#50
G0 Z#51

G0 X1.55000 Y1.39000
G1 Z#50
G0 Z#51

G0 X1.54480 Y0.12620
G1 Z#50
G0 Z#51

G0 X1.54000 Y1.47500
G1 Z#50
G0 Z#51

G0 X1.53000 Y1.22500
G1 Z#50
G0 Z#51

G0 X1.52000 Y1.36000
G1 Z#50
G0 Z#51

G0 X1.49000 Y1.33000
G1 Z#50
G0 Z#51

G0 X1.48500 Y1.61000
G1 Z#50
G0 Z#51

G0 X1.45000 Y1.33000
G1 Z#50
G0 Z#51

G0 X1.44500 Y1.66000
G1 Z#50
G0 Z#51

G0 X1.44150 Y1.28000
G1 Z#50
G0 Z#51

G0 X1.44000 Y1.23500
G1 Z#50
G0 Z#51

G0 X1.42980 Y0.71620
G1 Z#50
G0 Z#51

G0 X1.42690 Y1.15810
G1 Z#50
G0 Z#51

G0 X1.36500 Y1.83500
G1 Z#50
G0 Z#51

G0 X1.33980 Y0.52120
G1 Z#50
G0 Z#51

G0 X1.33980 Y0.37620
G1 Z#50
G0 Z#51

G0 X1.33980 Y0.33120
G1 Z#50
G0 Z#51

G0 X1.33980 Y0.26120
G1 Z#50
G0 Z#51

G0 X1.31500 Y1.57500
G1 Z#50
G0 Z#51

G0 X1.31000 Y1.33000
G1 Z#50
G0 Z#51

G0 X1.29000 Y1.62500
G1 Z#50
G0 Z#51

G0 X1.29000 Y1.12500
G1 Z#50
G0 Z#51

G0 X1.28980 Y0.52120
G1 Z#50
G0 Z#51

G0 X1.24000 Y1.70000
G1 Z#50
G0 Z#51

G0 X1.23000 Y1.48500
G1 Z#50
G0 Z#51

G0 X1.23000 Y1.37500
G1 Z#50
G0 Z#51

G0 X1.23000 Y1.28500
G1 Z#50
G0 Z#51

G0 X1.21000 Y2.29000
G1 Z#50
G0 Z#51

G0 X1.21000 Y2.17500
G1 Z#50
G0 Z#51

G0 X1.19000 Y1.70000
G1 Z#50
G0 Z#51

G0 X1.19000 Y1.56000
G1 Z#50
G0 Z#51

G0 X1.18980 Y0.52120
G1 Z#50
G0 Z#51

G0 X1.18980 Y0.26120
G1 Z#50
G0 Z#51

G0 X1.18500 Y2.09000
G1 Z#50
G0 Z#51

G0 X1.18500 Y1.96500
G1 Z#50
G0 Z#51

G0 X1.18500 Y1.37500
G1 Z#50
G0 Z#51

G0 X1.18500 Y1.28500
G1 Z#50
G0 Z#51

G0 X1.16000 Y2.29000
G1 Z#50
G0 Z#51

G0 X1.14000 Y1.70000
G1 Z#50
G0 Z#51

G0 X1.14000 Y1.56000
G1 Z#50
G0 Z#51

G0 X1.14000 Y1.45500
G1 Z#50
G0 Z#51

G0 X1.14000 Y1.37500
G1 Z#50
G0 Z#51

G0 X1.14000 Y1.28500
G1 Z#50
G0 Z#51

G0 X1.13980 Y0.52120
G1 Z#50
G0 Z#51

G0 X1.13980 Y0.33120
G1 Z#50
G0 Z#51

G0 X1.13980 Y0.26120
G1 Z#50
G0 Z#51

G0 X1.13500 Y2.09000
G1 Z#50
G0 Z#51

G0 X1.11480 Y0.46620
G1 Z#50
G0 Z#51

G0 X1.11000 Y2.29000
G1 Z#50
G0 Z#51

G0 X1.11000 Y2.17500
G1 Z#50
G0 Z#51

G0 X1.09000 Y1.96500
G1 Z#50
G0 Z#51

G0 X1.09000 Y1.70000
G1 Z#50
G0 Z#51

G0 X1.09000 Y1.56000
G1 Z#50
G0 Z#51

G0 X1.09000 Y1.45500
G1 Z#50
G0 Z#51

G0 X1.09000 Y1.37500
G1 Z#50
G0 Z#51

G0 X1.09000 Y1.28500
G1 Z#50
G0 Z#51

G0 X1.08980 Y0.52120
G1 Z#50
G0 Z#51

G0 X1.08980 Y0.33120
G1 Z#50
G0 Z#51

G0 X1.08980 Y0.26120
G1 Z#50
G0 Z#51

G0 X1.03980 Y0.26120
G1 Z#50
G0 Z#51

G0 X1.00000 Y1.50500
G1 Z#50
G0 Z#51

G0 X0.99000 Y1.70000
G1 Z#50
G0 Z#51

G0 X0.98980 Y0.52120
G1 Z#50
G0 Z#51

G0 X0.98980 Y0.26120
G1 Z#50
G0 Z#51

G0 X0.94000 Y1.70000
G1 Z#50
G0 Z#51

G0 X0.93980 Y0.33120
G1 Z#50
G0 Z#51

G0 X0.93980 Y0.26120
G1 Z#50
G0 Z#51

G0 X0.89500 Y0.87000
G1 Z#50
G0 Z#51

G0 X0.89000 Y1.70000
G1 Z#50
G0 Z#51

G0 X0.88980 Y0.33120
G1 Z#50
G0 Z#51

G0 X0.88980 Y0.26120
G1 Z#50
G0 Z#51

G0 X0.84500 Y1.58000
G1 Z#50
G0 Z#51

G0 X0.84500 Y0.78500
G1 Z#50
G0 Z#51

G0 X0.84000 Y1.06000
G1 Z#50
G0 Z#51

G0 X0.84000 Y0.91000
G1 Z#50
G0 Z#51

G0 X0.83980 Y0.33120
G1 Z#50
G0 Z#51

G0 X0.83980 Y0.26120
G1 Z#50
G0 Z#51

G0 X0.80000 Y0.49000
G1 Z#50
G0 Z#51

G0 X0.78980 Y0.26120
G1 Z#50
G0 Z#51

G0 X0.76500 Y0.95000
G1 Z#50
G0 Z#51

G0 X0.76500 Y0.86000
G1 Z#50
G0 Z#51

G0 X0.74500 Y1.80980
G1 Z#50
G0 Z#51

G0 X0.73980 Y0.52120
G1 Z#50
G0 Z#51

G0 X0.73980 Y0.26120
G1 Z#50
G0 Z#51

G0 X0.72000 Y2.42500
G1 Z#50
G0 Z#51

G0 X0.70500 Y1.43500
G1 Z#50
G0 Z#51

G0 X0.68980 Y0.52120
G1 Z#50
G0 Z#51

G0 X0.68980 Y0.42120
G1 Z#50
G0 Z#51

G0 X0.68980 Y0.33120
G1 Z#50
G0 Z#51

G0 X0.68980 Y0.26120
G1 Z#50
G0 Z#51

G0 X0.67500 Y1.46500
G1 Z#50
G0 Z#51

G0 X0.66500 Y2.26000
G1 Z#50
G0 Z#51

G0 X0.66500 Y1.81000
G1 Z#50
G0 Z#51

G0 X0.64000 Y1.13500
G1 Z#50
G0 Z#51

G0 X0.63000 Y1.81100
G1 Z#50
G0 Z#51

G0 X0.61000 Y1.57500
G1 Z#50
G0 Z#51

G0 X0.58500 Y2.28500
G1 Z#50
G0 Z#51

G0 X0.56500 Y1.80500
G1 Z#50
G0 Z#51

G0 X0.54500 Y1.53000
G1 Z#50
G0 Z#51

G0 X0.54500 Y1.49000
G1 Z#50
G0 Z#51

G0 X0.53500 Y2.28500
G1 Z#50
G0 Z#51

G0 X0.52000 Y2.08000
G1 Z#50
G0 Z#51

G0 X0.46000 Y2.08000
G1 Z#50
G0 Z#51

G0 X0.43500 Y2.28500
G1 Z#50
G0 Z#51

G0 X0.41000 Y2.08000
G1 Z#50
G0 Z#51

G0 X0.38500 Y2.28500
G1 Z#50
G0 Z#51

G0 X0.37000 Y1.14000
G1 Z#50
G0 Z#51

G0 X0.35000 Y2.08000
G1 Z#50
G0 Z#51

G0 X0.34000 Y1.70000
G1 Z#50
G0 Z#51

G0 X0.32000 Y1.53000
G1 Z#50
G0 Z#51

G0 X0.32000 Y1.48000
G1 Z#50
G0 Z#51

G0 X0.32000 Y1.43000
G1 Z#50
G0 Z#51

G0 X0.32000 Y1.33000
G1 Z#50
G0 Z#51

G0 X0.32000 Y1.28000
G1 Z#50
G0 Z#51

G0 X0.32000 Y1.23000
G1 Z#50
G0 Z#51

G0 X0.28500 Y2.28500
G1 Z#50
G0 Z#51

G0 X0.27000 Y1.75000
G1 Z#50
G0 Z#51

G0 X0.26500 Y1.59500
G1 Z#50
G0 Z#51

G0 X0.24000 Y1.43000
G1 Z#50
G0 Z#51

G0 X0.24000 Y1.33000
G1 Z#50
G0 Z#51

G0 X0.23500 Y2.28500
G1 Z#50
G0 Z#51

G0 X0.23500 Y1.79500
G1 Z#50
G0 Z#51

G0 X0.20500 Y2.26000
G1 Z#50
G0 Z#51

G00 Z0.02000 ( All done -- retract )

M9 ( Coolant off. )
M2 ( Program end. )

