( pcb2gcode 1.1.4 )

G94     ( Inches per minute feed rate. )
G20     ( Units == INCHES.             )
G90     ( Absolute coordinates.        )
S10000  ( RPM spindle speed.           )
M3      ( Spindle on clockwise.        )

G64 P0.00500 ( set maximum deviation from commanded toolpath )

G04 P0 ( dwell for no time -- G64 should not smooth over this point )
G00 Z0.02000 ( retract )

G00 X-0.09900 Y2.50200 ( rapid move to begin. )
G01 Z-0.01500 F1.75000 ( plunge. )
G04 P0 ( dwell for no time -- G64 should not smooth over this point )
X-0.09900 Y2.50200
X-0.09900 Y-0.03200
X-0.09800 Y-0.03200
X-0.09800 Y-0.03300
X-0.09700 Y-0.03300
X-0.09700 Y-0.03400
X2.36100 Y-0.03400
X2.36100 Y-0.03300
X2.36200 Y-0.03300
X2.36200 Y-0.03200
X2.36300 Y-0.03200
X2.36300 Y0.77300
X2.36400 Y0.77300
X2.36400 Y0.77400
X2.36500 Y0.77400
X2.36500 Y0.77500
X2.36600 Y0.77500
X2.36600 Y0.77600
X2.36700 Y0.77600
X2.36700 Y0.77700
X2.36800 Y0.77700
X2.36800 Y0.77800
X2.36900 Y0.77800
X2.36900 Y0.77900
X2.37000 Y0.77900
X2.37000 Y0.78000
X2.37100 Y0.78000
X2.37100 Y0.78100
X2.37200 Y0.78100
X2.37200 Y0.78200
X2.37300 Y0.78200
X2.37300 Y0.78300
X2.37400 Y0.78300
X2.37400 Y0.78400
X2.37500 Y0.78400
X2.37500 Y0.78500
X2.37600 Y0.78500
X2.37600 Y0.78600
X2.37700 Y0.78600
X2.37700 Y0.78700
X2.37800 Y0.78700
X2.37800 Y0.78800
X2.37900 Y0.78800
X2.37900 Y0.78900
X2.38000 Y0.78900
X2.38000 Y0.79000
X2.38100 Y0.79000
X2.38100 Y0.79100
X2.38200 Y0.79100
X2.38200 Y0.79200
X2.38300 Y0.79200
X2.38300 Y0.79300
X2.38400 Y0.79300
X2.38400 Y0.79400
X2.38500 Y0.79400
X2.38500 Y0.79500
X2.38600 Y0.79500
X2.38600 Y0.79600
X2.38700 Y0.79600
X2.38700 Y0.79700
X2.38800 Y0.79700
X2.38800 Y0.79800
X2.38900 Y0.79800
X2.38900 Y0.79900
X2.39000 Y0.79900
X2.39000 Y0.80000
X2.39100 Y0.80000
X2.39100 Y0.80100
X2.39200 Y0.80100
X2.39200 Y0.80200
X2.39300 Y0.80200
X2.39300 Y0.80300
X2.39400 Y0.80300
X2.39400 Y0.80400
X2.39500 Y0.80400
X2.39500 Y0.80500
X2.39600 Y0.80500
X2.39600 Y0.80600
X2.39700 Y0.80600
X2.39700 Y0.80700
X2.39800 Y0.80700
X2.39800 Y0.80800
X2.39900 Y0.80800
X2.39900 Y0.80900
X2.40000 Y0.80900
X2.40000 Y0.81000
X2.40100 Y0.81000
X2.40100 Y0.81100
X2.40200 Y0.81100
X2.40200 Y0.81200
X2.40300 Y0.81200
X2.40300 Y0.81300
X2.40400 Y0.81300
X2.40400 Y0.81400
X2.40500 Y0.81400
X2.40500 Y0.81500
X2.40600 Y0.81500
X2.40600 Y0.81600
X2.40700 Y0.81600
X2.40700 Y0.81700
X2.40800 Y0.81700
X2.40800 Y0.81800
X2.40900 Y0.81800
X2.40900 Y0.81900
X2.41000 Y0.81900
X2.41000 Y0.82000
X2.41100 Y0.82000
X2.41100 Y0.82100
X2.41200 Y0.82100
X2.41200 Y0.82200
X2.41300 Y0.82200
X2.41300 Y0.82300
X2.41400 Y0.82300
X2.41400 Y0.82400
X2.41500 Y0.82400
X2.41500 Y0.82500
X2.41600 Y0.82500
X2.41600 Y0.82600
X2.41700 Y0.82600
X2.41700 Y0.82700
X2.41800 Y0.82700
X2.41800 Y0.82800
X2.41900 Y0.82800
X2.41900 Y0.82900
X2.42000 Y0.82900
X2.42000 Y0.83000
X2.42100 Y0.83000
X2.42100 Y0.83100
X2.42200 Y0.83100
X2.42200 Y0.83200
X2.42300 Y0.83200
X2.42300 Y0.83300
X2.42400 Y0.83300
X2.42400 Y0.83400
X2.42500 Y0.83400
X2.42500 Y0.83500
X2.42600 Y0.83500
X2.42600 Y0.83600
X2.42700 Y0.83600
X2.42700 Y0.83700
X2.42800 Y0.83700
X2.42800 Y0.83800
X2.42900 Y0.83800
X2.42900 Y0.83900
X2.43000 Y0.83900
X2.43000 Y0.84000
X2.43100 Y0.84000
X2.43100 Y0.84100
X2.43200 Y0.84100
X2.43200 Y0.84200
X2.43300 Y0.84200
X2.43300 Y0.84300
X2.43400 Y0.84300
X2.43400 Y0.84400
X2.43500 Y0.84400
X2.43500 Y0.84500
X2.43600 Y0.84500
X2.43600 Y0.84600
X2.43700 Y0.84600
X2.43700 Y0.84700
X2.43800 Y0.84700
X2.43800 Y0.84800
X2.43900 Y0.84800
X2.43900 Y0.84900
X2.44000 Y0.84900
X2.44000 Y0.85000
X2.44100 Y0.85000
X2.44100 Y0.85100
X2.98600 Y0.85100
X2.98600 Y0.85200
X2.98700 Y0.85200
X2.98700 Y0.85300
X2.98800 Y0.85300
X2.98800 Y1.54100
X2.98700 Y1.54100
X2.98700 Y1.54200
X2.98600 Y1.54200
X2.98600 Y1.54300
X2.44600 Y1.54300
X2.44600 Y1.54400
X2.44500 Y1.54400
X2.44500 Y1.54500
X2.44400 Y1.54500
X2.44400 Y1.54600
X2.44300 Y1.54600
X2.44300 Y1.54700
X2.44200 Y1.54700
X2.44200 Y1.54800
X2.44100 Y1.54800
X2.44100 Y1.54900
X2.44000 Y1.54900
X2.44000 Y1.55000
X2.43900 Y1.55000
X2.43900 Y1.55100
X2.43800 Y1.55100
X2.43800 Y1.55200
X2.43700 Y1.55200
X2.43700 Y1.55300
X2.43600 Y1.55300
X2.43600 Y1.55400
X2.43500 Y1.55400
X2.43500 Y1.55500
X2.43400 Y1.55500
X2.43400 Y1.55600
X2.43300 Y1.55600
X2.43300 Y1.55700
X2.43200 Y1.55700
X2.43200 Y1.55800
X2.43100 Y1.55800
X2.43100 Y1.55900
X2.43000 Y1.55900
X2.43000 Y1.56000
X2.42900 Y1.56000
X2.42900 Y1.56100
X2.42800 Y1.56100
X2.42800 Y1.56200
X2.42700 Y1.56200
X2.42700 Y1.56300
X2.42600 Y1.56300
X2.42600 Y1.56400
X2.42500 Y1.56400
X2.42500 Y1.56500
X2.42400 Y1.56500
X2.42400 Y1.56600
X2.42300 Y1.56600
X2.42300 Y1.56700
X2.42200 Y1.56700
X2.42200 Y1.56800
X2.42100 Y1.56800
X2.42100 Y1.56900
X2.42000 Y1.56900
X2.42000 Y1.57000
X2.41900 Y1.57000
X2.41900 Y1.57100
X2.41800 Y1.57100
X2.41800 Y1.57200
X2.41700 Y1.57200
X2.41700 Y1.57300
X2.41600 Y1.57300
X2.41600 Y1.57400
X2.41500 Y1.57400
X2.41500 Y1.57500
X2.41400 Y1.57500
X2.41400 Y1.57600
X2.41300 Y1.57600
X2.41300 Y1.57700
X2.41200 Y1.57700
X2.41200 Y1.57800
X2.41100 Y1.57800
X2.41100 Y1.57900
X2.41000 Y1.57900
X2.41000 Y1.58000
X2.40900 Y1.58000
X2.40900 Y1.58100
X2.40800 Y1.58100
X2.40800 Y1.58200
X2.40700 Y1.58200
X2.40700 Y1.58300
X2.40600 Y1.58300
X2.40600 Y1.58400
X2.40500 Y1.58400
X2.40500 Y1.58500
X2.40400 Y1.58500
X2.40400 Y1.58600
X2.40300 Y1.58600
X2.40300 Y1.58700
X2.40200 Y1.58700
X2.40200 Y1.58800
X2.40100 Y1.58800
X2.40100 Y1.58900
X2.40000 Y1.58900
X2.40000 Y1.59000
X2.39900 Y1.59000
X2.39900 Y1.59100
X2.39800 Y1.59100
X2.39800 Y1.59200
X2.39700 Y1.59200
X2.39700 Y1.59300
X2.39600 Y1.59300
X2.39600 Y1.59400
X2.39500 Y1.59400
X2.39500 Y1.59500
X2.39400 Y1.59500
X2.39400 Y1.59600
X2.39300 Y1.59600
X2.39300 Y1.59700
X2.39200 Y1.59700
X2.39200 Y1.59800
X2.39100 Y1.59800
X2.39100 Y1.59900
X2.39000 Y1.59900
X2.39000 Y1.60000
X2.38900 Y1.60000
X2.38900 Y1.60100
X2.38800 Y1.60100
X2.38800 Y1.60200
X2.38700 Y1.60200
X2.38700 Y1.60300
X2.38600 Y1.60300
X2.38600 Y1.60400
X2.38500 Y1.60400
X2.38500 Y1.60500
X2.38400 Y1.60500
X2.38400 Y1.60600
X2.38300 Y1.60600
X2.38300 Y1.60700
X2.38200 Y1.60700
X2.38200 Y1.60800
X2.38100 Y1.60800
X2.38100 Y1.60900
X2.38000 Y1.60900
X2.38000 Y1.61000
X2.37900 Y1.61000
X2.37900 Y1.61100
X2.37800 Y1.61100
X2.37800 Y1.61200
X2.37700 Y1.61200
X2.37700 Y1.61300
X2.37600 Y1.61300
X2.37600 Y1.61400
X2.37500 Y1.61400
X2.37500 Y1.61500
X2.37400 Y1.61500
X2.37400 Y1.61600
X2.37300 Y1.61600
X2.37300 Y1.61700
X2.37200 Y1.61700
X2.37200 Y1.61800
X2.37100 Y1.61800
X2.37100 Y1.61900
X2.37000 Y1.61900
X2.37000 Y1.62000
X2.36900 Y1.62000
X2.36900 Y1.62100
X2.36800 Y1.62100
X2.36800 Y1.62200
X2.36700 Y1.62200
X2.36700 Y1.62300
X2.36600 Y1.62300
X2.36600 Y1.62400
X2.36500 Y1.62400
X2.36500 Y1.62500
X2.36400 Y1.62500
X2.36400 Y1.62600
X2.36300 Y1.62600
X2.36300 Y2.60100
X2.36200 Y2.60100
X2.36200 Y2.60200
X2.36100 Y2.60200
X2.36100 Y2.60300
X-0.09700 Y2.60300
X-0.09700 Y2.60200
X-0.09800 Y2.60200
X-0.09800 Y2.60100
X-0.09900 Y2.60100
X-0.09900 Y2.50200
G01 Z-0.05000 F1.75000 ( plunge. )
G04 P0 ( dwell for no time -- G64 should not smooth over this point )
X-0.09900 Y2.50200
X-0.09900 Y-0.03200
X-0.09800 Y-0.03200
X-0.09800 Y-0.03300
X-0.09700 Y-0.03300
X-0.09700 Y-0.03400
X2.36100 Y-0.03400
X2.36100 Y-0.03300
X2.36200 Y-0.03300
X2.36200 Y-0.03200
X2.36300 Y-0.03200
X2.36300 Y0.77300
X2.36400 Y0.77300
X2.36400 Y0.77400
X2.36500 Y0.77400
X2.36500 Y0.77500
X2.36600 Y0.77500
X2.36600 Y0.77600
X2.36700 Y0.77600
X2.36700 Y0.77700
X2.36800 Y0.77700
X2.36800 Y0.77800
X2.36900 Y0.77800
X2.36900 Y0.77900
X2.37000 Y0.77900
X2.37000 Y0.78000
X2.37100 Y0.78000
X2.37100 Y0.78100
X2.37200 Y0.78100
X2.37200 Y0.78200
X2.37300 Y0.78200
X2.37300 Y0.78300
X2.37400 Y0.78300
X2.37400 Y0.78400
X2.37500 Y0.78400
X2.37500 Y0.78500
X2.37600 Y0.78500
X2.37600 Y0.78600
X2.37700 Y0.78600
X2.37700 Y0.78700
X2.37800 Y0.78700
X2.37800 Y0.78800
X2.37900 Y0.78800
X2.37900 Y0.78900
X2.38000 Y0.78900
X2.38000 Y0.79000
X2.38100 Y0.79000
X2.38100 Y0.79100
X2.38200 Y0.79100
X2.38200 Y0.79200
X2.38300 Y0.79200
X2.38300 Y0.79300
X2.38400 Y0.79300
X2.38400 Y0.79400
X2.38500 Y0.79400
X2.38500 Y0.79500
X2.38600 Y0.79500
X2.38600 Y0.79600
X2.38700 Y0.79600
X2.38700 Y0.79700
X2.38800 Y0.79700
X2.38800 Y0.79800
X2.38900 Y0.79800
X2.38900 Y0.79900
X2.39000 Y0.79900
X2.39000 Y0.80000
X2.39100 Y0.80000
X2.39100 Y0.80100
X2.39200 Y0.80100
X2.39200 Y0.80200
X2.39300 Y0.80200
X2.39300 Y0.80300
X2.39400 Y0.80300
X2.39400 Y0.80400
X2.39500 Y0.80400
X2.39500 Y0.80500
X2.39600 Y0.80500
X2.39600 Y0.80600
X2.39700 Y0.80600
X2.39700 Y0.80700
X2.39800 Y0.80700
X2.39800 Y0.80800
X2.39900 Y0.80800
X2.39900 Y0.80900
X2.40000 Y0.80900
X2.40000 Y0.81000
X2.40100 Y0.81000
X2.40100 Y0.81100
X2.40200 Y0.81100
X2.40200 Y0.81200
X2.40300 Y0.81200
X2.40300 Y0.81300
X2.40400 Y0.81300
X2.40400 Y0.81400
X2.40500 Y0.81400
X2.40500 Y0.81500
X2.40600 Y0.81500
X2.40600 Y0.81600
X2.40700 Y0.81600
X2.40700 Y0.81700
X2.40800 Y0.81700
X2.40800 Y0.81800
X2.40900 Y0.81800
X2.40900 Y0.81900
X2.41000 Y0.81900
X2.41000 Y0.82000
X2.41100 Y0.82000
X2.41100 Y0.82100
X2.41200 Y0.82100
X2.41200 Y0.82200
X2.41300 Y0.82200
X2.41300 Y0.82300
X2.41400 Y0.82300
X2.41400 Y0.82400
X2.41500 Y0.82400
X2.41500 Y0.82500
X2.41600 Y0.82500
X2.41600 Y0.82600
X2.41700 Y0.82600
X2.41700 Y0.82700
X2.41800 Y0.82700
X2.41800 Y0.82800
X2.41900 Y0.82800
X2.41900 Y0.82900
X2.42000 Y0.82900
X2.42000 Y0.83000
X2.42100 Y0.83000
X2.42100 Y0.83100
X2.42200 Y0.83100
X2.42200 Y0.83200
X2.42300 Y0.83200
X2.42300 Y0.83300
X2.42400 Y0.83300
X2.42400 Y0.83400
X2.42500 Y0.83400
X2.42500 Y0.83500
X2.42600 Y0.83500
X2.42600 Y0.83600
X2.42700 Y0.83600
X2.42700 Y0.83700
X2.42800 Y0.83700
X2.42800 Y0.83800
X2.42900 Y0.83800
X2.42900 Y0.83900
X2.43000 Y0.83900
X2.43000 Y0.84000
X2.43100 Y0.84000
X2.43100 Y0.84100
X2.43200 Y0.84100
X2.43200 Y0.84200
X2.43300 Y0.84200
X2.43300 Y0.84300
X2.43400 Y0.84300
X2.43400 Y0.84400
X2.43500 Y0.84400
X2.43500 Y0.84500
X2.43600 Y0.84500
X2.43600 Y0.84600
X2.43700 Y0.84600
X2.43700 Y0.84700
X2.43800 Y0.84700
X2.43800 Y0.84800
X2.43900 Y0.84800
X2.43900 Y0.84900
X2.44000 Y0.84900
X2.44000 Y0.85000
X2.44100 Y0.85000
X2.44100 Y0.85100
X2.98600 Y0.85100
X2.98600 Y0.85200
X2.98700 Y0.85200
X2.98700 Y0.85300
X2.98800 Y0.85300
X2.98800 Y1.54100
X2.98700 Y1.54100
X2.98700 Y1.54200
X2.98600 Y1.54200
X2.98600 Y1.54300
X2.44600 Y1.54300
X2.44600 Y1.54400
X2.44500 Y1.54400
X2.44500 Y1.54500
X2.44400 Y1.54500
X2.44400 Y1.54600
X2.44300 Y1.54600
X2.44300 Y1.54700
X2.44200 Y1.54700
X2.44200 Y1.54800
X2.44100 Y1.54800
X2.44100 Y1.54900
X2.44000 Y1.54900
X2.44000 Y1.55000
X2.43900 Y1.55000
X2.43900 Y1.55100
X2.43800 Y1.55100
X2.43800 Y1.55200
X2.43700 Y1.55200
X2.43700 Y1.55300
X2.43600 Y1.55300
X2.43600 Y1.55400
X2.43500 Y1.55400
X2.43500 Y1.55500
X2.43400 Y1.55500
X2.43400 Y1.55600
X2.43300 Y1.55600
X2.43300 Y1.55700
X2.43200 Y1.55700
X2.43200 Y1.55800
X2.43100 Y1.55800
X2.43100 Y1.55900
X2.43000 Y1.55900
X2.43000 Y1.56000
X2.42900 Y1.56000
X2.42900 Y1.56100
X2.42800 Y1.56100
X2.42800 Y1.56200
X2.42700 Y1.56200
X2.42700 Y1.56300
X2.42600 Y1.56300
X2.42600 Y1.56400
X2.42500 Y1.56400
X2.42500 Y1.56500
X2.42400 Y1.56500
X2.42400 Y1.56600
X2.42300 Y1.56600
X2.42300 Y1.56700
X2.42200 Y1.56700
X2.42200 Y1.56800
X2.42100 Y1.56800
X2.42100 Y1.56900
X2.42000 Y1.56900
X2.42000 Y1.57000
X2.41900 Y1.57000
X2.41900 Y1.57100
X2.41800 Y1.57100
X2.41800 Y1.57200
X2.41700 Y1.57200
X2.41700 Y1.57300
X2.41600 Y1.57300
X2.41600 Y1.57400
X2.41500 Y1.57400
X2.41500 Y1.57500
X2.41400 Y1.57500
X2.41400 Y1.57600
X2.41300 Y1.57600
X2.41300 Y1.57700
X2.41200 Y1.57700
X2.41200 Y1.57800
X2.41100 Y1.57800
X2.41100 Y1.57900
X2.41000 Y1.57900
X2.41000 Y1.58000
X2.40900 Y1.58000
X2.40900 Y1.58100
X2.40800 Y1.58100
X2.40800 Y1.58200
X2.40700 Y1.58200
X2.40700 Y1.58300
X2.40600 Y1.58300
X2.40600 Y1.58400
X2.40500 Y1.58400
X2.40500 Y1.58500
X2.40400 Y1.58500
X2.40400 Y1.58600
X2.40300 Y1.58600
X2.40300 Y1.58700
X2.40200 Y1.58700
X2.40200 Y1.58800
X2.40100 Y1.58800
X2.40100 Y1.58900
X2.40000 Y1.58900
X2.40000 Y1.59000
X2.39900 Y1.59000
X2.39900 Y1.59100
X2.39800 Y1.59100
X2.39800 Y1.59200
X2.39700 Y1.59200
X2.39700 Y1.59300
X2.39600 Y1.59300
X2.39600 Y1.59400
X2.39500 Y1.59400
X2.39500 Y1.59500
X2.39400 Y1.59500
X2.39400 Y1.59600
X2.39300 Y1.59600
X2.39300 Y1.59700
X2.39200 Y1.59700
X2.39200 Y1.59800
X2.39100 Y1.59800
X2.39100 Y1.59900
X2.39000 Y1.59900
X2.39000 Y1.60000
X2.38900 Y1.60000
X2.38900 Y1.60100
X2.38800 Y1.60100
X2.38800 Y1.60200
X2.38700 Y1.60200
X2.38700 Y1.60300
X2.38600 Y1.60300
X2.38600 Y1.60400
X2.38500 Y1.60400
X2.38500 Y1.60500
X2.38400 Y1.60500
X2.38400 Y1.60600
X2.38300 Y1.60600
X2.38300 Y1.60700
X2.38200 Y1.60700
X2.38200 Y1.60800
X2.38100 Y1.60800
X2.38100 Y1.60900
X2.38000 Y1.60900
X2.38000 Y1.61000
X2.37900 Y1.61000
X2.37900 Y1.61100
X2.37800 Y1.61100
X2.37800 Y1.61200
X2.37700 Y1.61200
X2.37700 Y1.61300
X2.37600 Y1.61300
X2.37600 Y1.61400
X2.37500 Y1.61400
X2.37500 Y1.61500
X2.37400 Y1.61500
X2.37400 Y1.61600
X2.37300 Y1.61600
X2.37300 Y1.61700
X2.37200 Y1.61700
X2.37200 Y1.61800
X2.37100 Y1.61800
X2.37100 Y1.61900
X2.37000 Y1.61900
X2.37000 Y1.62000
X2.36900 Y1.62000
X2.36900 Y1.62100
X2.36800 Y1.62100
X2.36800 Y1.62200
X2.36700 Y1.62200
X2.36700 Y1.62300
X2.36600 Y1.62300
X2.36600 Y1.62400
X2.36500 Y1.62400
X2.36500 Y1.62500
X2.36400 Y1.62500
X2.36400 Y1.62600
X2.36300 Y1.62600
X2.36300 Y2.60100
X2.36200 Y2.60100
X2.36200 Y2.60200
X2.36100 Y2.60200
X2.36100 Y2.60300
X-0.09700 Y2.60300
X-0.09700 Y2.60200
X-0.09800 Y2.60200
X-0.09800 Y2.60100
X-0.09900 Y2.60100
X-0.09900 Y2.50200
G01 Z-0.08500 F1.75000 ( plunge. )
G04 P0 ( dwell for no time -- G64 should not smooth over this point )
X-0.09900 Y2.50200
X-0.09900 Y-0.03200
X-0.09800 Y-0.03200
X-0.09800 Y-0.03300
X-0.09700 Y-0.03300
X-0.09700 Y-0.03400
X2.36100 Y-0.03400
X2.36100 Y-0.03300
X2.36200 Y-0.03300
X2.36200 Y-0.03200
X2.36300 Y-0.03200
X2.36300 Y0.77300
X2.36400 Y0.77300
X2.36400 Y0.77400
X2.36500 Y0.77400
X2.36500 Y0.77500
X2.36600 Y0.77500
X2.36600 Y0.77600
X2.36700 Y0.77600
X2.36700 Y0.77700
X2.36800 Y0.77700
X2.36800 Y0.77800
X2.36900 Y0.77800
X2.36900 Y0.77900
X2.37000 Y0.77900
X2.37000 Y0.78000
X2.37100 Y0.78000
X2.37100 Y0.78100
X2.37200 Y0.78100
X2.37200 Y0.78200
X2.37300 Y0.78200
X2.37300 Y0.78300
X2.37400 Y0.78300
X2.37400 Y0.78400
X2.37500 Y0.78400
X2.37500 Y0.78500
X2.37600 Y0.78500
X2.37600 Y0.78600
X2.37700 Y0.78600
X2.37700 Y0.78700
X2.37800 Y0.78700
X2.37800 Y0.78800
X2.37900 Y0.78800
X2.37900 Y0.78900
X2.38000 Y0.78900
X2.38000 Y0.79000
X2.38100 Y0.79000
X2.38100 Y0.79100
X2.38200 Y0.79100
X2.38200 Y0.79200
X2.38300 Y0.79200
X2.38300 Y0.79300
X2.38400 Y0.79300
X2.38400 Y0.79400
X2.38500 Y0.79400
X2.38500 Y0.79500
X2.38600 Y0.79500
X2.38600 Y0.79600
X2.38700 Y0.79600
X2.38700 Y0.79700
X2.38800 Y0.79700
X2.38800 Y0.79800
X2.38900 Y0.79800
X2.38900 Y0.79900
X2.39000 Y0.79900
X2.39000 Y0.80000
X2.39100 Y0.80000
X2.39100 Y0.80100
X2.39200 Y0.80100
X2.39200 Y0.80200
X2.39300 Y0.80200
X2.39300 Y0.80300
X2.39400 Y0.80300
X2.39400 Y0.80400
X2.39500 Y0.80400
X2.39500 Y0.80500
X2.39600 Y0.80500
X2.39600 Y0.80600
X2.39700 Y0.80600
X2.39700 Y0.80700
X2.39800 Y0.80700
X2.39800 Y0.80800
X2.39900 Y0.80800
X2.39900 Y0.80900
X2.40000 Y0.80900
X2.40000 Y0.81000
X2.40100 Y0.81000
X2.40100 Y0.81100
X2.40200 Y0.81100
X2.40200 Y0.81200
X2.40300 Y0.81200
X2.40300 Y0.81300
X2.40400 Y0.81300
X2.40400 Y0.81400
X2.40500 Y0.81400
X2.40500 Y0.81500
X2.40600 Y0.81500
X2.40600 Y0.81600
X2.40700 Y0.81600
X2.40700 Y0.81700
X2.40800 Y0.81700
X2.40800 Y0.81800
X2.40900 Y0.81800
X2.40900 Y0.81900
X2.41000 Y0.81900
X2.41000 Y0.82000
X2.41100 Y0.82000
X2.41100 Y0.82100
X2.41200 Y0.82100
X2.41200 Y0.82200
X2.41300 Y0.82200
X2.41300 Y0.82300
X2.41400 Y0.82300
X2.41400 Y0.82400
X2.41500 Y0.82400
X2.41500 Y0.82500
X2.41600 Y0.82500
X2.41600 Y0.82600
X2.41700 Y0.82600
X2.41700 Y0.82700
X2.41800 Y0.82700
X2.41800 Y0.82800
X2.41900 Y0.82800
X2.41900 Y0.82900
X2.42000 Y0.82900
X2.42000 Y0.83000
X2.42100 Y0.83000
X2.42100 Y0.83100
X2.42200 Y0.83100
X2.42200 Y0.83200
X2.42300 Y0.83200
X2.42300 Y0.83300
X2.42400 Y0.83300
X2.42400 Y0.83400
X2.42500 Y0.83400
X2.42500 Y0.83500
X2.42600 Y0.83500
X2.42600 Y0.83600
X2.42700 Y0.83600
X2.42700 Y0.83700
X2.42800 Y0.83700
X2.42800 Y0.83800
X2.42900 Y0.83800
X2.42900 Y0.83900
X2.43000 Y0.83900
X2.43000 Y0.84000
X2.43100 Y0.84000
X2.43100 Y0.84100
X2.43200 Y0.84100
X2.43200 Y0.84200
X2.43300 Y0.84200
X2.43300 Y0.84300
X2.43400 Y0.84300
X2.43400 Y0.84400
X2.43500 Y0.84400
X2.43500 Y0.84500
X2.43600 Y0.84500
X2.43600 Y0.84600
X2.43700 Y0.84600
X2.43700 Y0.84700
X2.43800 Y0.84700
X2.43800 Y0.84800
X2.43900 Y0.84800
X2.43900 Y0.84900
X2.44000 Y0.84900
X2.44000 Y0.85000
X2.44100 Y0.85000
X2.44100 Y0.85100
X2.98600 Y0.85100
X2.98600 Y0.85200
X2.98700 Y0.85200
X2.98700 Y0.85300
X2.98800 Y0.85300
X2.98800 Y1.54100
X2.98700 Y1.54100
X2.98700 Y1.54200
X2.98600 Y1.54200
X2.98600 Y1.54300
X2.44600 Y1.54300
X2.44600 Y1.54400
X2.44500 Y1.54400
X2.44500 Y1.54500
X2.44400 Y1.54500
X2.44400 Y1.54600
X2.44300 Y1.54600
X2.44300 Y1.54700
X2.44200 Y1.54700
X2.44200 Y1.54800
X2.44100 Y1.54800
X2.44100 Y1.54900
X2.44000 Y1.54900
X2.44000 Y1.55000
X2.43900 Y1.55000
X2.43900 Y1.55100
X2.43800 Y1.55100
X2.43800 Y1.55200
X2.43700 Y1.55200
X2.43700 Y1.55300
X2.43600 Y1.55300
X2.43600 Y1.55400
X2.43500 Y1.55400
X2.43500 Y1.55500
X2.43400 Y1.55500
X2.43400 Y1.55600
X2.43300 Y1.55600
X2.43300 Y1.55700
X2.43200 Y1.55700
X2.43200 Y1.55800
X2.43100 Y1.55800
X2.43100 Y1.55900
X2.43000 Y1.55900
X2.43000 Y1.56000
X2.42900 Y1.56000
X2.42900 Y1.56100
X2.42800 Y1.56100
X2.42800 Y1.56200
X2.42700 Y1.56200
X2.42700 Y1.56300
X2.42600 Y1.56300
X2.42600 Y1.56400
X2.42500 Y1.56400
X2.42500 Y1.56500
X2.42400 Y1.56500
X2.42400 Y1.56600
X2.42300 Y1.56600
X2.42300 Y1.56700
X2.42200 Y1.56700
X2.42200 Y1.56800
X2.42100 Y1.56800
X2.42100 Y1.56900
X2.42000 Y1.56900
X2.42000 Y1.57000
X2.41900 Y1.57000
X2.41900 Y1.57100
X2.41800 Y1.57100
X2.41800 Y1.57200
X2.41700 Y1.57200
X2.41700 Y1.57300
X2.41600 Y1.57300
X2.41600 Y1.57400
X2.41500 Y1.57400
X2.41500 Y1.57500
X2.41400 Y1.57500
X2.41400 Y1.57600
X2.41300 Y1.57600
X2.41300 Y1.57700
X2.41200 Y1.57700
X2.41200 Y1.57800
X2.41100 Y1.57800
X2.41100 Y1.57900
X2.41000 Y1.57900
X2.41000 Y1.58000
X2.40900 Y1.58000
X2.40900 Y1.58100
X2.40800 Y1.58100
X2.40800 Y1.58200
X2.40700 Y1.58200
X2.40700 Y1.58300
X2.40600 Y1.58300
X2.40600 Y1.58400
X2.40500 Y1.58400
X2.40500 Y1.58500
X2.40400 Y1.58500
X2.40400 Y1.58600
X2.40300 Y1.58600
X2.40300 Y1.58700
X2.40200 Y1.58700
X2.40200 Y1.58800
X2.40100 Y1.58800
X2.40100 Y1.58900
X2.40000 Y1.58900
X2.40000 Y1.59000
X2.39900 Y1.59000
X2.39900 Y1.59100
X2.39800 Y1.59100
X2.39800 Y1.59200
X2.39700 Y1.59200
X2.39700 Y1.59300
X2.39600 Y1.59300
X2.39600 Y1.59400
X2.39500 Y1.59400
X2.39500 Y1.59500
X2.39400 Y1.59500
X2.39400 Y1.59600
X2.39300 Y1.59600
X2.39300 Y1.59700
X2.39200 Y1.59700
X2.39200 Y1.59800
X2.39100 Y1.59800
X2.39100 Y1.59900
X2.39000 Y1.59900
X2.39000 Y1.60000
X2.38900 Y1.60000
X2.38900 Y1.60100
X2.38800 Y1.60100
X2.38800 Y1.60200
X2.38700 Y1.60200
X2.38700 Y1.60300
X2.38600 Y1.60300
X2.38600 Y1.60400
X2.38500 Y1.60400
X2.38500 Y1.60500
X2.38400 Y1.60500
X2.38400 Y1.60600
X2.38300 Y1.60600
X2.38300 Y1.60700
X2.38200 Y1.60700
X2.38200 Y1.60800
X2.38100 Y1.60800
X2.38100 Y1.60900
X2.38000 Y1.60900
X2.38000 Y1.61000
X2.37900 Y1.61000
X2.37900 Y1.61100
X2.37800 Y1.61100
X2.37800 Y1.61200
X2.37700 Y1.61200
X2.37700 Y1.61300
X2.37600 Y1.61300
X2.37600 Y1.61400
X2.37500 Y1.61400
X2.37500 Y1.61500
X2.37400 Y1.61500
X2.37400 Y1.61600
X2.37300 Y1.61600
X2.37300 Y1.61700
X2.37200 Y1.61700
X2.37200 Y1.61800
X2.37100 Y1.61800
X2.37100 Y1.61900
X2.37000 Y1.61900
X2.37000 Y1.62000
X2.36900 Y1.62000
X2.36900 Y1.62100
X2.36800 Y1.62100
X2.36800 Y1.62200
X2.36700 Y1.62200
X2.36700 Y1.62300
X2.36600 Y1.62300
X2.36600 Y1.62400
X2.36500 Y1.62400
X2.36500 Y1.62500
X2.36400 Y1.62500
X2.36400 Y1.62600
X2.36300 Y1.62600
X2.36300 Y2.60100
X2.36200 Y2.60100
X2.36200 Y2.60200
X2.36100 Y2.60200
X2.36100 Y2.60300
X-0.09700 Y2.60300
X-0.09700 Y2.60200
X-0.09800 Y2.60200
X-0.09800 Y2.60100
X-0.09900 Y2.60100
X-0.09900 Y2.50200

G04 P0 ( dwell for no time -- G64 should not smooth over this point )
G00 Z0.02000 ( retract )

M9 ( Coolant off. )
M2 ( Program end. )

