( pcb2gcode 1.1.4 )

G94     ( Inches per minute feed rate. )
G20     ( Units == INCHES.             )
G90     ( Absolute coordinates.        )
S10000  ( RPM spindle speed.           )
M3      ( Spindle on clockwise.        )

G64 P0.00500 ( set maximum deviation from commanded toolpath )

G04 P0 ( dwell for no time -- G64 should not smooth over this point )
G00 Z0.02000 ( retract )

G00 X-0.09900 Y3.77000 ( rapid move to begin. )
G01 Z-0.01500 F1.75000 ( plunge. )
G04 P0 ( dwell for no time -- G64 should not smooth over this point )
X-0.09900 Y3.77000
X-0.09900 Y3.42600
X-0.09800 Y3.42600
X-0.09800 Y3.42400
X-0.09700 Y3.42400
X-0.09700 Y3.42300
X-0.09600 Y3.42300
X-0.09600 Y3.42200
X-0.09500 Y3.42200
X-0.09500 Y3.42100
X-0.09400 Y3.42100
X-0.09400 Y3.42000
X-0.09300 Y3.42000
X-0.09300 Y3.41900
X-0.09200 Y3.41900
X-0.09200 Y3.41800
X-0.09100 Y3.41800
X-0.09100 Y3.41700
X-0.09000 Y3.41700
X-0.09000 Y3.41600
X-0.08900 Y3.41600
X-0.08900 Y3.41500
X-0.08800 Y3.41500
X-0.08800 Y3.41400
X-0.08700 Y3.41400
X-0.08700 Y3.41300
X-0.08600 Y3.41300
X-0.08600 Y3.41200
X-0.08500 Y3.41200
X-0.08500 Y3.41100
X-0.08400 Y3.41100
X-0.08400 Y3.41000
X-0.08300 Y3.41000
X-0.08300 Y3.40900
X-0.08200 Y3.40900
X-0.08200 Y3.40800
X-0.08100 Y3.40800
X-0.08100 Y3.40700
X-0.08000 Y3.40700
X-0.08000 Y3.40600
X-0.07900 Y3.40600
X-0.07900 Y3.40500
X-0.07800 Y3.40500
X-0.07800 Y3.40400
X-0.07700 Y3.40400
X-0.07700 Y3.40300
X-0.07600 Y3.40300
X-0.07600 Y3.40200
X-0.07500 Y3.40200
X-0.07500 Y3.40100
X-0.07400 Y3.40100
X-0.07400 Y3.40000
X-0.07300 Y3.40000
X-0.07300 Y3.39900
X-0.07200 Y3.39900
X-0.07200 Y3.39800
X-0.07100 Y3.39800
X-0.07100 Y3.39700
X-0.07000 Y3.39700
X-0.07000 Y3.39600
X-0.06900 Y3.39600
X-0.06900 Y3.39500
X-0.06800 Y3.39500
X-0.06800 Y3.39400
X-0.06700 Y3.39400
X-0.06700 Y3.39300
X-0.06600 Y3.39300
X-0.06600 Y3.39200
X-0.06500 Y3.39200
X-0.06500 Y3.39100
X-0.06400 Y3.39100
X-0.06400 Y3.39000
X-0.06300 Y3.39000
X-0.06300 Y3.38900
X-0.06200 Y3.38900
X-0.06200 Y3.38800
X-0.06100 Y3.38800
X-0.06100 Y3.38700
X-0.06000 Y3.38700
X-0.06000 Y3.38600
X-0.05900 Y3.38600
X-0.05900 Y3.38500
X-0.05800 Y3.38500
X-0.05800 Y3.38400
X-0.05700 Y3.38400
X-0.05700 Y3.38300
X-0.05600 Y3.38300
X-0.05600 Y3.38200
X-0.05500 Y3.38200
X-0.05500 Y3.38100
X-0.05400 Y3.38100
X-0.05400 Y3.38000
X-0.05300 Y3.38000
X-0.05300 Y3.37900
X-0.05200 Y3.37900
X-0.05200 Y3.37800
X-0.05100 Y3.37800
X-0.05100 Y3.37700
X-0.05000 Y3.37700
X-0.05000 Y3.37600
X-0.04900 Y3.37600
X-0.04900 Y3.37500
X-0.04800 Y3.37500
X-0.04800 Y3.37400
X-0.04700 Y3.37400
X-0.04700 Y3.37300
X-0.04600 Y3.37300
X-0.04600 Y3.37200
X-0.04500 Y3.37200
X-0.04500 Y3.37100
X-0.04400 Y3.37100
X-0.04400 Y3.37000
X-0.04300 Y3.37000
X-0.04300 Y3.36900
X-0.04200 Y3.36900
X-0.04200 Y3.36800
X-0.04100 Y3.36800
X-0.04100 Y3.36700
X-0.04000 Y3.36700
X-0.04000 Y3.36600
X-0.03900 Y3.36600
X-0.03900 Y3.36500
X-0.03800 Y3.36500
X-0.03800 Y3.36400
X-0.03700 Y3.36400
X-0.03700 Y3.36300
X-0.03600 Y3.36300
X-0.03600 Y3.36200
X-0.03500 Y3.36200
X-0.03500 Y3.36100
X-0.03400 Y3.36100
X-0.03400 Y3.36000
X-0.03300 Y3.36000
X-0.03300 Y3.35900
X-0.03200 Y3.35900
X-0.03200 Y3.35800
X-0.03100 Y3.35800
X-0.03100 Y3.35700
X-0.03000 Y3.35700
X-0.03000 Y3.35600
X-0.02900 Y3.35600
X-0.02900 Y3.35500
X-0.02800 Y3.35500
X-0.02800 Y3.35400
X-0.02700 Y3.35400
X-0.02700 Y3.35300
X-0.02600 Y3.35300
X-0.02600 Y3.35200
X-0.02500 Y3.35200
X-0.02500 Y3.35100
X-0.02400 Y3.35100
X-0.02400 Y3.35000
X-0.02300 Y3.35000
X-0.02300 Y3.34900
X-0.02200 Y3.34900
X-0.02200 Y3.34800
X-0.02100 Y3.34800
X-0.02100 Y3.34700
X-0.02000 Y3.34700
X-0.02000 Y3.34600
X-0.01900 Y3.34600
X-0.01900 Y3.34500
X-0.01800 Y3.34500
X-0.01800 Y3.34400
X-0.01700 Y3.34400
X-0.01700 Y3.34300
X-0.01600 Y3.34300
X-0.01600 Y3.34200
X-0.01500 Y3.34200
X-0.01500 Y3.34100
X-0.01400 Y3.34100
X-0.01400 Y3.34000
X-0.01200 Y3.34000
X-0.01200 Y3.33900
X0.52600 Y3.33900
X0.52600 Y2.85600
X0.52700 Y2.85600
X0.52700 Y2.85500
X0.52800 Y2.85500
X0.52800 Y2.85400
X0.73100 Y2.85400
X0.73100 Y2.85500
X0.73200 Y2.85500
X0.73200 Y2.85600
X0.73300 Y2.85600
X0.73300 Y3.54400
X0.73200 Y3.54400
X0.73200 Y3.54500
X0.73100 Y3.54500
X0.73100 Y3.54600
X0.19100 Y3.54600
X0.19100 Y3.54700
X0.19000 Y3.54700
X0.19000 Y3.54800
X0.18900 Y3.54800
X0.18900 Y3.54900
X0.18800 Y3.54900
X0.18800 Y3.55000
X0.18700 Y3.55000
X0.18700 Y3.55100
X0.18600 Y3.55100
X0.18600 Y3.55200
X0.18500 Y3.55200
X0.18500 Y3.55300
X0.18400 Y3.55300
X0.18400 Y3.55400
X0.18300 Y3.55400
X0.18300 Y3.55500
X0.18200 Y3.55500
X0.18200 Y3.55600
X0.18100 Y3.55600
X0.18100 Y3.55700
X0.18000 Y3.55700
X0.18000 Y3.55800
X0.17900 Y3.55800
X0.17900 Y3.55900
X0.17800 Y3.55900
X0.17800 Y3.56000
X0.17700 Y3.56000
X0.17700 Y3.56100
X0.17600 Y3.56100
X0.17600 Y3.56200
X0.17500 Y3.56200
X0.17500 Y3.56300
X0.17400 Y3.56300
X0.17400 Y3.56400
X0.17300 Y3.56400
X0.17300 Y3.56500
X0.17200 Y3.56500
X0.17200 Y3.56600
X0.17100 Y3.56600
X0.17100 Y3.56700
X0.17000 Y3.56700
X0.17000 Y3.56800
X0.16900 Y3.56800
X0.16900 Y3.56900
X0.16800 Y3.56900
X0.16800 Y3.57000
X0.16700 Y3.57000
X0.16700 Y3.57100
X0.16600 Y3.57100
X0.16600 Y3.57200
X0.16500 Y3.57200
X0.16500 Y3.57300
X0.16400 Y3.57300
X0.16400 Y3.57400
X0.16300 Y3.57400
X0.16300 Y3.57500
X0.16200 Y3.57500
X0.16200 Y3.57600
X0.16100 Y3.57600
X0.16100 Y3.57700
X0.16000 Y3.57700
X0.16000 Y3.57800
X0.15900 Y3.57800
X0.15900 Y3.57900
X0.15800 Y3.57900
X0.15800 Y3.58000
X0.15700 Y3.58000
X0.15700 Y3.58100
X0.15600 Y3.58100
X0.15600 Y3.58200
X0.15500 Y3.58200
X0.15500 Y3.58300
X0.15400 Y3.58300
X0.15400 Y3.58400
X0.15300 Y3.58400
X0.15300 Y3.58500
X0.15200 Y3.58500
X0.15200 Y3.58600
X0.15100 Y3.58600
X0.15100 Y3.58700
X0.15000 Y3.58700
X0.15000 Y3.58800
X0.14900 Y3.58800
X0.14900 Y3.58900
X0.14800 Y3.58900
X0.14800 Y3.59000
X0.14700 Y3.59000
X0.14700 Y3.59100
X0.14600 Y3.59100
X0.14600 Y3.59200
X0.14500 Y3.59200
X0.14500 Y3.59300
X0.14400 Y3.59300
X0.14400 Y3.59400
X0.14300 Y3.59400
X0.14300 Y3.59500
X0.14200 Y3.59500
X0.14200 Y3.59600
X0.14100 Y3.59600
X0.14100 Y3.59700
X0.14000 Y3.59700
X0.14000 Y3.59800
X0.13900 Y3.59800
X0.13900 Y3.59900
X0.13800 Y3.59900
X0.13800 Y3.60000
X0.13700 Y3.60000
X0.13700 Y3.60100
X0.13600 Y3.60100
X0.13600 Y3.60200
X0.13500 Y3.60200
X0.13500 Y3.60300
X0.13400 Y3.60300
X0.13400 Y3.60400
X0.13300 Y3.60400
X0.13300 Y3.60500
X0.13200 Y3.60500
X0.13200 Y3.60600
X0.13100 Y3.60600
X0.13100 Y3.60700
X0.13000 Y3.60700
X0.13000 Y3.60800
X0.12900 Y3.60800
X0.12900 Y3.60900
X0.12800 Y3.60900
X0.12800 Y3.61000
X0.12700 Y3.61000
X0.12700 Y3.61100
X0.12600 Y3.61100
X0.12600 Y3.61200
X0.12500 Y3.61200
X0.12500 Y3.61300
X0.12400 Y3.61300
X0.12400 Y3.61400
X0.12300 Y3.61400
X0.12300 Y3.61500
X0.12200 Y3.61500
X0.12200 Y3.61600
X0.12100 Y3.61600
X0.12100 Y3.61700
X0.12000 Y3.61700
X0.12000 Y3.61800
X0.11900 Y3.61800
X0.11900 Y3.61900
X0.11800 Y3.61900
X0.11800 Y3.62000
X0.11700 Y3.62000
X0.11700 Y3.62100
X0.11600 Y3.62100
X0.11600 Y3.62200
X0.11500 Y3.62200
X0.11500 Y3.62300
X0.11400 Y3.62300
X0.11400 Y3.62400
X0.11300 Y3.62400
X0.11300 Y3.62500
X0.11200 Y3.62500
X0.11200 Y3.62600
X0.11100 Y3.62600
X0.11100 Y3.62700
X0.11000 Y3.62700
X0.11000 Y3.62800
X0.10900 Y3.62800
X0.10900 Y3.62900
X0.10800 Y3.62900
X0.10800 Y3.86900
X0.10700 Y3.86900
X0.10700 Y3.87000
X0.10600 Y3.87000
X0.10600 Y3.87100
X-0.09700 Y3.87100
X-0.09700 Y3.87000
X-0.09800 Y3.87000
X-0.09800 Y3.86900
X-0.09900 Y3.86900
X-0.09900 Y3.77000
G01 Z-0.05000 F1.75000 ( plunge. )
G04 P0 ( dwell for no time -- G64 should not smooth over this point )
X-0.09900 Y3.77000
X-0.09900 Y3.42600
X-0.09800 Y3.42600
X-0.09800 Y3.42400
X-0.09700 Y3.42400
X-0.09700 Y3.42300
X-0.09600 Y3.42300
X-0.09600 Y3.42200
X-0.09500 Y3.42200
X-0.09500 Y3.42100
X-0.09400 Y3.42100
X-0.09400 Y3.42000
X-0.09300 Y3.42000
X-0.09300 Y3.41900
X-0.09200 Y3.41900
X-0.09200 Y3.41800
X-0.09100 Y3.41800
X-0.09100 Y3.41700
X-0.09000 Y3.41700
X-0.09000 Y3.41600
X-0.08900 Y3.41600
X-0.08900 Y3.41500
X-0.08800 Y3.41500
X-0.08800 Y3.41400
X-0.08700 Y3.41400
X-0.08700 Y3.41300
X-0.08600 Y3.41300
X-0.08600 Y3.41200
X-0.08500 Y3.41200
X-0.08500 Y3.41100
X-0.08400 Y3.41100
X-0.08400 Y3.41000
X-0.08300 Y3.41000
X-0.08300 Y3.40900
X-0.08200 Y3.40900
X-0.08200 Y3.40800
X-0.08100 Y3.40800
X-0.08100 Y3.40700
X-0.08000 Y3.40700
X-0.08000 Y3.40600
X-0.07900 Y3.40600
X-0.07900 Y3.40500
X-0.07800 Y3.40500
X-0.07800 Y3.40400
X-0.07700 Y3.40400
X-0.07700 Y3.40300
X-0.07600 Y3.40300
X-0.07600 Y3.40200
X-0.07500 Y3.40200
X-0.07500 Y3.40100
X-0.07400 Y3.40100
X-0.07400 Y3.40000
X-0.07300 Y3.40000
X-0.07300 Y3.39900
X-0.07200 Y3.39900
X-0.07200 Y3.39800
X-0.07100 Y3.39800
X-0.07100 Y3.39700
X-0.07000 Y3.39700
X-0.07000 Y3.39600
X-0.06900 Y3.39600
X-0.06900 Y3.39500
X-0.06800 Y3.39500
X-0.06800 Y3.39400
X-0.06700 Y3.39400
X-0.06700 Y3.39300
X-0.06600 Y3.39300
X-0.06600 Y3.39200
X-0.06500 Y3.39200
X-0.06500 Y3.39100
X-0.06400 Y3.39100
X-0.06400 Y3.39000
X-0.06300 Y3.39000
X-0.06300 Y3.38900
X-0.06200 Y3.38900
X-0.06200 Y3.38800
X-0.06100 Y3.38800
X-0.06100 Y3.38700
X-0.06000 Y3.38700
X-0.06000 Y3.38600
X-0.05900 Y3.38600
X-0.05900 Y3.38500
X-0.05800 Y3.38500
X-0.05800 Y3.38400
X-0.05700 Y3.38400
X-0.05700 Y3.38300
X-0.05600 Y3.38300
X-0.05600 Y3.38200
X-0.05500 Y3.38200
X-0.05500 Y3.38100
X-0.05400 Y3.38100
X-0.05400 Y3.38000
X-0.05300 Y3.38000
X-0.05300 Y3.37900
X-0.05200 Y3.37900
X-0.05200 Y3.37800
X-0.05100 Y3.37800
X-0.05100 Y3.37700
X-0.05000 Y3.37700
X-0.05000 Y3.37600
X-0.04900 Y3.37600
X-0.04900 Y3.37500
X-0.04800 Y3.37500
X-0.04800 Y3.37400
X-0.04700 Y3.37400
X-0.04700 Y3.37300
X-0.04600 Y3.37300
X-0.04600 Y3.37200
X-0.04500 Y3.37200
X-0.04500 Y3.37100
X-0.04400 Y3.37100
X-0.04400 Y3.37000
X-0.04300 Y3.37000
X-0.04300 Y3.36900
X-0.04200 Y3.36900
X-0.04200 Y3.36800
X-0.04100 Y3.36800
X-0.04100 Y3.36700
X-0.04000 Y3.36700
X-0.04000 Y3.36600
X-0.03900 Y3.36600
X-0.03900 Y3.36500
X-0.03800 Y3.36500
X-0.03800 Y3.36400
X-0.03700 Y3.36400
X-0.03700 Y3.36300
X-0.03600 Y3.36300
X-0.03600 Y3.36200
X-0.03500 Y3.36200
X-0.03500 Y3.36100
X-0.03400 Y3.36100
X-0.03400 Y3.36000
X-0.03300 Y3.36000
X-0.03300 Y3.35900
X-0.03200 Y3.35900
X-0.03200 Y3.35800
X-0.03100 Y3.35800
X-0.03100 Y3.35700
X-0.03000 Y3.35700
X-0.03000 Y3.35600
X-0.02900 Y3.35600
X-0.02900 Y3.35500
X-0.02800 Y3.35500
X-0.02800 Y3.35400
X-0.02700 Y3.35400
X-0.02700 Y3.35300
X-0.02600 Y3.35300
X-0.02600 Y3.35200
X-0.02500 Y3.35200
X-0.02500 Y3.35100
X-0.02400 Y3.35100
X-0.02400 Y3.35000
X-0.02300 Y3.35000
X-0.02300 Y3.34900
X-0.02200 Y3.34900
X-0.02200 Y3.34800
X-0.02100 Y3.34800
X-0.02100 Y3.34700
X-0.02000 Y3.34700
X-0.02000 Y3.34600
X-0.01900 Y3.34600
X-0.01900 Y3.34500
X-0.01800 Y3.34500
X-0.01800 Y3.34400
X-0.01700 Y3.34400
X-0.01700 Y3.34300
X-0.01600 Y3.34300
X-0.01600 Y3.34200
X-0.01500 Y3.34200
X-0.01500 Y3.34100
X-0.01400 Y3.34100
X-0.01400 Y3.34000
X-0.01200 Y3.34000
X-0.01200 Y3.33900
X0.52600 Y3.33900
X0.52600 Y2.85600
X0.52700 Y2.85600
X0.52700 Y2.85500
X0.52800 Y2.85500
X0.52800 Y2.85400
X0.73100 Y2.85400
X0.73100 Y2.85500
X0.73200 Y2.85500
X0.73200 Y2.85600
X0.73300 Y2.85600
X0.73300 Y3.54400
X0.73200 Y3.54400
X0.73200 Y3.54500
X0.73100 Y3.54500
X0.73100 Y3.54600
X0.19100 Y3.54600
X0.19100 Y3.54700
X0.19000 Y3.54700
X0.19000 Y3.54800
X0.18900 Y3.54800
X0.18900 Y3.54900
X0.18800 Y3.54900
X0.18800 Y3.55000
X0.18700 Y3.55000
X0.18700 Y3.55100
X0.18600 Y3.55100
X0.18600 Y3.55200
X0.18500 Y3.55200
X0.18500 Y3.55300
X0.18400 Y3.55300
X0.18400 Y3.55400
X0.18300 Y3.55400
X0.18300 Y3.55500
X0.18200 Y3.55500
X0.18200 Y3.55600
X0.18100 Y3.55600
X0.18100 Y3.55700
X0.18000 Y3.55700
X0.18000 Y3.55800
X0.17900 Y3.55800
X0.17900 Y3.55900
X0.17800 Y3.55900
X0.17800 Y3.56000
X0.17700 Y3.56000
X0.17700 Y3.56100
X0.17600 Y3.56100
X0.17600 Y3.56200
X0.17500 Y3.56200
X0.17500 Y3.56300
X0.17400 Y3.56300
X0.17400 Y3.56400
X0.17300 Y3.56400
X0.17300 Y3.56500
X0.17200 Y3.56500
X0.17200 Y3.56600
X0.17100 Y3.56600
X0.17100 Y3.56700
X0.17000 Y3.56700
X0.17000 Y3.56800
X0.16900 Y3.56800
X0.16900 Y3.56900
X0.16800 Y3.56900
X0.16800 Y3.57000
X0.16700 Y3.57000
X0.16700 Y3.57100
X0.16600 Y3.57100
X0.16600 Y3.57200
X0.16500 Y3.57200
X0.16500 Y3.57300
X0.16400 Y3.57300
X0.16400 Y3.57400
X0.16300 Y3.57400
X0.16300 Y3.57500
X0.16200 Y3.57500
X0.16200 Y3.57600
X0.16100 Y3.57600
X0.16100 Y3.57700
X0.16000 Y3.57700
X0.16000 Y3.57800
X0.15900 Y3.57800
X0.15900 Y3.57900
X0.15800 Y3.57900
X0.15800 Y3.58000
X0.15700 Y3.58000
X0.15700 Y3.58100
X0.15600 Y3.58100
X0.15600 Y3.58200
X0.15500 Y3.58200
X0.15500 Y3.58300
X0.15400 Y3.58300
X0.15400 Y3.58400
X0.15300 Y3.58400
X0.15300 Y3.58500
X0.15200 Y3.58500
X0.15200 Y3.58600
X0.15100 Y3.58600
X0.15100 Y3.58700
X0.15000 Y3.58700
X0.15000 Y3.58800
X0.14900 Y3.58800
X0.14900 Y3.58900
X0.14800 Y3.58900
X0.14800 Y3.59000
X0.14700 Y3.59000
X0.14700 Y3.59100
X0.14600 Y3.59100
X0.14600 Y3.59200
X0.14500 Y3.59200
X0.14500 Y3.59300
X0.14400 Y3.59300
X0.14400 Y3.59400
X0.14300 Y3.59400
X0.14300 Y3.59500
X0.14200 Y3.59500
X0.14200 Y3.59600
X0.14100 Y3.59600
X0.14100 Y3.59700
X0.14000 Y3.59700
X0.14000 Y3.59800
X0.13900 Y3.59800
X0.13900 Y3.59900
X0.13800 Y3.59900
X0.13800 Y3.60000
X0.13700 Y3.60000
X0.13700 Y3.60100
X0.13600 Y3.60100
X0.13600 Y3.60200
X0.13500 Y3.60200
X0.13500 Y3.60300
X0.13400 Y3.60300
X0.13400 Y3.60400
X0.13300 Y3.60400
X0.13300 Y3.60500
X0.13200 Y3.60500
X0.13200 Y3.60600
X0.13100 Y3.60600
X0.13100 Y3.60700
X0.13000 Y3.60700
X0.13000 Y3.60800
X0.12900 Y3.60800
X0.12900 Y3.60900
X0.12800 Y3.60900
X0.12800 Y3.61000
X0.12700 Y3.61000
X0.12700 Y3.61100
X0.12600 Y3.61100
X0.12600 Y3.61200
X0.12500 Y3.61200
X0.12500 Y3.61300
X0.12400 Y3.61300
X0.12400 Y3.61400
X0.12300 Y3.61400
X0.12300 Y3.61500
X0.12200 Y3.61500
X0.12200 Y3.61600
X0.12100 Y3.61600
X0.12100 Y3.61700
X0.12000 Y3.61700
X0.12000 Y3.61800
X0.11900 Y3.61800
X0.11900 Y3.61900
X0.11800 Y3.61900
X0.11800 Y3.62000
X0.11700 Y3.62000
X0.11700 Y3.62100
X0.11600 Y3.62100
X0.11600 Y3.62200
X0.11500 Y3.62200
X0.11500 Y3.62300
X0.11400 Y3.62300
X0.11400 Y3.62400
X0.11300 Y3.62400
X0.11300 Y3.62500
X0.11200 Y3.62500
X0.11200 Y3.62600
X0.11100 Y3.62600
X0.11100 Y3.62700
X0.11000 Y3.62700
X0.11000 Y3.62800
X0.10900 Y3.62800
X0.10900 Y3.62900
X0.10800 Y3.62900
X0.10800 Y3.86900
X0.10700 Y3.86900
X0.10700 Y3.87000
X0.10600 Y3.87000
X0.10600 Y3.87100
X-0.09700 Y3.87100
X-0.09700 Y3.87000
X-0.09800 Y3.87000
X-0.09800 Y3.86900
X-0.09900 Y3.86900
X-0.09900 Y3.77000
G01 Z-0.08500 F1.75000 ( plunge. )
G04 P0 ( dwell for no time -- G64 should not smooth over this point )
X-0.09900 Y3.77000
X-0.09900 Y3.42600
X-0.09800 Y3.42600
X-0.09800 Y3.42400
X-0.09700 Y3.42400
X-0.09700 Y3.42300
X-0.09600 Y3.42300
X-0.09600 Y3.42200
X-0.09500 Y3.42200
X-0.09500 Y3.42100
X-0.09400 Y3.42100
X-0.09400 Y3.42000
X-0.09300 Y3.42000
X-0.09300 Y3.41900
X-0.09200 Y3.41900
X-0.09200 Y3.41800
X-0.09100 Y3.41800
X-0.09100 Y3.41700
X-0.09000 Y3.41700
X-0.09000 Y3.41600
X-0.08900 Y3.41600
X-0.08900 Y3.41500
X-0.08800 Y3.41500
X-0.08800 Y3.41400
X-0.08700 Y3.41400
X-0.08700 Y3.41300
X-0.08600 Y3.41300
X-0.08600 Y3.41200
X-0.08500 Y3.41200
X-0.08500 Y3.41100
X-0.08400 Y3.41100
X-0.08400 Y3.41000
X-0.08300 Y3.41000
X-0.08300 Y3.40900
X-0.08200 Y3.40900
X-0.08200 Y3.40800
X-0.08100 Y3.40800
X-0.08100 Y3.40700
X-0.08000 Y3.40700
X-0.08000 Y3.40600
X-0.07900 Y3.40600
X-0.07900 Y3.40500
X-0.07800 Y3.40500
X-0.07800 Y3.40400
X-0.07700 Y3.40400
X-0.07700 Y3.40300
X-0.07600 Y3.40300
X-0.07600 Y3.40200
X-0.07500 Y3.40200
X-0.07500 Y3.40100
X-0.07400 Y3.40100
X-0.07400 Y3.40000
X-0.07300 Y3.40000
X-0.07300 Y3.39900
X-0.07200 Y3.39900
X-0.07200 Y3.39800
X-0.07100 Y3.39800
X-0.07100 Y3.39700
X-0.07000 Y3.39700
X-0.07000 Y3.39600
X-0.06900 Y3.39600
X-0.06900 Y3.39500
X-0.06800 Y3.39500
X-0.06800 Y3.39400
X-0.06700 Y3.39400
X-0.06700 Y3.39300
X-0.06600 Y3.39300
X-0.06600 Y3.39200
X-0.06500 Y3.39200
X-0.06500 Y3.39100
X-0.06400 Y3.39100
X-0.06400 Y3.39000
X-0.06300 Y3.39000
X-0.06300 Y3.38900
X-0.06200 Y3.38900
X-0.06200 Y3.38800
X-0.06100 Y3.38800
X-0.06100 Y3.38700
X-0.06000 Y3.38700
X-0.06000 Y3.38600
X-0.05900 Y3.38600
X-0.05900 Y3.38500
X-0.05800 Y3.38500
X-0.05800 Y3.38400
X-0.05700 Y3.38400
X-0.05700 Y3.38300
X-0.05600 Y3.38300
X-0.05600 Y3.38200
X-0.05500 Y3.38200
X-0.05500 Y3.38100
X-0.05400 Y3.38100
X-0.05400 Y3.38000
X-0.05300 Y3.38000
X-0.05300 Y3.37900
X-0.05200 Y3.37900
X-0.05200 Y3.37800
X-0.05100 Y3.37800
X-0.05100 Y3.37700
X-0.05000 Y3.37700
X-0.05000 Y3.37600
X-0.04900 Y3.37600
X-0.04900 Y3.37500
X-0.04800 Y3.37500
X-0.04800 Y3.37400
X-0.04700 Y3.37400
X-0.04700 Y3.37300
X-0.04600 Y3.37300
X-0.04600 Y3.37200
X-0.04500 Y3.37200
X-0.04500 Y3.37100
X-0.04400 Y3.37100
X-0.04400 Y3.37000
X-0.04300 Y3.37000
X-0.04300 Y3.36900
X-0.04200 Y3.36900
X-0.04200 Y3.36800
X-0.04100 Y3.36800
X-0.04100 Y3.36700
X-0.04000 Y3.36700
X-0.04000 Y3.36600
X-0.03900 Y3.36600
X-0.03900 Y3.36500
X-0.03800 Y3.36500
X-0.03800 Y3.36400
X-0.03700 Y3.36400
X-0.03700 Y3.36300
X-0.03600 Y3.36300
X-0.03600 Y3.36200
X-0.03500 Y3.36200
X-0.03500 Y3.36100
X-0.03400 Y3.36100
X-0.03400 Y3.36000
X-0.03300 Y3.36000
X-0.03300 Y3.35900
X-0.03200 Y3.35900
X-0.03200 Y3.35800
X-0.03100 Y3.35800
X-0.03100 Y3.35700
X-0.03000 Y3.35700
X-0.03000 Y3.35600
X-0.02900 Y3.35600
X-0.02900 Y3.35500
X-0.02800 Y3.35500
X-0.02800 Y3.35400
X-0.02700 Y3.35400
X-0.02700 Y3.35300
X-0.02600 Y3.35300
X-0.02600 Y3.35200
X-0.02500 Y3.35200
X-0.02500 Y3.35100
X-0.02400 Y3.35100
X-0.02400 Y3.35000
X-0.02300 Y3.35000
X-0.02300 Y3.34900
X-0.02200 Y3.34900
X-0.02200 Y3.34800
X-0.02100 Y3.34800
X-0.02100 Y3.34700
X-0.02000 Y3.34700
X-0.02000 Y3.34600
X-0.01900 Y3.34600
X-0.01900 Y3.34500
X-0.01800 Y3.34500
X-0.01800 Y3.34400
X-0.01700 Y3.34400
X-0.01700 Y3.34300
X-0.01600 Y3.34300
X-0.01600 Y3.34200
X-0.01500 Y3.34200
X-0.01500 Y3.34100
X-0.01400 Y3.34100
X-0.01400 Y3.34000
X-0.01200 Y3.34000
X-0.01200 Y3.33900
X0.52600 Y3.33900
X0.52600 Y2.85600
X0.52700 Y2.85600
X0.52700 Y2.85500
X0.52800 Y2.85500
X0.52800 Y2.85400
X0.73100 Y2.85400
X0.73100 Y2.85500
X0.73200 Y2.85500
X0.73200 Y2.85600
X0.73300 Y2.85600
X0.73300 Y3.54400
X0.73200 Y3.54400
X0.73200 Y3.54500
X0.73100 Y3.54500
X0.73100 Y3.54600
X0.19100 Y3.54600
X0.19100 Y3.54700
X0.19000 Y3.54700
X0.19000 Y3.54800
X0.18900 Y3.54800
X0.18900 Y3.54900
X0.18800 Y3.54900
X0.18800 Y3.55000
X0.18700 Y3.55000
X0.18700 Y3.55100
X0.18600 Y3.55100
X0.18600 Y3.55200
X0.18500 Y3.55200
X0.18500 Y3.55300
X0.18400 Y3.55300
X0.18400 Y3.55400
X0.18300 Y3.55400
X0.18300 Y3.55500
X0.18200 Y3.55500
X0.18200 Y3.55600
X0.18100 Y3.55600
X0.18100 Y3.55700
X0.18000 Y3.55700
X0.18000 Y3.55800
X0.17900 Y3.55800
X0.17900 Y3.55900
X0.17800 Y3.55900
X0.17800 Y3.56000
X0.17700 Y3.56000
X0.17700 Y3.56100
X0.17600 Y3.56100
X0.17600 Y3.56200
X0.17500 Y3.56200
X0.17500 Y3.56300
X0.17400 Y3.56300
X0.17400 Y3.56400
X0.17300 Y3.56400
X0.17300 Y3.56500
X0.17200 Y3.56500
X0.17200 Y3.56600
X0.17100 Y3.56600
X0.17100 Y3.56700
X0.17000 Y3.56700
X0.17000 Y3.56800
X0.16900 Y3.56800
X0.16900 Y3.56900
X0.16800 Y3.56900
X0.16800 Y3.57000
X0.16700 Y3.57000
X0.16700 Y3.57100
X0.16600 Y3.57100
X0.16600 Y3.57200
X0.16500 Y3.57200
X0.16500 Y3.57300
X0.16400 Y3.57300
X0.16400 Y3.57400
X0.16300 Y3.57400
X0.16300 Y3.57500
X0.16200 Y3.57500
X0.16200 Y3.57600
X0.16100 Y3.57600
X0.16100 Y3.57700
X0.16000 Y3.57700
X0.16000 Y3.57800
X0.15900 Y3.57800
X0.15900 Y3.57900
X0.15800 Y3.57900
X0.15800 Y3.58000
X0.15700 Y3.58000
X0.15700 Y3.58100
X0.15600 Y3.58100
X0.15600 Y3.58200
X0.15500 Y3.58200
X0.15500 Y3.58300
X0.15400 Y3.58300
X0.15400 Y3.58400
X0.15300 Y3.58400
X0.15300 Y3.58500
X0.15200 Y3.58500
X0.15200 Y3.58600
X0.15100 Y3.58600
X0.15100 Y3.58700
X0.15000 Y3.58700
X0.15000 Y3.58800
X0.14900 Y3.58800
X0.14900 Y3.58900
X0.14800 Y3.58900
X0.14800 Y3.59000
X0.14700 Y3.59000
X0.14700 Y3.59100
X0.14600 Y3.59100
X0.14600 Y3.59200
X0.14500 Y3.59200
X0.14500 Y3.59300
X0.14400 Y3.59300
X0.14400 Y3.59400
X0.14300 Y3.59400
X0.14300 Y3.59500
X0.14200 Y3.59500
X0.14200 Y3.59600
X0.14100 Y3.59600
X0.14100 Y3.59700
X0.14000 Y3.59700
X0.14000 Y3.59800
X0.13900 Y3.59800
X0.13900 Y3.59900
X0.13800 Y3.59900
X0.13800 Y3.60000
X0.13700 Y3.60000
X0.13700 Y3.60100
X0.13600 Y3.60100
X0.13600 Y3.60200
X0.13500 Y3.60200
X0.13500 Y3.60300
X0.13400 Y3.60300
X0.13400 Y3.60400
X0.13300 Y3.60400
X0.13300 Y3.60500
X0.13200 Y3.60500
X0.13200 Y3.60600
X0.13100 Y3.60600
X0.13100 Y3.60700
X0.13000 Y3.60700
X0.13000 Y3.60800
X0.12900 Y3.60800
X0.12900 Y3.60900
X0.12800 Y3.60900
X0.12800 Y3.61000
X0.12700 Y3.61000
X0.12700 Y3.61100
X0.12600 Y3.61100
X0.12600 Y3.61200
X0.12500 Y3.61200
X0.12500 Y3.61300
X0.12400 Y3.61300
X0.12400 Y3.61400
X0.12300 Y3.61400
X0.12300 Y3.61500
X0.12200 Y3.61500
X0.12200 Y3.61600
X0.12100 Y3.61600
X0.12100 Y3.61700
X0.12000 Y3.61700
X0.12000 Y3.61800
X0.11900 Y3.61800
X0.11900 Y3.61900
X0.11800 Y3.61900
X0.11800 Y3.62000
X0.11700 Y3.62000
X0.11700 Y3.62100
X0.11600 Y3.62100
X0.11600 Y3.62200
X0.11500 Y3.62200
X0.11500 Y3.62300
X0.11400 Y3.62300
X0.11400 Y3.62400
X0.11300 Y3.62400
X0.11300 Y3.62500
X0.11200 Y3.62500
X0.11200 Y3.62600
X0.11100 Y3.62600
X0.11100 Y3.62700
X0.11000 Y3.62700
X0.11000 Y3.62800
X0.10900 Y3.62800
X0.10900 Y3.62900
X0.10800 Y3.62900
X0.10800 Y3.86900
X0.10700 Y3.86900
X0.10700 Y3.87000
X0.10600 Y3.87000
X0.10600 Y3.87100
X-0.09700 Y3.87100
X-0.09700 Y3.87000
X-0.09800 Y3.87000
X-0.09800 Y3.86900
X-0.09900 Y3.86900
X-0.09900 Y3.77000

G04 P0 ( dwell for no time -- G64 should not smooth over this point )
G00 Z0.02000 ( retract )

M9 ( Coolant off. )
M2 ( Program end. )

