( pcb2gcode 1.1.4 )

G94     ( Inches per minute feed rate. )
G20     ( Units == INCHES.             )
G90     ( Absolute coordinates.        )
S10000  ( RPM spindle speed.           )
M3      ( Spindle on clockwise.        )

G64 P0.00500 ( set maximum deviation from commanded toolpath )

G04 P0 ( dwell for no time -- G64 should not smooth over this point )
G00 Z0.19685 ( retract )

G00 X1.53200 Y2.48800 ( rapid move to begin. )
G01 Z-0.01969 F1.96850 ( plunge. )
G04 P0 ( dwell for no time -- G64 should not smooth over this point )
X1.53200 Y2.48800
X1.51300 Y2.48800
X1.51300 Y2.48900
X0.80700 Y2.48900
X0.80700 Y2.48800
X0.79700 Y2.48800
X0.79700 Y1.78800
X0.79900 Y1.78800
X0.79900 Y1.78700
X0.80000 Y1.78700
X0.80000 Y1.78600
X0.80100 Y1.78600
X0.80100 Y1.78500
X0.80200 Y1.78500
X0.80200 Y1.78400
X1.36500 Y1.78400
X1.36500 Y1.78300
X1.36900 Y1.78300
X1.36900 Y1.78200
X1.37100 Y1.78200
X1.37100 Y1.78100
X1.37200 Y1.78100
X1.37200 Y1.78000
X1.37300 Y1.78000
X1.37300 Y1.77900
X1.37400 Y1.77900
X1.37400 Y1.77800
X1.37500 Y1.77800
X1.37500 Y1.77700
X1.37600 Y1.77700
X1.37600 Y1.77600
X1.37700 Y1.77600
X1.37700 Y1.77500
X1.37800 Y1.77500
X1.37800 Y1.77400
X1.37900 Y1.77400
X1.37900 Y1.77300
X1.38000 Y1.77300
X1.38000 Y1.77200
X1.38100 Y1.77200
X1.38100 Y1.77100
X1.38200 Y1.77100
X1.38200 Y1.77000
X1.38300 Y1.77000
X1.38300 Y1.76900
X1.38400 Y1.76900
X1.38400 Y1.76800
X1.38500 Y1.76800
X1.38500 Y1.76700
X1.38600 Y1.76700
X1.38600 Y1.76600
X1.38900 Y1.76600
X1.38900 Y1.76500
X1.39200 Y1.76500
X1.39200 Y1.76400
X1.39500 Y1.76400
X1.39500 Y1.76300
X1.50000 Y1.76300
X1.50000 Y1.76500
X1.49900 Y1.76500
X1.49900 Y1.76800
X1.49800 Y1.76800
X1.49800 Y1.77100
X1.49700 Y1.77100
X1.49700 Y1.77400
X1.49600 Y1.77400
X1.49600 Y1.77500
X1.49500 Y1.77500
X1.49500 Y1.77600
X1.49400 Y1.77600
X1.49400 Y1.77700
X1.49300 Y1.77700
X1.49300 Y1.77800
X1.49200 Y1.77800
X1.49200 Y1.77900
X1.49100 Y1.77900
X1.49100 Y1.78000
X1.49000 Y1.78000
X1.49000 Y1.78100
X1.48900 Y1.78100
X1.48900 Y1.78200
X1.48800 Y1.78200
X1.48800 Y1.78300
X1.48700 Y1.78300
X1.48700 Y1.78400
X1.48600 Y1.78400
X1.48600 Y1.78500
X1.48500 Y1.78500
X1.48500 Y1.78600
X1.48400 Y1.78600
X1.48400 Y1.78700
X1.48300 Y1.78700
X1.48300 Y1.78800
X1.48200 Y1.78800
X1.48200 Y1.78900
X1.48100 Y1.78900
X1.48100 Y1.79000
X1.48000 Y1.79000
X1.48000 Y1.79100
X1.47900 Y1.79100
X1.47900 Y1.79200
X1.47800 Y1.79200
X1.47800 Y1.79300
X1.47700 Y1.79300
X1.47700 Y1.79400
X1.47600 Y1.79400
X1.47600 Y1.79500
X1.47500 Y1.79500
X1.47500 Y1.79600
X1.47400 Y1.79600
X1.47400 Y1.79700
X1.47300 Y1.79700
X1.47300 Y1.79800
X1.47200 Y1.79800
X1.47200 Y1.79900
X1.47100 Y1.79900
X1.47100 Y1.80000
X1.47000 Y1.80000
X1.47000 Y1.80100
X1.46900 Y1.80100
X1.46900 Y1.80200
X1.46800 Y1.80200
X1.46800 Y1.80300
X1.46700 Y1.80300
X1.46700 Y1.80400
X1.46600 Y1.80400
X1.46600 Y1.80500
X1.46500 Y1.80500
X1.46500 Y1.80600
X1.46400 Y1.80600
X1.46400 Y1.80700
X1.46300 Y1.80700
X1.46300 Y1.80800
X1.46200 Y1.80800
X1.46200 Y1.80900
X1.46100 Y1.80900
X1.46100 Y1.81000
X1.46000 Y1.81000
X1.46000 Y1.81100
X1.45900 Y1.81100
X1.45900 Y1.81200
X1.45800 Y1.81200
X1.45800 Y1.81300
X1.45700 Y1.81300
X1.45700 Y1.81400
X1.45600 Y1.81400
X1.45600 Y1.81500
X1.45500 Y1.81500
X1.45500 Y1.81600
X1.45200 Y1.81600
X1.45200 Y1.81700
X1.43400 Y1.81700
X1.43400 Y1.81800
X1.43200 Y1.81800
X1.43200 Y1.81900
X1.43100 Y1.81900
X1.43100 Y1.85300
X1.43200 Y1.85300
X1.43200 Y1.85400
X1.43300 Y1.85400
X1.43300 Y1.85500
X1.47600 Y1.85500
X1.47600 Y1.85400
X1.47800 Y1.85400
X1.47800 Y1.85100
X1.47900 Y1.85100
X1.47900 Y1.84200
X1.48000 Y1.84200
X1.48000 Y1.83900
X1.48100 Y1.83900
X1.48100 Y1.83800
X1.48200 Y1.83800
X1.48200 Y1.83700
X1.48300 Y1.83700
X1.48300 Y1.83600
X1.48400 Y1.83600
X1.48400 Y1.83500
X1.48500 Y1.83500
X1.48500 Y1.83400
X1.48600 Y1.83400
X1.48600 Y1.83300
X1.48700 Y1.83300
X1.48700 Y1.83200
X1.48800 Y1.83200
X1.48800 Y1.83100
X1.48900 Y1.83100
X1.48900 Y1.83000
X1.49000 Y1.83000
X1.49000 Y1.82900
X1.49100 Y1.82900
X1.49100 Y1.82800
X1.49200 Y1.82800
X1.49200 Y1.82700
X1.49300 Y1.82700
X1.49300 Y1.82600
X1.49400 Y1.82600
X1.49400 Y1.82500
X1.49500 Y1.82500
X1.49500 Y1.82400
X1.49600 Y1.82400
X1.49600 Y1.82300
X1.49700 Y1.82300
X1.49700 Y1.82200
X1.49800 Y1.82200
X1.49800 Y1.82100
X1.49900 Y1.82100
X1.49900 Y1.82000
X1.50000 Y1.82000
X1.50000 Y1.81900
X1.50100 Y1.81900
X1.50100 Y1.81800
X1.50200 Y1.81800
X1.50200 Y1.81700
X1.50300 Y1.81700
X1.50300 Y1.81600
X1.50400 Y1.81600
X1.50400 Y1.81500
X1.50500 Y1.81500
X1.50500 Y1.81400
X1.50600 Y1.81400
X1.50600 Y1.81300
X1.50700 Y1.81300
X1.50700 Y1.81200
X1.50800 Y1.81200
X1.50800 Y1.81100
X1.51100 Y1.81100
X1.51100 Y1.81000
X1.51400 Y1.81000
X1.51400 Y1.80900
X1.51700 Y1.80900
X1.51700 Y1.80800
X1.52300 Y1.80800
X1.52300 Y1.80600
X1.52400 Y1.80600
X1.52400 Y1.80300
X1.52500 Y1.80300
X1.52500 Y1.80000
X1.52600 Y1.80000
X1.52600 Y1.79700
X1.52700 Y1.79700
X1.52700 Y1.79400
X1.52800 Y1.79400
X1.52800 Y1.79100
X1.52900 Y1.79100
X1.52900 Y1.79000
X1.53000 Y1.79000
X1.53000 Y1.78900
X1.53300 Y1.78900
X1.53300 Y1.78800
X2.06400 Y1.78800
X2.06400 Y1.78700
X2.06700 Y1.78700
X2.06700 Y1.78600
X2.06800 Y1.78600
X2.06800 Y1.78500
X2.07000 Y1.78500
X2.07000 Y1.78400
X2.07100 Y1.78400
X2.07100 Y1.78300
X2.07200 Y1.78300
X2.07200 Y1.78200
X2.07300 Y1.78200
X2.07300 Y1.78100
X2.07400 Y1.78100
X2.07400 Y1.78000
X2.07500 Y1.78000
X2.07500 Y1.77900
X2.07600 Y1.77900
X2.07600 Y1.77800
X2.07700 Y1.77800
X2.07700 Y1.77700
X2.07800 Y1.77700
X2.07800 Y1.77600
X2.07900 Y1.77600
X2.07900 Y1.77500
X2.08000 Y1.77500
X2.08000 Y1.77400
X2.08100 Y1.77400
X2.08100 Y1.77300
X2.08200 Y1.77300
X2.08200 Y1.77200
X2.08300 Y1.77200
X2.08300 Y1.77100
X2.08400 Y1.77100
X2.08400 Y1.77000
X2.08500 Y1.77000
X2.08500 Y1.76900
X2.08600 Y1.76900
X2.08600 Y1.76800
X2.08700 Y1.76800
X2.08700 Y1.76700
X2.08800 Y1.76700
X2.08800 Y1.76600
X2.09100 Y1.76600
X2.09100 Y1.76500
X2.09400 Y1.76500
X2.09400 Y1.76400
X2.09700 Y1.76400
X2.09700 Y1.76300
X2.10000 Y1.76300
X2.10000 Y1.76200
X2.10300 Y1.76200
X2.10300 Y1.76100
X2.10600 Y1.76100
X2.10600 Y1.76000
X2.14200 Y1.76000
X2.14200 Y1.76100
X2.14500 Y1.76100
X2.14500 Y1.76200
X2.14800 Y1.76200
X2.14800 Y1.76300
X2.15100 Y1.76300
X2.15100 Y1.76400
X2.15400 Y1.76400
X2.15400 Y1.76500
X2.15700 Y1.76500
X2.15700 Y1.76600
X2.16000 Y1.76600
X2.16000 Y1.76700
X2.16100 Y1.76700
X2.16100 Y1.76800
X2.16200 Y1.76800
X2.16200 Y1.81700
X2.15900 Y1.81700
X2.15900 Y1.81800
X2.15700 Y1.81800
X2.15700 Y1.81900
X2.15600 Y1.81900
X2.15600 Y1.85300
X2.15700 Y1.85300
X2.15700 Y1.85400
X2.15800 Y1.85400
X2.15800 Y1.85500
X2.20100 Y1.85500
X2.20100 Y1.85400
X2.20300 Y1.85400
X2.20300 Y1.85100
X2.20400 Y1.85100
X2.20400 Y1.82000
X2.20300 Y1.82000
X2.20300 Y1.81800
X2.20000 Y1.81800
X2.20000 Y1.81700
X2.19700 Y1.81700
X2.19700 Y1.76400
X2.19800 Y1.76400
X2.19800 Y1.76300
X2.19900 Y1.76300
X2.19900 Y1.76200
X2.20000 Y1.76200
X2.20000 Y1.76100
X2.20100 Y1.76100
X2.20100 Y1.76000
X2.24600 Y1.76000
X2.24600 Y2.48600
X2.24500 Y2.48600
X2.24500 Y2.48700
X2.24400 Y2.48700
X2.24400 Y2.48800
X2.23800 Y2.48800
X2.23800 Y2.48900
X1.53200 Y2.48900
X1.53200 Y2.48800
G04 P0 ( dwell for no time -- G64 should not smooth over this point )
G00 Z0.19685 ( retract )

G00 X0.71600 Y2.48800 ( rapid move to begin. )
G01 Z-0.01969 F1.96850 ( plunge. )
G04 P0 ( dwell for no time -- G64 should not smooth over this point )
X0.71600 Y2.48800
X0.71200 Y2.48800
X0.71200 Y2.48500
X0.71300 Y2.48500
X0.71300 Y2.48400
X0.71400 Y2.48400
X0.71400 Y2.48300
X0.71500 Y2.48300
X0.71500 Y2.48200
X0.71600 Y2.48200
X0.71600 Y2.48100
X0.71700 Y2.48100
X0.71700 Y2.48000
X0.71800 Y2.48000
X0.71800 Y2.47900
X0.71900 Y2.47900
X0.71900 Y2.47800
X0.72000 Y2.47800
X0.72000 Y2.47700
X0.72100 Y2.47700
X0.72100 Y2.47600
X0.72200 Y2.47600
X0.72200 Y2.47500
X0.72300 Y2.47500
X0.72300 Y2.47400
X0.72400 Y2.47400
X0.72400 Y2.47300
X0.72500 Y2.47300
X0.72500 Y2.47200
X0.72600 Y2.47200
X0.72600 Y2.47100
X0.72700 Y2.47100
X0.72700 Y2.47000
X0.72800 Y2.47000
X0.72800 Y2.46900
X0.72900 Y2.46900
X0.72900 Y2.46800
X0.73000 Y2.46800
X0.73000 Y2.46700
X0.73100 Y2.46700
X0.73100 Y2.46600
X0.73200 Y2.46600
X0.73200 Y2.46500
X0.73300 Y2.46500
X0.73300 Y2.46400
X0.73400 Y2.46400
X0.73400 Y2.46300
X0.73500 Y2.46300
X0.73500 Y2.46200
X0.73600 Y2.46200
X0.73600 Y2.46100
X0.73700 Y2.46100
X0.73700 Y2.46000
X0.73800 Y2.46000
X0.73800 Y2.45900
X0.73900 Y2.45900
X0.73900 Y2.45800
X0.74000 Y2.45800
X0.74000 Y2.45700
X0.74100 Y2.45700
X0.74100 Y2.45600
X0.74200 Y2.45600
X0.74200 Y2.45500
X0.74300 Y2.45500
X0.74300 Y2.45400
X0.74400 Y2.45400
X0.74400 Y2.45300
X0.74500 Y2.45300
X0.74500 Y2.45200
X0.74600 Y2.45200
X0.74600 Y2.45100
X0.74700 Y2.45100
X0.74700 Y2.45000
X0.74800 Y2.45000
X0.74800 Y2.44900
X0.74900 Y2.44900
X0.74900 Y2.44800
X0.75000 Y2.44800
X0.75000 Y2.44600
X0.75100 Y2.44600
X0.75100 Y2.44300
X0.75200 Y2.44300
X0.75200 Y2.42200
X0.75300 Y2.42200
X0.75300 Y2.41900
X0.75400 Y2.41900
X0.75400 Y2.41700
X0.75500 Y2.41700
X0.75500 Y2.41600
X0.75600 Y2.41600
X0.75600 Y2.41200
X0.75700 Y2.41200
X0.75700 Y2.38100
X0.75600 Y2.38100
X0.75600 Y2.37800
X0.75500 Y2.37800
X0.75500 Y2.37600
X0.75400 Y2.37600
X0.75400 Y2.37300
X0.75300 Y2.37300
X0.75300 Y2.37000
X0.75200 Y2.37000
X0.75200 Y2.04400
X0.75100 Y2.04400
X0.75100 Y2.04200
X0.75000 Y2.04200
X0.75000 Y2.04000
X0.74900 Y2.04000
X0.74900 Y2.03900
X0.74800 Y2.03900
X0.74800 Y2.03800
X0.74700 Y2.03800
X0.74700 Y2.03700
X0.74600 Y2.03700
X0.74600 Y2.03600
X0.74500 Y2.03600
X0.74500 Y2.03500
X0.74400 Y2.03500
X0.74400 Y2.03400
X0.74300 Y2.03400
X0.74300 Y2.03300
X0.74200 Y2.03300
X0.74200 Y2.03200
X0.74100 Y2.03200
X0.74100 Y2.03100
X0.74000 Y2.03100
X0.74000 Y2.03000
X0.73900 Y2.03000
X0.73900 Y2.02900
X0.73800 Y2.02900
X0.73800 Y2.02800
X0.73700 Y2.02800
X0.73700 Y2.02700
X0.73600 Y2.02700
X0.73600 Y2.02600
X0.73500 Y2.02600
X0.73500 Y2.02500
X0.73400 Y2.02500
X0.73400 Y2.02400
X0.73300 Y2.02400
X0.73300 Y2.02300
X0.73200 Y2.02300
X0.73200 Y2.02200
X0.73100 Y2.02200
X0.73100 Y2.02100
X0.73000 Y2.02100
X0.73000 Y2.02000
X0.72900 Y2.02000
X0.72900 Y2.01900
X0.72800 Y2.01900
X0.72800 Y2.01800
X0.72700 Y2.01800
X0.72700 Y2.01700
X0.72600 Y2.01700
X0.72600 Y2.01600
X0.72500 Y2.01600
X0.72500 Y2.01500
X0.72400 Y2.01500
X0.72400 Y2.01400
X0.72300 Y2.01400
X0.72300 Y2.01300
X0.72200 Y2.01300
X0.72200 Y2.01200
X0.72100 Y2.01200
X0.72100 Y2.01100
X0.72000 Y2.01100
X0.72000 Y2.01000
X0.71900 Y2.01000
X0.71900 Y2.00900
X0.71800 Y2.00900
X0.71800 Y2.00800
X0.71700 Y2.00800
X0.71700 Y2.00700
X0.71600 Y2.00700
X0.71600 Y2.00600
X0.71500 Y2.00600
X0.71500 Y2.00500
X0.71400 Y2.00500
X0.71400 Y2.00400
X0.71300 Y2.00400
X0.71300 Y2.00300
X0.71200 Y2.00300
X0.71200 Y2.00200
X0.71100 Y2.00200
X0.71100 Y2.00100
X0.71000 Y2.00100
X0.71000 Y2.00000
X0.70900 Y2.00000
X0.70900 Y1.99900
X0.70800 Y1.99900
X0.70800 Y1.99800
X0.70700 Y1.99800
X0.70700 Y1.99700
X0.70600 Y1.99700
X0.70600 Y1.99600
X0.70500 Y1.99600
X0.70500 Y1.99500
X0.70400 Y1.99500
X0.70400 Y1.99400
X0.70300 Y1.99400
X0.70300 Y1.99100
X0.70200 Y1.99100
X0.70200 Y1.98400
X0.70100 Y1.98400
X0.70100 Y1.94900
X0.70200 Y1.94900
X0.70200 Y1.88100
X0.71900 Y1.88100
X0.71900 Y1.88000
X0.72100 Y1.88000
X0.72100 Y1.88100
X0.76600 Y1.88100
X0.76600 Y1.88000
X0.76800 Y1.88000
X0.76800 Y1.87700
X0.76900 Y1.87700
X0.76900 Y1.84600
X0.76800 Y1.84600
X0.76800 Y1.84400
X0.76500 Y1.84400
X0.76500 Y1.84300
X0.72100 Y1.84300
X0.72100 Y1.84400
X0.71900 Y1.84400
X0.71900 Y1.84300
X0.67400 Y1.84300
X0.67400 Y1.84400
X0.67200 Y1.84400
X0.67200 Y1.84500
X0.67100 Y1.84500
X0.67100 Y1.87900
X0.67200 Y1.87900
X0.67200 Y1.88000
X0.67300 Y1.88000
X0.67300 Y1.88100
X0.68700 Y1.88100
X0.68700 Y1.99700
X0.68800 Y1.99700
X0.68800 Y2.00100
X0.68900 Y2.00100
X0.68900 Y2.00200
X0.69000 Y2.00200
X0.69000 Y2.00300
X0.69100 Y2.00300
X0.69100 Y2.00400
X0.69200 Y2.00400
X0.69200 Y2.00500
X0.69300 Y2.00500
X0.69300 Y2.00600
X0.69400 Y2.00600
X0.69400 Y2.00700
X0.69500 Y2.00700
X0.69500 Y2.00800
X0.69600 Y2.00800
X0.69600 Y2.00900
X0.69700 Y2.00900
X0.69700 Y2.01000
X0.69800 Y2.01000
X0.69800 Y2.01100
X0.69900 Y2.01100
X0.69900 Y2.01200
X0.70000 Y2.01200
X0.70000 Y2.01300
X0.70100 Y2.01300
X0.70100 Y2.01400
X0.70200 Y2.01400
X0.70200 Y2.01500
X0.70300 Y2.01500
X0.70300 Y2.01600
X0.70400 Y2.01600
X0.70400 Y2.01700
X0.70500 Y2.01700
X0.70500 Y2.01800
X0.70600 Y2.01800
X0.70600 Y2.01900
X0.70700 Y2.01900
X0.70700 Y2.02000
X0.70800 Y2.02000
X0.70800 Y2.02100
X0.70900 Y2.02100
X0.70900 Y2.02200
X0.71000 Y2.02200
X0.71000 Y2.02300
X0.71100 Y2.02300
X0.71100 Y2.02400
X0.71200 Y2.02400
X0.71200 Y2.02500
X0.71300 Y2.02500
X0.71300 Y2.02600
X0.71400 Y2.02600
X0.71400 Y2.02700
X0.71500 Y2.02700
X0.71500 Y2.02800
X0.71600 Y2.02800
X0.71600 Y2.02900
X0.71700 Y2.02900
X0.71700 Y2.03000
X0.71800 Y2.03000
X0.71800 Y2.03100
X0.71900 Y2.03100
X0.71900 Y2.03200
X0.72000 Y2.03200
X0.72000 Y2.03300
X0.72100 Y2.03300
X0.72100 Y2.03400
X0.72200 Y2.03400
X0.72200 Y2.03500
X0.72300 Y2.03500
X0.72300 Y2.03600
X0.72400 Y2.03600
X0.72400 Y2.03700
X0.72500 Y2.03700
X0.72500 Y2.03800
X0.72600 Y2.03800
X0.72600 Y2.03900
X0.72700 Y2.03900
X0.72700 Y2.04000
X0.72800 Y2.04000
X0.72800 Y2.04100
X0.72900 Y2.04100
X0.72900 Y2.04200
X0.73000 Y2.04200
X0.73000 Y2.04300
X0.73100 Y2.04300
X0.73100 Y2.04400
X0.73200 Y2.04400
X0.73200 Y2.04500
X0.73300 Y2.04500
X0.73300 Y2.04600
X0.73400 Y2.04600
X0.73400 Y2.04700
X0.73500 Y2.04700
X0.73500 Y2.04900
X0.73600 Y2.04900
X0.73600 Y2.05200
X0.73700 Y2.05200
X0.73700 Y2.07900
X0.73800 Y2.07900
X0.73800 Y2.09400
X0.73700 Y2.09400
X0.73700 Y2.36300
X0.73800 Y2.36300
X0.73800 Y2.38400
X0.73700 Y2.38400
X0.73700 Y2.41100
X0.73800 Y2.41100
X0.73800 Y2.43900
X0.73700 Y2.43900
X0.73700 Y2.44000
X0.73600 Y2.44000
X0.73600 Y2.44100
X0.73300 Y2.44100
X0.73300 Y2.44200
X0.73100 Y2.44200
X0.73100 Y2.44300
X0.72900 Y2.44300
X0.72900 Y2.44600
X0.72800 Y2.44600
X0.72800 Y2.44700
X0.72700 Y2.44700
X0.72700 Y2.44800
X0.72600 Y2.44800
X0.72600 Y2.44900
X0.72500 Y2.44900
X0.72500 Y2.45000
X0.72400 Y2.45000
X0.72400 Y2.45100
X0.72300 Y2.45100
X0.72300 Y2.45200
X0.72200 Y2.45200
X0.72200 Y2.45300
X0.72100 Y2.45300
X0.72100 Y2.45400
X0.72000 Y2.45400
X0.72000 Y2.45500
X0.71900 Y2.45500
X0.71900 Y2.45600
X0.71800 Y2.45600
X0.71800 Y2.45700
X0.71700 Y2.45700
X0.71700 Y2.45800
X0.71600 Y2.45800
X0.71600 Y2.45900
X0.71500 Y2.45900
X0.71500 Y2.46000
X0.71400 Y2.46000
X0.71400 Y2.46100
X0.71300 Y2.46100
X0.71300 Y2.46200
X0.71200 Y2.46200
X0.71200 Y2.46300
X0.71100 Y2.46300
X0.71100 Y2.46400
X0.71000 Y2.46400
X0.71000 Y2.46500
X0.70900 Y2.46500
X0.70900 Y2.46600
X0.70800 Y2.46600
X0.70800 Y2.46700
X0.70700 Y2.46700
X0.70700 Y2.46800
X0.70600 Y2.46800
X0.70600 Y2.46900
X0.70500 Y2.46900
X0.70500 Y2.47000
X0.70400 Y2.47000
X0.70400 Y2.47100
X0.70300 Y2.47100
X0.70300 Y2.47200
X0.70200 Y2.47200
X0.70200 Y2.47300
X0.70100 Y2.47300
X0.70100 Y2.47400
X0.70000 Y2.47400
X0.70000 Y2.47500
X0.69900 Y2.47500
X0.69900 Y2.47600
X0.69800 Y2.47600
X0.69800 Y2.47700
X0.69700 Y2.47700
X0.69700 Y2.47800
X0.69400 Y2.47800
X0.69400 Y2.47900
X0.56300 Y2.47900
X0.56300 Y2.47800
X0.56200 Y2.47800
X0.56200 Y2.47700
X0.56100 Y2.47700
X0.56100 Y2.47600
X0.56000 Y2.47600
X0.56000 Y2.47500
X0.55900 Y2.47500
X0.55900 Y2.47100
X0.56100 Y2.47100
X0.56100 Y2.47000
X0.56200 Y2.47000
X0.56200 Y2.46900
X0.56300 Y2.46900
X0.56300 Y2.46800
X0.56800 Y2.46800
X0.56800 Y2.46700
X0.56900 Y2.46700
X0.56900 Y2.46600
X0.57400 Y2.46600
X0.57400 Y2.46500
X0.57500 Y2.46500
X0.57500 Y2.46400
X0.57700 Y2.46400
X0.57700 Y2.46300
X0.57900 Y2.46300
X0.57900 Y2.46200
X0.58000 Y2.46200
X0.58000 Y2.46100
X0.58100 Y2.46100
X0.58100 Y2.46000
X0.58200 Y2.46000
X0.58200 Y2.45900
X0.58300 Y2.45900
X0.58300 Y2.45800
X0.58400 Y2.45800
X0.58400 Y2.45700
X0.58500 Y2.45700
X0.58500 Y2.45600
X0.58600 Y2.45600
X0.58600 Y2.45400
X0.58700 Y2.45400
X0.58700 Y2.45300
X0.58800 Y2.45300
X0.58800 Y2.45000
X0.58900 Y2.45000
X0.58900 Y2.44800
X0.59000 Y2.44800
X0.59000 Y2.44500
X0.59100 Y2.44500
X0.59100 Y2.42800
X0.59000 Y2.42800
X0.59000 Y2.42500
X0.58900 Y2.42500
X0.58900 Y2.42300
X0.58800 Y2.42300
X0.58800 Y2.42000
X0.58700 Y2.42000
X0.58700 Y2.41900
X0.58600 Y2.41900
X0.58600 Y2.41700
X0.58500 Y2.41700
X0.58500 Y2.41600
X0.58400 Y2.41600
X0.58400 Y2.41400
X0.58300 Y2.41400
X0.58300 Y2.41300
X0.58200 Y2.41300
X0.58200 Y2.41200
X0.58100 Y2.41200
X0.58100 Y2.41100
X0.57900 Y2.41100
X0.57900 Y2.41000
X0.57700 Y2.41000
X0.57700 Y2.40900
X0.57500 Y2.40900
X0.57500 Y2.40800
X0.57400 Y2.40800
X0.57400 Y2.40700
X0.57100 Y2.40700
X0.57100 Y2.40600
X0.56900 Y2.40600
X0.56900 Y2.40500
X0.56700 Y2.40500
X0.56700 Y2.34000
X0.56800 Y2.34000
X0.56800 Y2.33900
X0.56900 Y2.33900
X0.56900 Y2.33800
X0.57000 Y2.33800
X0.57000 Y2.33700
X0.57100 Y2.33700
X0.57100 Y2.33600
X0.57400 Y2.33600
X0.57400 Y2.33700
X0.57500 Y2.33700
X0.57500 Y2.33800
X0.57600 Y2.33800
X0.57600 Y2.33900
X0.57700 Y2.33900
X0.57700 Y2.34000
X0.57800 Y2.34000
X0.57800 Y2.34400
X0.57900 Y2.34400
X0.57900 Y2.34600
X0.58000 Y2.34600
X0.58000 Y2.35000
X0.58100 Y2.35000
X0.58100 Y2.35200
X0.58200 Y2.35200
X0.58200 Y2.35400
X0.58300 Y2.35400
X0.58300 Y2.35500
X0.58400 Y2.35500
X0.58400 Y2.35600
X0.58500 Y2.35600
X0.58500 Y2.35700
X0.58600 Y2.35700
X0.58600 Y2.35800
X0.58700 Y2.35800
X0.58700 Y2.35900
X0.58800 Y2.35900
X0.58800 Y2.36000
X0.58900 Y2.36000
X0.58900 Y2.36100
X0.59000 Y2.36100
X0.59000 Y2.36200
X0.59100 Y2.36200
X0.59100 Y2.36300
X0.59200 Y2.36300
X0.59200 Y2.36400
X0.59400 Y2.36400
X0.59400 Y2.36500
X0.59500 Y2.36500
X0.59500 Y2.36600
X0.60000 Y2.36600
X0.60000 Y2.36700
X0.60200 Y2.36700
X0.60200 Y2.36800
X0.61800 Y2.36800
X0.61800 Y2.36700
X0.61900 Y2.36700
X0.61900 Y2.36600
X0.62400 Y2.36600
X0.62400 Y2.36500
X0.62500 Y2.36500
X0.62500 Y2.36400
X0.62700 Y2.36400
X0.62700 Y2.36300
X0.62900 Y2.36300
X0.62900 Y2.36200
X0.63000 Y2.36200
X0.63000 Y2.36100
X0.63100 Y2.36100
X0.63100 Y2.36000
X0.63200 Y2.36000
X0.63200 Y2.35900
X0.63300 Y2.35900
X0.63300 Y2.35800
X0.63400 Y2.35800
X0.63400 Y2.35700
X0.63500 Y2.35700
X0.63500 Y2.35600
X0.63600 Y2.35600
X0.63600 Y2.35400
X0.63700 Y2.35400
X0.63700 Y2.35300
X0.63800 Y2.35300
X0.63800 Y2.35000
X0.63900 Y2.35000
X0.63900 Y2.34800
X0.64000 Y2.34800
X0.64000 Y2.34500
X0.64100 Y2.34500
X0.64100 Y2.32800
X0.64000 Y2.32800
X0.64000 Y2.32500
X0.63900 Y2.32500
X0.63900 Y2.32300
X0.63800 Y2.32300
X0.63800 Y2.32000
X0.63700 Y2.32000
X0.63700 Y2.31900
X0.63600 Y2.31900
X0.63600 Y2.31700
X0.63500 Y2.31700
X0.63500 Y2.31600
X0.63400 Y2.31600
X0.63400 Y2.31400
X0.63300 Y2.31400
X0.63300 Y2.31300
X0.63200 Y2.31300
X0.63200 Y2.31200
X0.63100 Y2.31200
X0.63100 Y2.31100
X0.62900 Y2.31100
X0.62900 Y2.31000
X0.62700 Y2.31000
X0.62700 Y2.30900
X0.62500 Y2.30900
X0.62500 Y2.30800
X0.62400 Y2.30800
X0.62400 Y2.30700
X0.62100 Y2.30700
X0.62100 Y2.30600
X0.61900 Y2.30600
X0.61900 Y2.30500
X0.61700 Y2.30500
X0.61700 Y2.28200
X0.61800 Y2.28200
X0.61800 Y2.27900
X0.61900 Y2.27900
X0.61900 Y2.27700
X0.62000 Y2.27700
X0.62000 Y2.27600
X0.62100 Y2.27600
X0.62100 Y2.27200
X0.62200 Y2.27200
X0.62200 Y2.24100
X0.62100 Y2.24100
X0.62100 Y2.23800
X0.62000 Y2.23800
X0.62000 Y2.23600
X0.61900 Y2.23600
X0.61900 Y2.23300
X0.61800 Y2.23300
X0.61800 Y2.23000
X0.61700 Y2.23000
X0.61700 Y2.21600
X0.62400 Y2.21600
X0.62400 Y2.21500
X0.62700 Y2.21500
X0.62700 Y2.21100
X0.62800 Y2.21100
X0.62800 Y2.19000
X0.62700 Y2.19000
X0.62700 Y2.18700
X0.62600 Y2.18700
X0.62600 Y2.18400
X0.62700 Y2.18400
X0.62700 Y2.18000
X0.62800 Y2.18000
X0.62800 Y2.17700
X0.64100 Y2.17700
X0.64100 Y2.20300
X0.64200 Y2.20300
X0.64200 Y2.20400
X0.64300 Y2.20400
X0.64300 Y2.20500
X0.68600 Y2.20500
X0.68600 Y2.20400
X0.68800 Y2.20400
X0.68800 Y2.20100
X0.68900 Y2.20100
X0.68900 Y2.17000
X0.68800 Y2.17000
X0.68800 Y2.16800
X0.68500 Y2.16800
X0.68500 Y2.16700
X0.65900 Y2.16700
X0.65900 Y2.16600
X0.65600 Y2.16600
X0.65600 Y2.16500
X0.65500 Y2.16500
X0.65500 Y2.16400
X0.65300 Y2.16400
X0.65300 Y2.16300
X0.63800 Y2.16300
X0.63800 Y2.16200
X0.62800 Y2.16200
X0.62800 Y2.15900
X0.62700 Y2.15900
X0.62700 Y2.15800
X0.62600 Y2.15800
X0.62600 Y2.15700
X0.62500 Y2.15700
X0.62500 Y2.15600
X0.62000 Y2.15600
X0.62000 Y2.15500
X0.60200 Y2.15500
X0.60200 Y2.15400
X0.59800 Y2.15400
X0.59800 Y2.15300
X0.59700 Y2.15300
X0.59700 Y2.15200
X0.59600 Y2.15200
X0.59600 Y2.15100
X0.59500 Y2.15100
X0.59500 Y2.15000
X0.59400 Y2.15000
X0.59400 Y2.14900
X0.59300 Y2.14900
X0.59300 Y2.14800
X0.59200 Y2.14800
X0.59200 Y2.14700
X0.59100 Y2.14700
X0.59100 Y2.14600
X0.59000 Y2.14600
X0.59000 Y2.14500
X0.58900 Y2.14500
X0.58900 Y2.14400
X0.58800 Y2.14400
X0.58800 Y2.14300
X0.58700 Y2.14300
X0.58700 Y2.14200
X0.58600 Y2.14200
X0.58600 Y2.14100
X0.58500 Y2.14100
X0.58500 Y2.14000
X0.58400 Y2.14000
X0.58400 Y2.13700
X0.58300 Y2.13700
X0.58300 Y2.12000
X0.58200 Y2.12000
X0.58200 Y2.11700
X0.58100 Y2.11700
X0.58100 Y2.11400
X0.58200 Y2.11400
X0.58200 Y2.11000
X0.58300 Y2.11000
X0.58300 Y2.10400
X0.58200 Y2.10400
X0.58200 Y2.08600
X0.58000 Y2.08600
X0.58000 Y2.08500
X0.57200 Y2.08500
X0.57200 Y1.82400
X0.57300 Y1.82400
X0.57300 Y1.82200
X0.57500 Y1.82200
X0.57500 Y1.82100
X0.57600 Y1.82100
X0.57600 Y1.82000
X0.57700 Y1.82000
X0.57700 Y1.81900
X0.57800 Y1.81900
X0.57800 Y1.81800
X0.57900 Y1.81800
X0.57900 Y1.81700
X0.58000 Y1.81700
X0.58000 Y1.81500
X0.58100 Y1.81500
X0.58100 Y1.81100
X0.58200 Y1.81100
X0.58200 Y1.80100
X0.58100 Y1.80100
X0.58100 Y1.79800
X0.58000 Y1.79800
X0.58000 Y1.79600
X0.57900 Y1.79600
X0.57900 Y1.79500
X0.57800 Y1.79500
X0.57800 Y1.79300
X0.57700 Y1.79300
X0.57700 Y1.79100
X0.57600 Y1.79100
X0.57600 Y1.78900
X0.57500 Y1.78900
X0.57500 Y1.78500
X0.57600 Y1.78500
X0.57600 Y1.78400
X0.62700 Y1.78400
X0.62700 Y1.78500
X0.62800 Y1.78500
X0.62800 Y1.78600
X0.62900 Y1.78600
X0.62900 Y1.78700
X0.63000 Y1.78700
X0.63000 Y1.78800
X0.63100 Y1.78800
X0.63100 Y1.79000
X0.63000 Y1.79000
X0.63000 Y1.79100
X0.62900 Y1.79100
X0.62900 Y1.79200
X0.62800 Y1.79200
X0.62800 Y1.79300
X0.62700 Y1.79300
X0.62700 Y1.79400
X0.62600 Y1.79400
X0.62600 Y1.79500
X0.62400 Y1.79500
X0.62400 Y1.79600
X0.62100 Y1.79600
X0.62100 Y1.79700
X0.61900 Y1.79700
X0.61900 Y1.79800
X0.61700 Y1.79800
X0.61700 Y1.79900
X0.61600 Y1.79900
X0.61600 Y1.80100
X0.61500 Y1.80100
X0.61500 Y1.80200
X0.61400 Y1.80200
X0.61400 Y1.80400
X0.61300 Y1.80400
X0.61300 Y1.80800
X0.61200 Y1.80800
X0.61200 Y1.81600
X0.61300 Y1.81600
X0.61300 Y1.82100
X0.61400 Y1.82100
X0.61400 Y1.82300
X0.61500 Y1.82300
X0.61500 Y1.82400
X0.61600 Y1.82400
X0.61600 Y1.82500
X0.61700 Y1.82500
X0.61700 Y1.82600
X0.61800 Y1.82600
X0.61800 Y1.82700
X0.61900 Y1.82700
X0.61900 Y1.82800
X0.62100 Y1.82800
X0.62100 Y1.82900
X0.62600 Y1.82900
X0.62600 Y1.83000
X0.63400 Y1.83000
X0.63400 Y1.82900
X0.64100 Y1.82900
X0.64100 Y1.82800
X0.65500 Y1.82800
X0.65500 Y1.82900
X0.67500 Y1.82900
X0.67500 Y1.83000
X0.71900 Y1.83000
X0.71900 Y1.82900
X0.72100 Y1.82900
X0.72100 Y1.83000
X0.76500 Y1.83000
X0.76500 Y1.82900
X0.76800 Y1.82900
X0.76800 Y1.82600
X0.76900 Y1.82600
X0.76900 Y1.79500
X0.76800 Y1.79500
X0.76800 Y1.79200
X0.76700 Y1.79200
X0.76700 Y1.79100
X0.76600 Y1.79100
X0.76600 Y1.79000
X0.76500 Y1.79000
X0.76500 Y1.78900
X0.76400 Y1.78900
X0.76400 Y1.78700
X0.76500 Y1.78700
X0.76500 Y1.78600
X0.76600 Y1.78600
X0.76600 Y1.78500
X0.76700 Y1.78500
X0.76700 Y1.78400
X0.79300 Y1.78400
X0.79300 Y1.78500
X0.79400 Y1.78500
X0.79400 Y1.78600
X0.79500 Y1.78600
X0.79500 Y1.78700
X0.79600 Y1.78700
X0.79600 Y1.78800
X0.79700 Y1.78800
X0.79700 Y2.48800
X0.78800 Y2.48800
X0.78800 Y2.48900
X0.71600 Y2.48900
X0.71600 Y2.48800
G04 P0 ( dwell for no time -- G64 should not smooth over this point )
G00 Z0.19685 ( retract )

G00 X0.52100 Y2.48800 ( rapid move to begin. )
G01 Z-0.01969 F1.96850 ( plunge. )
G04 P0 ( dwell for no time -- G64 should not smooth over this point )
X0.52100 Y2.48800
X0.51200 Y2.48800
X0.51200 Y2.48500
X0.51100 Y2.48500
X0.51100 Y2.48400
X0.51000 Y2.48400
X0.51000 Y2.48300
X0.50900 Y2.48300
X0.50900 Y2.48200
X0.50800 Y2.48200
X0.50800 Y2.48100
X0.50700 Y2.48100
X0.50700 Y2.48000
X0.50600 Y2.48000
X0.50600 Y2.47900
X0.50500 Y2.47900
X0.50500 Y2.47800
X0.50400 Y2.47800
X0.50400 Y2.47600
X0.50300 Y2.47600
X0.50300 Y2.47400
X0.50200 Y2.47400
X0.50200 Y2.46900
X0.50100 Y2.46900
X0.50100 Y2.44000
X0.50000 Y2.44000
X0.50000 Y2.43900
X0.49900 Y2.43900
X0.49900 Y2.43800
X0.49800 Y2.43800
X0.49800 Y2.43700
X0.49700 Y2.43700
X0.49700 Y2.43500
X0.49800 Y2.43500
X0.49800 Y2.43400
X0.49900 Y2.43400
X0.49900 Y2.43300
X0.50000 Y2.43300
X0.50000 Y2.43200
X0.50100 Y2.43200
X0.50100 Y2.36800
X0.49900 Y2.36800
X0.49900 Y2.36700
X0.49700 Y2.36700
X0.49700 Y2.36600
X0.49500 Y2.36600
X0.49500 Y2.36500
X0.49400 Y2.36500
X0.49400 Y2.36400
X0.49200 Y2.36400
X0.49200 Y2.36300
X0.49000 Y2.36300
X0.49000 Y2.36200
X0.48800 Y2.36200
X0.48800 Y2.36100
X0.48700 Y2.36100
X0.48700 Y2.36000
X0.48600 Y2.36000
X0.48600 Y2.35900
X0.48500 Y2.35900
X0.48500 Y2.35700
X0.48400 Y2.35700
X0.48400 Y2.35600
X0.48300 Y2.35600
X0.48300 Y2.35400
X0.48200 Y2.35400
X0.48200 Y2.35300
X0.48100 Y2.35300
X0.48100 Y2.35100
X0.48000 Y2.35100
X0.48000 Y2.34900
X0.47900 Y2.34900
X0.47900 Y2.34600
X0.47800 Y2.34600
X0.47800 Y2.34100
X0.47700 Y2.34100
X0.47700 Y2.34000
X0.47600 Y2.34000
X0.47600 Y2.33900
X0.47500 Y2.33900
X0.47500 Y2.33800
X0.47400 Y2.33800
X0.47400 Y2.33500
X0.47500 Y2.33500
X0.47500 Y2.33400
X0.47600 Y2.33400
X0.47600 Y2.33300
X0.47700 Y2.33300
X0.47700 Y2.33200
X0.47800 Y2.33200
X0.47800 Y2.32700
X0.47900 Y2.32700
X0.47900 Y2.32400
X0.48000 Y2.32400
X0.48000 Y2.32200
X0.48100 Y2.32200
X0.48100 Y2.32000
X0.48200 Y2.32000
X0.48200 Y2.31900
X0.48300 Y2.31900
X0.48300 Y2.31700
X0.48400 Y2.31700
X0.48400 Y2.31600
X0.48500 Y2.31600
X0.48500 Y2.31400
X0.48600 Y2.31400
X0.48600 Y2.31300
X0.48700 Y2.31300
X0.48700 Y2.31200
X0.48800 Y2.31200
X0.48800 Y2.31100
X0.48900 Y2.31100
X0.48900 Y2.31000
X0.49000 Y2.31000
X0.49000 Y2.30900
X0.49200 Y2.30900
X0.49200 Y2.30800
X0.49300 Y2.30800
X0.49300 Y2.30700
X0.49500 Y2.30700
X0.49500 Y2.30600
X0.49900 Y2.30600
X0.49900 Y2.30500
X0.50500 Y2.30500
X0.50500 Y2.30400
X0.51400 Y2.30400
X0.51400 Y2.30500
X0.52000 Y2.30500
X0.52000 Y2.30600
X0.52400 Y2.30600
X0.52400 Y2.30700
X0.52600 Y2.30700
X0.52600 Y2.30800
X0.52700 Y2.30800
X0.52700 Y2.30900
X0.52900 Y2.30900
X0.52900 Y2.31000
X0.53000 Y2.31000
X0.53000 Y2.31100
X0.53100 Y2.31100
X0.53100 Y2.31200
X0.53200 Y2.31200
X0.53200 Y2.31300
X0.53300 Y2.31300
X0.53300 Y2.31400
X0.53400 Y2.31400
X0.53400 Y2.31500
X0.53500 Y2.31500
X0.53500 Y2.31600
X0.53600 Y2.31600
X0.53600 Y2.31700
X0.53700 Y2.31700
X0.53700 Y2.31900
X0.53800 Y2.31900
X0.53800 Y2.32000
X0.53900 Y2.32000
X0.53900 Y2.32200
X0.54000 Y2.32200
X0.54000 Y2.32700
X0.54100 Y2.32700
X0.54100 Y2.33100
X0.54200 Y2.33100
X0.54200 Y2.33200
X0.54300 Y2.33200
X0.54300 Y2.33300
X0.54400 Y2.33300
X0.54400 Y2.33400
X0.54500 Y2.33400
X0.54500 Y2.33500
X0.54700 Y2.33500
X0.54700 Y2.33700
X0.54500 Y2.33700
X0.54500 Y2.33800
X0.54400 Y2.33800
X0.54400 Y2.33900
X0.54300 Y2.33900
X0.54300 Y2.34000
X0.54200 Y2.34000
X0.54200 Y2.34100
X0.54100 Y2.34100
X0.54100 Y2.34600
X0.54000 Y2.34600
X0.54000 Y2.35100
X0.53900 Y2.35100
X0.53900 Y2.35300
X0.53800 Y2.35300
X0.53800 Y2.35400
X0.53700 Y2.35400
X0.53700 Y2.35500
X0.53600 Y2.35500
X0.53600 Y2.35600
X0.53500 Y2.35600
X0.53500 Y2.35700
X0.53400 Y2.35700
X0.53400 Y2.35900
X0.53300 Y2.35900
X0.53300 Y2.36000
X0.53200 Y2.36000
X0.53200 Y2.36100
X0.53100 Y2.36100
X0.53100 Y2.36200
X0.52900 Y2.36200
X0.52900 Y2.36300
X0.52700 Y2.36300
X0.52700 Y2.36400
X0.52500 Y2.36400
X0.52500 Y2.36500
X0.52400 Y2.36500
X0.52400 Y2.36600
X0.52200 Y2.36600
X0.52200 Y2.36700
X0.52000 Y2.36700
X0.52000 Y2.36800
X0.51800 Y2.36800
X0.51800 Y2.43300
X0.51900 Y2.43300
X0.51900 Y2.43400
X0.52000 Y2.43400
X0.52000 Y2.43500
X0.52100 Y2.43500
X0.52100 Y2.43800
X0.52000 Y2.43800
X0.52000 Y2.43900
X0.51900 Y2.43900
X0.51900 Y2.44000
X0.51800 Y2.44000
X0.51800 Y2.46700
X0.51900 Y2.46700
X0.51900 Y2.46900
X0.52000 Y2.46900
X0.52000 Y2.47000
X0.52100 Y2.47000
X0.52100 Y2.47100
X0.52200 Y2.47100
X0.52200 Y2.47200
X0.52300 Y2.47200
X0.52300 Y2.47300
X0.52400 Y2.47300
X0.52400 Y2.47400
X0.52500 Y2.47400
X0.52500 Y2.47500
X0.52600 Y2.47500
X0.52600 Y2.47600
X0.52700 Y2.47600
X0.52700 Y2.47700
X0.52900 Y2.47700
X0.52900 Y2.47800
X0.55600 Y2.47800
X0.55600 Y2.47700
X0.55700 Y2.47700
X0.55700 Y2.47600
X0.55800 Y2.47600
X0.55800 Y2.47500
X0.56000 Y2.47500
X0.56000 Y2.47600
X0.56100 Y2.47600
X0.56100 Y2.47700
X0.56200 Y2.47700
X0.56200 Y2.47800
X0.56300 Y2.47800
X0.56300 Y2.47900
X0.69400 Y2.47900
X0.69400 Y2.47800
X0.69700 Y2.47800
X0.69700 Y2.47700
X0.69800 Y2.47700
X0.69800 Y2.47600
X0.69900 Y2.47600
X0.69900 Y2.47500
X0.70000 Y2.47500
X0.70000 Y2.47400
X0.70100 Y2.47400
X0.70100 Y2.47300
X0.70200 Y2.47300
X0.70200 Y2.47200
X0.70300 Y2.47200
X0.70300 Y2.47100
X0.70400 Y2.47100
X0.70400 Y2.47000
X0.70500 Y2.47000
X0.70500 Y2.46900
X0.70600 Y2.46900
X0.70600 Y2.46800
X0.70700 Y2.46800
X0.70700 Y2.46700
X0.70800 Y2.46700
X0.70800 Y2.46600
X0.70900 Y2.46600
X0.70900 Y2.46500
X0.71000 Y2.46500
X0.71000 Y2.46400
X0.71100 Y2.46400
X0.71100 Y2.46300
X0.71200 Y2.46300
X0.71200 Y2.46200
X0.71300 Y2.46200
X0.71300 Y2.46100
X0.71400 Y2.46100
X0.71400 Y2.46000
X0.71500 Y2.46000
X0.71500 Y2.45900
X0.71600 Y2.45900
X0.71600 Y2.45800
X0.71700 Y2.45800
X0.71700 Y2.45700
X0.71800 Y2.45700
X0.71800 Y2.45600
X0.71900 Y2.45600
X0.71900 Y2.45500
X0.72000 Y2.45500
X0.72000 Y2.45400
X0.72100 Y2.45400
X0.72100 Y2.45300
X0.72200 Y2.45300
X0.72200 Y2.45200
X0.72300 Y2.45200
X0.72300 Y2.45100
X0.72400 Y2.45100
X0.72400 Y2.45000
X0.72500 Y2.45000
X0.72500 Y2.44900
X0.72600 Y2.44900
X0.72600 Y2.44800
X0.72700 Y2.44800
X0.72700 Y2.44700
X0.72800 Y2.44700
X0.72800 Y2.44600
X0.72900 Y2.44600
X0.72900 Y2.44300
X0.73100 Y2.44300
X0.73100 Y2.44200
X0.73300 Y2.44200
X0.73300 Y2.44100
X0.73600 Y2.44100
X0.73600 Y2.44000
X0.73700 Y2.44000
X0.73700 Y2.43900
X0.73800 Y2.43900
X0.73800 Y2.41100
X0.73700 Y2.41100
X0.73700 Y2.38400
X0.73800 Y2.38400
X0.73800 Y2.36300
X0.73700 Y2.36300
X0.73700 Y2.09400
X0.73800 Y2.09400
X0.73800 Y2.07900
X0.73700 Y2.07900
X0.73700 Y2.05200
X0.73600 Y2.05200
X0.73600 Y2.04900
X0.73500 Y2.04900
X0.73500 Y2.04700
X0.73400 Y2.04700
X0.73400 Y2.04600
X0.73300 Y2.04600
X0.73300 Y2.04500
X0.73200 Y2.04500
X0.73200 Y2.04400
X0.73100 Y2.04400
X0.73100 Y2.04300
X0.73000 Y2.04300
X0.73000 Y2.04200
X0.72900 Y2.04200
X0.72900 Y2.04100
X0.72800 Y2.04100
X0.72800 Y2.04000
X0.72700 Y2.04000
X0.72700 Y2.03900
X0.72600 Y2.03900
X0.72600 Y2.03800
X0.72500 Y2.03800
X0.72500 Y2.03700
X0.72400 Y2.03700
X0.72400 Y2.03600
X0.72300 Y2.03600
X0.72300 Y2.03500
X0.72200 Y2.03500
X0.72200 Y2.03400
X0.72100 Y2.03400
X0.72100 Y2.03300
X0.72000 Y2.03300
X0.72000 Y2.03200
X0.71900 Y2.03200
X0.71900 Y2.03100
X0.71800 Y2.03100
X0.71800 Y2.03000
X0.71700 Y2.03000
X0.71700 Y2.02900
X0.71600 Y2.02900
X0.71600 Y2.02800
X0.71500 Y2.02800
X0.71500 Y2.02700
X0.71400 Y2.02700
X0.71400 Y2.02600
X0.71300 Y2.02600
X0.71300 Y2.02500
X0.71200 Y2.02500
X0.71200 Y2.02400
X0.71100 Y2.02400
X0.71100 Y2.02300
X0.71000 Y2.02300
X0.71000 Y2.02200
X0.70900 Y2.02200
X0.70900 Y2.02100
X0.70800 Y2.02100
X0.70800 Y2.02000
X0.70700 Y2.02000
X0.70700 Y2.01900
X0.70600 Y2.01900
X0.70600 Y2.01800
X0.70500 Y2.01800
X0.70500 Y2.01700
X0.70400 Y2.01700
X0.70400 Y2.01600
X0.70300 Y2.01600
X0.70300 Y2.01500
X0.70200 Y2.01500
X0.70200 Y2.01400
X0.70100 Y2.01400
X0.70100 Y2.01300
X0.70000 Y2.01300
X0.70000 Y2.01200
X0.69900 Y2.01200
X0.69900 Y2.01100
X0.69800 Y2.01100
X0.69800 Y2.01000
X0.69700 Y2.01000
X0.69700 Y2.00900
X0.69600 Y2.00900
X0.69600 Y2.00800
X0.69500 Y2.00800
X0.69500 Y2.00700
X0.69400 Y2.00700
X0.69400 Y2.00600
X0.69300 Y2.00600
X0.69300 Y2.00500
X0.69200 Y2.00500
X0.69200 Y2.00400
X0.69100 Y2.00400
X0.69100 Y2.00300
X0.69000 Y2.00300
X0.69000 Y2.00200
X0.68900 Y2.00200
X0.68900 Y2.00100
X0.68800 Y2.00100
X0.68800 Y1.99700
X0.68700 Y1.99700
X0.68700 Y1.88100
X0.67300 Y1.88100
X0.67300 Y1.88000
X0.67200 Y1.88000
X0.67200 Y1.87900
X0.67100 Y1.87900
X0.67100 Y1.84500
X0.67200 Y1.84500
X0.67200 Y1.84400
X0.67400 Y1.84400
X0.67400 Y1.84300
X0.71900 Y1.84300
X0.71900 Y1.84400
X0.72100 Y1.84400
X0.72100 Y1.84300
X0.76500 Y1.84300
X0.76500 Y1.84400
X0.76800 Y1.84400
X0.76800 Y1.84600
X0.76900 Y1.84600
X0.76900 Y1.87700
X0.76800 Y1.87700
X0.76800 Y1.88000
X0.76600 Y1.88000
X0.76600 Y1.88100
X0.72100 Y1.88100
X0.72100 Y1.88000
X0.71900 Y1.88000
X0.71900 Y1.88100
X0.70200 Y1.88100
X0.70200 Y1.94900
X0.70100 Y1.94900
X0.70100 Y1.98400
X0.70200 Y1.98400
X0.70200 Y1.99100
X0.70300 Y1.99100
X0.70300 Y1.99400
X0.70400 Y1.99400
X0.70400 Y1.99500
X0.70500 Y1.99500
X0.70500 Y1.99600
X0.70600 Y1.99600
X0.70600 Y1.99700
X0.70700 Y1.99700
X0.70700 Y1.99800
X0.70800 Y1.99800
X0.70800 Y1.99900
X0.70900 Y1.99900
X0.70900 Y2.00000
X0.71000 Y2.00000
X0.71000 Y2.00100
X0.71100 Y2.00100
X0.71100 Y2.00200
X0.71200 Y2.00200
X0.71200 Y2.00300
X0.71300 Y2.00300
X0.71300 Y2.00400
X0.71400 Y2.00400
X0.71400 Y2.00500
X0.71500 Y2.00500
X0.71500 Y2.00600
X0.71600 Y2.00600
X0.71600 Y2.00700
X0.71700 Y2.00700
X0.71700 Y2.00800
X0.71800 Y2.00800
X0.71800 Y2.00900
X0.71900 Y2.00900
X0.71900 Y2.01000
X0.72000 Y2.01000
X0.72000 Y2.01100
X0.72100 Y2.01100
X0.72100 Y2.01200
X0.72200 Y2.01200
X0.72200 Y2.01300
X0.72300 Y2.01300
X0.72300 Y2.01400
X0.72400 Y2.01400
X0.72400 Y2.01500
X0.72500 Y2.01500
X0.72500 Y2.01600
X0.72600 Y2.01600
X0.72600 Y2.01700
X0.72700 Y2.01700
X0.72700 Y2.01800
X0.72800 Y2.01800
X0.72800 Y2.01900
X0.72900 Y2.01900
X0.72900 Y2.02000
X0.73000 Y2.02000
X0.73000 Y2.02100
X0.73100 Y2.02100
X0.73100 Y2.02200
X0.73200 Y2.02200
X0.73200 Y2.02300
X0.73300 Y2.02300
X0.73300 Y2.02400
X0.73400 Y2.02400
X0.73400 Y2.02500
X0.73500 Y2.02500
X0.73500 Y2.02600
X0.73600 Y2.02600
X0.73600 Y2.02700
X0.73700 Y2.02700
X0.73700 Y2.02800
X0.73800 Y2.02800
X0.73800 Y2.02900
X0.73900 Y2.02900
X0.73900 Y2.03000
X0.74000 Y2.03000
X0.74000 Y2.03100
X0.74100 Y2.03100
X0.74100 Y2.03200
X0.74200 Y2.03200
X0.74200 Y2.03300
X0.74300 Y2.03300
X0.74300 Y2.03400
X0.74400 Y2.03400
X0.74400 Y2.03500
X0.74500 Y2.03500
X0.74500 Y2.03600
X0.74600 Y2.03600
X0.74600 Y2.03700
X0.74700 Y2.03700
X0.74700 Y2.03800
X0.74800 Y2.03800
X0.74800 Y2.03900
X0.74900 Y2.03900
X0.74900 Y2.04000
X0.75000 Y2.04000
X0.75000 Y2.04200
X0.75100 Y2.04200
X0.75100 Y2.04400
X0.75200 Y2.04400
X0.75200 Y2.37000
X0.75300 Y2.37000
X0.75300 Y2.37300
X0.75400 Y2.37300
X0.75400 Y2.37600
X0.75500 Y2.37600
X0.75500 Y2.37800
X0.75600 Y2.37800
X0.75600 Y2.38100
X0.75700 Y2.38100
X0.75700 Y2.41200
X0.75600 Y2.41200
X0.75600 Y2.41600
X0.75500 Y2.41600
X0.75500 Y2.41700
X0.75400 Y2.41700
X0.75400 Y2.41900
X0.75300 Y2.41900
X0.75300 Y2.42200
X0.75200 Y2.42200
X0.75200 Y2.44300
X0.75100 Y2.44300
X0.75100 Y2.44600
X0.75000 Y2.44600
X0.75000 Y2.44800
X0.74900 Y2.44800
X0.74900 Y2.44900
X0.74800 Y2.44900
X0.74800 Y2.45000
X0.74700 Y2.45000
X0.74700 Y2.45100
X0.74600 Y2.45100
X0.74600 Y2.45200
X0.74500 Y2.45200
X0.74500 Y2.45300
X0.74400 Y2.45300
X0.74400 Y2.45400
X0.74300 Y2.45400
X0.74300 Y2.45500
X0.74200 Y2.45500
X0.74200 Y2.45600
X0.74100 Y2.45600
X0.74100 Y2.45700
X0.74000 Y2.45700
X0.74000 Y2.45800
X0.73900 Y2.45800
X0.73900 Y2.45900
X0.73800 Y2.45900
X0.73800 Y2.46000
X0.73700 Y2.46000
X0.73700 Y2.46100
X0.73600 Y2.46100
X0.73600 Y2.46200
X0.73500 Y2.46200
X0.73500 Y2.46300
X0.73400 Y2.46300
X0.73400 Y2.46400
X0.73300 Y2.46400
X0.73300 Y2.46500
X0.73200 Y2.46500
X0.73200 Y2.46600
X0.73100 Y2.46600
X0.73100 Y2.46700
X0.73000 Y2.46700
X0.73000 Y2.46800
X0.72900 Y2.46800
X0.72900 Y2.46900
X0.72800 Y2.46900
X0.72800 Y2.47000
X0.72700 Y2.47000
X0.72700 Y2.47100
X0.72600 Y2.47100
X0.72600 Y2.47200
X0.72500 Y2.47200
X0.72500 Y2.47300
X0.72400 Y2.47300
X0.72400 Y2.47400
X0.72300 Y2.47400
X0.72300 Y2.47500
X0.72200 Y2.47500
X0.72200 Y2.47600
X0.72100 Y2.47600
X0.72100 Y2.47700
X0.72000 Y2.47700
X0.72000 Y2.47800
X0.71900 Y2.47800
X0.71900 Y2.47900
X0.71800 Y2.47900
X0.71800 Y2.48000
X0.71700 Y2.48000
X0.71700 Y2.48100
X0.71600 Y2.48100
X0.71600 Y2.48200
X0.71500 Y2.48200
X0.71500 Y2.48300
X0.71400 Y2.48300
X0.71400 Y2.48400
X0.71300 Y2.48400
X0.71300 Y2.48500
X0.71200 Y2.48500
X0.71200 Y2.48800
X0.70300 Y2.48800
X0.70300 Y2.48900
X0.52100 Y2.48900
X0.52100 Y2.48800
G04 P0 ( dwell for no time -- G64 should not smooth over this point )
G00 Z0.19685 ( retract )

G00 X0.08200 Y2.48800 ( rapid move to begin. )
G01 Z-0.01969 F1.96850 ( plunge. )
G04 P0 ( dwell for no time -- G64 should not smooth over this point )
X0.08200 Y2.48800
X0.07200 Y2.48800
X0.07200 Y1.76100
X0.21100 Y1.76100
X0.21100 Y1.61300
X0.21200 Y1.61300
X0.21200 Y1.61000
X0.21300 Y1.61000
X0.21300 Y1.60800
X0.21400 Y1.60800
X0.21400 Y1.60700
X0.21500 Y1.60700
X0.21500 Y1.60600
X0.21600 Y1.60600
X0.21600 Y1.60500
X0.21700 Y1.60500
X0.21700 Y1.60400
X0.21800 Y1.60400
X0.21800 Y1.60300
X0.21900 Y1.60300
X0.21900 Y1.45000
X0.21800 Y1.45000
X0.21800 Y1.44900
X0.21700 Y1.44900
X0.21700 Y1.44700
X0.21600 Y1.44700
X0.21600 Y1.41600
X0.21700 Y1.41600
X0.21700 Y1.41400
X0.21800 Y1.41400
X0.21800 Y1.41300
X0.21900 Y1.41300
X0.21900 Y1.35000
X0.21800 Y1.35000
X0.21800 Y1.34900
X0.21700 Y1.34900
X0.21700 Y1.34700
X0.21600 Y1.34700
X0.21600 Y1.31600
X0.21700 Y1.31600
X0.21700 Y1.31400
X0.21800 Y1.31400
X0.21800 Y1.31300
X0.21900 Y1.31300
X0.21900 Y0.75000
X0.22000 Y0.75000
X0.22000 Y0.74900
X0.22100 Y0.74900
X0.22100 Y0.74800
X0.22200 Y0.74800
X0.22200 Y0.74700
X0.22300 Y0.74700
X0.22300 Y0.74600
X0.22400 Y0.74600
X0.22400 Y0.74500
X0.22500 Y0.74500
X0.22500 Y0.74300
X0.22600 Y0.74300
X0.22600 Y0.74200
X0.22700 Y0.74200
X0.22700 Y0.74100
X0.22800 Y0.74100
X0.22800 Y0.74000
X0.22900 Y0.74000
X0.22900 Y0.73900
X0.23000 Y0.73900
X0.23000 Y0.73700
X0.23100 Y0.73700
X0.23100 Y0.73600
X0.23200 Y0.73600
X0.23200 Y0.73500
X0.23300 Y0.73500
X0.23300 Y0.73400
X0.23400 Y0.73400
X0.23400 Y0.73300
X0.23500 Y0.73300
X0.23500 Y0.73200
X0.23600 Y0.73200
X0.23600 Y0.73000
X0.23700 Y0.73000
X0.23700 Y0.72900
X0.23800 Y0.72900
X0.23800 Y0.72800
X0.23900 Y0.72800
X0.23900 Y0.72700
X0.24000 Y0.72700
X0.24000 Y0.72600
X0.24100 Y0.72600
X0.24100 Y0.72400
X0.24200 Y0.72400
X0.24200 Y0.72300
X0.24300 Y0.72300
X0.24300 Y0.72200
X0.24400 Y0.72200
X0.24400 Y0.72100
X0.24500 Y0.72100
X0.24500 Y0.72000
X0.24600 Y0.72000
X0.24600 Y0.71900
X0.24700 Y0.71900
X0.24700 Y0.71700
X0.24800 Y0.71700
X0.24800 Y0.71600
X0.24900 Y0.71600
X0.24900 Y0.71500
X0.25000 Y0.71500
X0.25000 Y0.71400
X0.25100 Y0.71400
X0.25100 Y0.71300
X0.25200 Y0.71300
X0.25200 Y0.71100
X0.25300 Y0.71100
X0.25300 Y0.71000
X0.25400 Y0.71000
X0.25400 Y0.70900
X0.25500 Y0.70900
X0.25500 Y0.70800
X0.25600 Y0.70800
X0.25600 Y0.70700
X0.25700 Y0.70700
X0.25700 Y0.70600
X0.25800 Y0.70600
X0.25800 Y0.70400
X0.25900 Y0.70400
X0.25900 Y0.70300
X0.26000 Y0.70300
X0.26000 Y0.70200
X0.26100 Y0.70200
X0.26100 Y0.70100
X0.26200 Y0.70100
X0.26200 Y0.70000
X0.26300 Y0.70000
X0.26300 Y0.69800
X0.26400 Y0.69800
X0.26400 Y0.69700
X0.26500 Y0.69700
X0.26500 Y0.69600
X0.26600 Y0.69600
X0.26600 Y0.69500
X0.26700 Y0.69500
X0.26700 Y0.69400
X0.26800 Y0.69400
X0.26800 Y0.69300
X0.26900 Y0.69300
X0.26900 Y0.69100
X0.27000 Y0.69100
X0.27000 Y0.69000
X0.27100 Y0.69000
X0.27100 Y0.68900
X0.27200 Y0.68900
X0.27200 Y0.68800
X0.27300 Y0.68800
X0.27300 Y0.68700
X0.27400 Y0.68700
X0.27400 Y0.68600
X0.74100 Y0.68600
X0.74100 Y0.63300
X0.65900 Y0.63300
X0.65900 Y0.52500
X0.66700 Y0.52500
X0.66700 Y0.52600
X0.66800 Y0.52600
X0.66800 Y0.52700
X0.66900 Y0.52700
X0.66900 Y0.52800
X0.67000 Y0.52800
X0.67000 Y0.52900
X0.67100 Y0.52900
X0.67100 Y0.53000
X0.67200 Y0.53000
X0.67200 Y0.53100
X0.67400 Y0.53100
X0.67400 Y0.53300
X0.67500 Y0.53300
X0.67500 Y0.53400
X0.67600 Y0.53400
X0.67600 Y0.53600
X0.67700 Y0.53600
X0.67700 Y0.53700
X0.67900 Y0.53700
X0.67900 Y0.53800
X0.68100 Y0.53800
X0.68100 Y0.53900
X0.68500 Y0.53900
X0.68500 Y0.54000
X0.69400 Y0.54000
X0.69400 Y0.53900
X0.69800 Y0.53900
X0.69800 Y0.53800
X0.70000 Y0.53800
X0.70000 Y0.53700
X0.70200 Y0.53700
X0.70200 Y0.53600
X0.70300 Y0.53600
X0.70300 Y0.53400
X0.70400 Y0.53400
X0.70400 Y0.53300
X0.70500 Y0.53300
X0.70500 Y0.53100
X0.70600 Y0.53100
X0.70600 Y0.52800
X0.70700 Y0.52800
X0.70700 Y0.51900
X0.70800 Y0.51900
X0.70800 Y0.51700
X0.71000 Y0.51700
X0.71000 Y0.51600
X0.71300 Y0.51600
X0.71300 Y0.51500
X0.71400 Y0.51500
X0.71400 Y0.48200
X0.71300 Y0.48200
X0.71300 Y0.47900
X0.71000 Y0.47900
X0.71000 Y0.47800
X0.65900 Y0.47800
X0.65900 Y0.32100
X0.66500 Y0.32100
X0.66500 Y0.29800
X0.70600 Y0.29800
X0.70600 Y0.29700
X0.70700 Y0.29700
X0.70700 Y0.29300
X0.70800 Y0.29300
X0.70800 Y0.26800
X0.70700 Y0.26800
X0.70700 Y0.25700
X0.70600 Y0.25700
X0.70600 Y0.25400
X0.70500 Y0.25400
X0.70500 Y0.25200
X0.70400 Y0.25200
X0.70400 Y0.25100
X0.70300 Y0.25100
X0.70300 Y0.24900
X0.70200 Y0.24900
X0.70200 Y0.24800
X0.70000 Y0.24800
X0.70000 Y0.24700
X0.69800 Y0.24700
X0.69800 Y0.24600
X0.69400 Y0.24600
X0.69400 Y0.24500
X0.68500 Y0.24500
X0.68500 Y0.24600
X0.68100 Y0.24600
X0.68100 Y0.24700
X0.67900 Y0.24700
X0.67900 Y0.24800
X0.67700 Y0.24800
X0.67700 Y0.24900
X0.67600 Y0.24900
X0.67600 Y0.25100
X0.67500 Y0.25100
X0.67500 Y0.25200
X0.67400 Y0.25200
X0.67400 Y0.25400
X0.67200 Y0.25400
X0.67200 Y0.25500
X0.67100 Y0.25500
X0.67100 Y0.25600
X0.67000 Y0.25600
X0.67000 Y0.25700
X0.66900 Y0.25700
X0.66900 Y0.25800
X0.66800 Y0.25800
X0.66800 Y0.25900
X0.66700 Y0.25900
X0.66700 Y0.26000
X0.65900 Y0.26000
X0.65900 Y0.15200
X0.74200 Y0.15200
X0.74200 Y0.15300
X0.74300 Y0.15300
X0.74300 Y0.15700
X0.74200 Y0.15700
X0.74200 Y0.16000
X0.74100 Y0.16000
X0.74100 Y0.16300
X0.74000 Y0.16300
X0.74000 Y0.16600
X0.73900 Y0.16600
X0.73900 Y0.16700
X0.73800 Y0.16700
X0.73800 Y0.16800
X0.73700 Y0.16800
X0.73700 Y0.16900
X0.73600 Y0.16900
X0.73600 Y0.17000
X0.73500 Y0.17000
X0.73500 Y0.17100
X0.73400 Y0.17100
X0.73400 Y0.17300
X0.73300 Y0.17300
X0.73300 Y0.17500
X0.73200 Y0.17500
X0.73200 Y0.24500
X0.73100 Y0.24500
X0.73100 Y0.24700
X0.72900 Y0.24700
X0.72900 Y0.24800
X0.72700 Y0.24800
X0.72700 Y0.24900
X0.72600 Y0.24900
X0.72600 Y0.25100
X0.72500 Y0.25100
X0.72500 Y0.25200
X0.72400 Y0.25200
X0.72400 Y0.25400
X0.72300 Y0.25400
X0.72300 Y0.25800
X0.72200 Y0.25800
X0.72200 Y0.26700
X0.72300 Y0.26700
X0.72300 Y0.27100
X0.72400 Y0.27100
X0.72400 Y0.27300
X0.72500 Y0.27300
X0.72500 Y0.27400
X0.72600 Y0.27400
X0.72600 Y0.27600
X0.72700 Y0.27600
X0.72700 Y0.27700
X0.72900 Y0.27700
X0.72900 Y0.27800
X0.73100 Y0.27800
X0.73100 Y0.27900
X0.73500 Y0.27900
X0.73500 Y0.28000
X0.74400 Y0.28000
X0.74400 Y0.27900
X0.74800 Y0.27900
X0.74800 Y0.27800
X0.75000 Y0.27800
X0.75000 Y0.27700
X0.75200 Y0.27700
X0.75200 Y0.27600
X0.75300 Y0.27600
X0.75300 Y0.27400
X0.75400 Y0.27400
X0.75400 Y0.27300
X0.75500 Y0.27300
X0.75500 Y0.27100
X0.75600 Y0.27100
X0.75600 Y0.26800
X0.75700 Y0.26800
X0.75700 Y0.25700
X0.75600 Y0.25700
X0.75600 Y0.25400
X0.75500 Y0.25400
X0.75500 Y0.25200
X0.75400 Y0.25200
X0.75400 Y0.25100
X0.75300 Y0.25100
X0.75300 Y0.24900
X0.75200 Y0.24900
X0.75200 Y0.24800
X0.75000 Y0.24800
X0.75000 Y0.24700
X0.74800 Y0.24700
X0.74800 Y0.24500
X0.74700 Y0.24500
X0.74700 Y0.18300
X0.74800 Y0.18300
X0.74800 Y0.18000
X0.74900 Y0.18000
X0.74900 Y0.17800
X0.75000 Y0.17800
X0.75000 Y0.17700
X0.75100 Y0.17700
X0.75100 Y0.17600
X0.75200 Y0.17600
X0.75200 Y0.17500
X0.75300 Y0.17500
X0.75300 Y0.17400
X0.75400 Y0.17400
X0.75400 Y0.17300
X0.75500 Y0.17300
X0.75500 Y0.17200
X0.75700 Y0.17200
X0.75700 Y0.17100
X0.76000 Y0.17100
X0.76000 Y0.17000
X0.78800 Y0.17000
X0.78800 Y0.17100
X0.78900 Y0.17100
X0.78900 Y0.17300
X0.78800 Y0.17300
X0.78800 Y0.17600
X0.78700 Y0.17600
X0.78700 Y0.17900
X0.78600 Y0.17900
X0.78600 Y0.18000
X0.78500 Y0.18000
X0.78500 Y0.18100
X0.78400 Y0.18100
X0.78400 Y0.18300
X0.78300 Y0.18300
X0.78300 Y0.18500
X0.78200 Y0.18500
X0.78200 Y0.24500
X0.78100 Y0.24500
X0.78100 Y0.24700
X0.77900 Y0.24700
X0.77900 Y0.24800
X0.77700 Y0.24800
X0.77700 Y0.24900
X0.77600 Y0.24900
X0.77600 Y0.25100
X0.77500 Y0.25100
X0.77500 Y0.25200
X0.77400 Y0.25200
X0.77400 Y0.25400
X0.77300 Y0.25400
X0.77300 Y0.25800
X0.77200 Y0.25800
X0.77200 Y0.26700
X0.77300 Y0.26700
X0.77300 Y0.27100
X0.77400 Y0.27100
X0.77400 Y0.27300
X0.77500 Y0.27300
X0.77500 Y0.27400
X0.77600 Y0.27400
X0.77600 Y0.27600
X0.77700 Y0.27600
X0.77700 Y0.27700
X0.77900 Y0.27700
X0.77900 Y0.27800
X0.78100 Y0.27800
X0.78100 Y0.27900
X0.78500 Y0.27900
X0.78500 Y0.28000
X0.79300 Y0.28000
X0.79300 Y0.27900
X0.79800 Y0.27900
X0.79800 Y0.27800
X0.80000 Y0.27800
X0.80000 Y0.27700
X0.80200 Y0.27700
X0.80200 Y0.27600
X0.80300 Y0.27600
X0.80300 Y0.27400
X0.80400 Y0.27400
X0.80400 Y0.27300
X0.80500 Y0.27300
X0.80500 Y0.27100
X0.80600 Y0.27100
X0.80600 Y0.26800
X0.80700 Y0.26800
X0.80700 Y0.25700
X0.80600 Y0.25700
X0.80600 Y0.25400
X0.80500 Y0.25400
X0.80500 Y0.25200
X0.80400 Y0.25200
X0.80400 Y0.25100
X0.80300 Y0.25100
X0.80300 Y0.24900
X0.80200 Y0.24900
X0.80200 Y0.24800
X0.80000 Y0.24800
X0.80000 Y0.24700
X0.79800 Y0.24700
X0.79800 Y0.24500
X0.79700 Y0.24500
X0.79700 Y0.19300
X0.79800 Y0.19300
X0.79800 Y0.19000
X0.79900 Y0.19000
X0.79900 Y0.18800
X0.80000 Y0.18800
X0.80000 Y0.18700
X0.80200 Y0.18700
X0.80200 Y0.18600
X0.80500 Y0.18600
X0.80500 Y0.18500
X1.38700 Y0.18500
X1.38700 Y0.18400
X1.38900 Y0.18400
X1.38900 Y0.18300
X1.39100 Y0.18300
X1.39100 Y0.18200
X1.39200 Y0.18200
X1.39200 Y0.18100
X1.39300 Y0.18100
X1.39300 Y0.18000
X1.39400 Y0.18000
X1.39400 Y0.17900
X1.39500 Y0.17900
X1.39500 Y0.17800
X1.39600 Y0.17800
X1.39600 Y0.17700
X1.39700 Y0.17700
X1.39700 Y0.17600
X1.39800 Y0.17600
X1.39800 Y0.17500
X1.39900 Y0.17500
X1.39900 Y0.17400
X1.40000 Y0.17400
X1.40000 Y0.17300
X1.40100 Y0.17300
X1.40100 Y0.17200
X1.40200 Y0.17200
X1.40200 Y0.17100
X1.40300 Y0.17100
X1.40300 Y0.17000
X1.40400 Y0.17000
X1.40400 Y0.16900
X1.40500 Y0.16900
X1.40500 Y0.16800
X1.40600 Y0.16800
X1.40600 Y0.16700
X1.40700 Y0.16700
X1.40700 Y0.16600
X1.40800 Y0.16600
X1.40800 Y0.16500
X1.40900 Y0.16500
X1.40900 Y0.16400
X1.41000 Y0.16400
X1.41000 Y0.16300
X1.41100 Y0.16300
X1.41100 Y0.16200
X1.41200 Y0.16200
X1.41200 Y0.16100
X1.41300 Y0.16100
X1.41300 Y0.16000
X1.41400 Y0.16000
X1.41400 Y0.15900
X1.41500 Y0.15900
X1.41500 Y0.15800
X1.41600 Y0.15800
X1.41600 Y0.15700
X1.41700 Y0.15700
X1.41700 Y0.15600
X1.41800 Y0.15600
X1.41800 Y0.15500
X1.41900 Y0.15500
X1.41900 Y0.15400
X1.42000 Y0.15400
X1.42000 Y0.15300
X1.42100 Y0.15300
X1.42100 Y0.15200
X1.42200 Y0.15200
X1.42200 Y0.15100
X1.42300 Y0.15100
X1.42300 Y0.15000
X1.42400 Y0.15000
X1.42400 Y0.14900
X1.42500 Y0.14900
X1.42500 Y0.14800
X1.42600 Y0.14800
X1.42600 Y0.14700
X1.42700 Y0.14700
X1.42700 Y0.14600
X1.42800 Y0.14600
X1.42800 Y0.14500
X1.42900 Y0.14500
X1.42900 Y0.14400
X1.43000 Y0.14400
X1.43000 Y0.14300
X1.43100 Y0.14300
X1.43100 Y0.14200
X1.43200 Y0.14200
X1.43200 Y0.14100
X1.43300 Y0.14100
X1.43300 Y0.14000
X1.43400 Y0.14000
X1.43400 Y0.13900
X1.43500 Y0.13900
X1.43500 Y0.13800
X1.43600 Y0.13800
X1.43600 Y0.13700
X1.43700 Y0.13700
X1.43700 Y0.13600
X1.44000 Y0.13600
X1.44000 Y0.13500
X1.52700 Y0.13500
X1.52700 Y0.13600
X1.52900 Y0.13600
X1.52900 Y0.13800
X1.53000 Y0.13800
X1.53000 Y0.13900
X1.53100 Y0.13900
X1.53100 Y0.14100
X1.53200 Y0.14100
X1.53200 Y0.14200
X1.53400 Y0.14200
X1.53400 Y0.14300
X1.53600 Y0.14300
X1.53600 Y0.14400
X1.54100 Y0.14400
X1.54100 Y0.14500
X1.54900 Y0.14500
X1.54900 Y0.14400
X1.55300 Y0.14400
X1.55300 Y0.14300
X1.55500 Y0.14300
X1.55500 Y0.14200
X1.55700 Y0.14200
X1.55700 Y0.14100
X1.55800 Y0.14100
X1.55800 Y0.13900
X1.55900 Y0.13900
X1.55900 Y0.13800
X1.56000 Y0.13800
X1.56000 Y0.13600
X1.56200 Y0.13600
X1.56200 Y0.13500
X1.56500 Y0.13500
X1.56500 Y0.13600
X1.56700 Y0.13600
X1.56700 Y0.13700
X1.56900 Y0.13700
X1.56900 Y0.13800
X1.57100 Y0.13800
X1.57100 Y0.13900
X1.57500 Y0.13900
X1.57500 Y0.14000
X1.58400 Y0.14000
X1.58400 Y0.13900
X1.58800 Y0.13900
X1.58800 Y0.13800
X1.59000 Y0.13800
X1.59000 Y0.13700
X1.59200 Y0.13700
X1.59200 Y0.13600
X1.59300 Y0.13600
X1.59300 Y0.13400
X1.59400 Y0.13400
X1.59400 Y0.13300
X1.59500 Y0.13300
X1.59500 Y0.13100
X1.59600 Y0.13100
X1.59600 Y0.12800
X1.59700 Y0.12800
X1.59700 Y0.11700
X1.59600 Y0.11700
X1.59600 Y0.11400
X1.59500 Y0.11400
X1.59500 Y0.11200
X1.59400 Y0.11200
X1.59400 Y0.11100
X1.59300 Y0.11100
X1.59300 Y0.10900
X1.59200 Y0.10900
X1.59200 Y0.10800
X1.59000 Y0.10800
X1.59000 Y0.10700
X1.58800 Y0.10700
X1.58800 Y0.10600
X1.58400 Y0.10600
X1.58400 Y0.10500
X1.57500 Y0.10500
X1.57500 Y0.10400
X1.57200 Y0.10400
X1.57200 Y0.10300
X1.57100 Y0.10300
X1.57100 Y0.10200
X1.57000 Y0.10200
X1.57000 Y0.10100
X1.56900 Y0.10100
X1.56900 Y0.10000
X1.56800 Y0.10000
X1.56800 Y0.09900
X1.56700 Y0.09900
X1.56700 Y0.09800
X1.56600 Y0.09800
X1.56600 Y0.09700
X1.56400 Y0.09700
X1.56400 Y0.09500
X1.56300 Y0.09500
X1.56300 Y0.09400
X1.56200 Y0.09400
X1.56200 Y0.09300
X1.56100 Y0.09300
X1.56100 Y0.09200
X1.56000 Y0.09200
X1.56000 Y0.09100
X1.55900 Y0.09100
X1.55900 Y0.09000
X1.55800 Y0.09000
X1.55800 Y0.08500
X2.22000 Y0.08500
X2.22000 Y0.49200
X2.21700 Y0.49200
X2.21700 Y0.49100
X2.21600 Y0.49100
X2.21600 Y0.49000
X2.21500 Y0.49000
X2.21500 Y0.48900
X2.21300 Y0.48900
X2.21300 Y0.48800
X2.21100 Y0.48800
X2.21100 Y0.48700
X2.20800 Y0.48700
X2.20800 Y0.48600
X2.20500 Y0.48600
X2.20500 Y0.48500
X2.20400 Y0.48500
X2.20400 Y0.48400
X2.20300 Y0.48400
X2.20300 Y0.48300
X2.20200 Y0.48300
X2.20200 Y0.48200
X2.20100 Y0.48200
X2.20100 Y0.48100
X2.20000 Y0.48100
X2.20000 Y0.48000
X2.19900 Y0.48000
X2.19900 Y0.47900
X2.19800 Y0.47900
X2.19800 Y0.47800
X2.19700 Y0.47800
X2.19700 Y0.47700
X2.19600 Y0.47700
X2.19600 Y0.47600
X2.19500 Y0.47600
X2.19500 Y0.47500
X2.19400 Y0.47500
X2.19400 Y0.47400
X2.19300 Y0.47400
X2.19300 Y0.47300
X2.19200 Y0.47300
X2.19200 Y0.47200
X2.19100 Y0.47200
X2.19100 Y0.47100
X2.19000 Y0.47100
X2.19000 Y0.46800
X2.18900 Y0.46800
X2.18900 Y0.46500
X2.18800 Y0.46500
X2.18800 Y0.46100
X2.18900 Y0.46100
X2.18900 Y0.45800
X2.19000 Y0.45800
X2.19000 Y0.45600
X2.19100 Y0.45600
X2.19100 Y0.44900
X2.19200 Y0.44900
X2.19200 Y0.44600
X2.19100 Y0.44600
X2.19100 Y0.43900
X2.19000 Y0.43900
X2.19000 Y0.43600
X2.18900 Y0.43600
X2.18900 Y0.43400
X2.18800 Y0.43400
X2.18800 Y0.42900
X2.18700 Y0.42900
X2.18700 Y0.42800
X2.18600 Y0.42800
X2.18600 Y0.42600
X2.18500 Y0.42600
X2.18500 Y0.42500
X2.18400 Y0.42500
X2.18400 Y0.42300
X2.18300 Y0.42300
X2.18300 Y0.42200
X2.18200 Y0.42200
X2.18200 Y0.42100
X2.18100 Y0.42100
X2.18100 Y0.42000
X2.18000 Y0.42000
X2.18000 Y0.41900
X2.17900 Y0.41900
X2.17900 Y0.41800
X2.17700 Y0.41800
X2.17700 Y0.41700
X2.17600 Y0.41700
X2.17600 Y0.41600
X2.17400 Y0.41600
X2.17400 Y0.41500
X2.17200 Y0.41500
X2.17200 Y0.41400
X2.16900 Y0.41400
X2.16900 Y0.41300
X2.16600 Y0.41300
X2.16600 Y0.41200
X2.16300 Y0.41200
X2.16300 Y0.41100
X2.15600 Y0.41100
X2.15600 Y0.41000
X2.15300 Y0.41000
X2.15300 Y0.41100
X2.14600 Y0.41100
X2.14600 Y0.41200
X2.14400 Y0.41200
X2.14400 Y0.41300
X2.14000 Y0.41300
X2.14000 Y0.41400
X2.13600 Y0.41400
X2.13600 Y0.41300
X2.13300 Y0.41300
X2.13300 Y0.41200
X2.13000 Y0.41200
X2.13000 Y0.41100
X2.12900 Y0.41100
X2.12900 Y0.41000
X2.12800 Y0.41000
X2.12800 Y0.40900
X2.12700 Y0.40900
X2.12700 Y0.40800
X2.12600 Y0.40800
X2.12600 Y0.40700
X2.12500 Y0.40700
X2.12500 Y0.40600
X2.12400 Y0.40600
X2.12400 Y0.40500
X2.12300 Y0.40500
X2.12300 Y0.40400
X2.12200 Y0.40400
X2.12200 Y0.40300
X2.12100 Y0.40300
X2.12100 Y0.40200
X2.12000 Y0.40200
X2.12000 Y0.40100
X2.11900 Y0.40100
X2.11900 Y0.40000
X2.11800 Y0.40000
X2.11800 Y0.39700
X2.11700 Y0.39700
X2.11700 Y0.39500
X2.11800 Y0.39500
X2.11800 Y0.39400
X2.11900 Y0.39400
X2.11900 Y0.39300
X2.12100 Y0.39300
X2.12100 Y0.39200
X2.12200 Y0.39200
X2.12200 Y0.39100
X2.12300 Y0.39100
X2.12300 Y0.39000
X2.12400 Y0.39000
X2.12400 Y0.38900
X2.12500 Y0.38900
X2.12500 Y0.38800
X2.12600 Y0.38800
X2.12600 Y0.38700
X2.12700 Y0.38700
X2.12700 Y0.38600
X2.12800 Y0.38600
X2.12800 Y0.38500
X2.12900 Y0.38500
X2.12900 Y0.38400
X2.13000 Y0.38400
X2.13000 Y0.38300
X2.13300 Y0.38300
X2.13300 Y0.38200
X2.13600 Y0.38200
X2.13600 Y0.38100
X2.14000 Y0.38100
X2.14000 Y0.38200
X2.14400 Y0.38200
X2.14400 Y0.38300
X2.14600 Y0.38300
X2.14600 Y0.38400
X2.15300 Y0.38400
X2.15300 Y0.38500
X2.15600 Y0.38500
X2.15600 Y0.38400
X2.16300 Y0.38400
X2.16300 Y0.38300
X2.16500 Y0.38300
X2.16500 Y0.38200
X2.16900 Y0.38200
X2.16900 Y0.38100
X2.17200 Y0.38100
X2.17200 Y0.38000
X2.17400 Y0.38000
X2.17400 Y0.37900
X2.17500 Y0.37900
X2.17500 Y0.37800
X2.17700 Y0.37800
X2.17700 Y0.37700
X2.17800 Y0.37700
X2.17800 Y0.37600
X2.17900 Y0.37600
X2.17900 Y0.37500
X2.18000 Y0.37500
X2.18000 Y0.37400
X2.18100 Y0.37400
X2.18100 Y0.37300
X2.18200 Y0.37300
X2.18200 Y0.37200
X2.18300 Y0.37200
X2.18300 Y0.37100
X2.18400 Y0.37100
X2.18400 Y0.37000
X2.18500 Y0.37000
X2.18500 Y0.36900
X2.18600 Y0.36900
X2.18600 Y0.36700
X2.18700 Y0.36700
X2.18700 Y0.36500
X2.18800 Y0.36500
X2.18800 Y0.36100
X2.18900 Y0.36100
X2.18900 Y0.35800
X2.19000 Y0.35800
X2.19000 Y0.35600
X2.19100 Y0.35600
X2.19100 Y0.34900
X2.19200 Y0.34900
X2.19200 Y0.34600
X2.19100 Y0.34600
X2.19100 Y0.33900
X2.19000 Y0.33900
X2.19000 Y0.33600
X2.18900 Y0.33600
X2.18900 Y0.33400
X2.18800 Y0.33400
X2.18800 Y0.32900
X2.18700 Y0.32900
X2.18700 Y0.32800
X2.18600 Y0.32800
X2.18600 Y0.32600
X2.18500 Y0.32600
X2.18500 Y0.32500
X2.18400 Y0.32500
X2.18400 Y0.32300
X2.18300 Y0.32300
X2.18300 Y0.32200
X2.18200 Y0.32200
X2.18200 Y0.32100
X2.18100 Y0.32100
X2.18100 Y0.32000
X2.18000 Y0.32000
X2.18000 Y0.31900
X2.17900 Y0.31900
X2.17900 Y0.31800
X2.17700 Y0.31800
X2.17700 Y0.31700
X2.17600 Y0.31700
X2.17600 Y0.31600
X2.17400 Y0.31600
X2.17400 Y0.31500
X2.17200 Y0.31500
X2.17200 Y0.31400
X2.16900 Y0.31400
X2.16900 Y0.31300
X2.16600 Y0.31300
X2.16600 Y0.31200
X2.16300 Y0.31200
X2.16300 Y0.31100
X2.15600 Y0.31100
X2.15600 Y0.31000
X2.15300 Y0.31000
X2.15300 Y0.31100
X2.14600 Y0.31100
X2.14600 Y0.31200
X2.14400 Y0.31200
X2.14400 Y0.31300
X2.14000 Y0.31300
X2.14000 Y0.31400
X2.13700 Y0.31400
X2.13700 Y0.31500
X2.13500 Y0.31500
X2.13500 Y0.31600
X2.13300 Y0.31600
X2.13300 Y0.31700
X2.13200 Y0.31700
X2.13200 Y0.31800
X2.13100 Y0.31800
X2.13100 Y0.31900
X2.13000 Y0.31900
X2.13000 Y0.32000
X2.12900 Y0.32000
X2.12900 Y0.32100
X2.12800 Y0.32100
X2.12800 Y0.32200
X2.12700 Y0.32200
X2.12700 Y0.32300
X2.12600 Y0.32300
X2.12600 Y0.32400
X2.12500 Y0.32400
X2.12500 Y0.32500
X2.12400 Y0.32500
X2.12400 Y0.32700
X2.12300 Y0.32700
X2.12300 Y0.32800
X2.12200 Y0.32800
X2.12200 Y0.33000
X2.12100 Y0.33000
X2.12100 Y0.33400
X2.12000 Y0.33400
X2.12000 Y0.33700
X2.11900 Y0.33700
X2.11900 Y0.33900
X2.11800 Y0.33900
X2.11800 Y0.35600
X2.11900 Y0.35600
X2.11900 Y0.35800
X2.12000 Y0.35800
X2.12000 Y0.36100
X2.12100 Y0.36100
X2.12100 Y0.36600
X2.12000 Y0.36600
X2.12000 Y0.36900
X2.11900 Y0.36900
X2.11900 Y0.37200
X2.11800 Y0.37200
X2.11800 Y0.37300
X2.11700 Y0.37300
X2.11700 Y0.37400
X2.11600 Y0.37400
X2.11600 Y0.37500
X2.11500 Y0.37500
X2.11500 Y0.37600
X2.11400 Y0.37600
X2.11400 Y0.37700
X2.11300 Y0.37700
X2.11300 Y0.37800
X2.11200 Y0.37800
X2.11200 Y0.37900
X2.10900 Y0.37900
X2.10900 Y0.38000
X2.06800 Y0.38000
X2.06800 Y0.38100
X2.04100 Y0.38100
X2.04100 Y0.38000
X1.85700 Y0.38000
X1.85700 Y0.38100
X1.85500 Y0.38100
X1.85500 Y0.38200
X1.85300 Y0.38200
X1.85300 Y0.38300
X1.85200 Y0.38300
X1.85200 Y0.38400
X1.85100 Y0.38400
X1.85100 Y0.38500
X1.85000 Y0.38500
X1.85000 Y0.38600
X1.84900 Y0.38600
X1.84900 Y0.38700
X1.84800 Y0.38700
X1.84800 Y0.38800
X1.84700 Y0.38800
X1.84700 Y0.38900
X1.84600 Y0.38900
X1.84600 Y0.39000
X1.84500 Y0.39000
X1.84500 Y0.39100
X1.84400 Y0.39100
X1.84400 Y0.39200
X1.84300 Y0.39200
X1.84300 Y0.39300
X1.84200 Y0.39300
X1.84200 Y0.39400
X1.84100 Y0.39400
X1.84100 Y0.39500
X1.84000 Y0.39500
X1.84000 Y0.39600
X1.83900 Y0.39600
X1.83900 Y0.39700
X1.83800 Y0.39700
X1.83800 Y0.39800
X1.83700 Y0.39800
X1.83700 Y0.39900
X1.83600 Y0.39900
X1.83600 Y0.40000
X1.83500 Y0.40000
X1.83500 Y0.40100
X1.83400 Y0.40100
X1.83400 Y0.40200
X1.83300 Y0.40200
X1.83300 Y0.40300
X1.83200 Y0.40300
X1.83200 Y0.40400
X1.83100 Y0.40400
X1.83100 Y0.40500
X1.83000 Y0.40500
X1.83000 Y0.40600
X1.82900 Y0.40600
X1.82900 Y0.40700
X1.82800 Y0.40700
X1.82800 Y0.40800
X1.82700 Y0.40800
X1.82700 Y0.40900
X1.82600 Y0.40900
X1.82600 Y0.41000
X1.82500 Y0.41000
X1.82500 Y0.41100
X1.82400 Y0.41100
X1.82400 Y0.41200
X1.82300 Y0.41200
X1.82300 Y0.41300
X1.82200 Y0.41300
X1.82200 Y0.41400
X1.82100 Y0.41400
X1.82100 Y0.41500
X1.82000 Y0.41500
X1.82000 Y0.41600
X1.81900 Y0.41600
X1.81900 Y0.41700
X1.81800 Y0.41700
X1.81800 Y0.41800
X1.81700 Y0.41800
X1.81700 Y0.41900
X1.81600 Y0.41900
X1.81600 Y0.42000
X1.81500 Y0.42000
X1.81500 Y0.42100
X1.81400 Y0.42100
X1.81400 Y0.42200
X1.81300 Y0.42200
X1.81300 Y0.42300
X1.81200 Y0.42300
X1.81200 Y0.42400
X1.81100 Y0.42400
X1.81100 Y0.42500
X1.81000 Y0.42500
X1.81000 Y0.42600
X1.80900 Y0.42600
X1.80900 Y0.42700
X1.80800 Y0.42700
X1.80800 Y0.42800
X1.80700 Y0.42800
X1.80700 Y0.42900
X1.80600 Y0.42900
X1.80600 Y0.43000
X1.80500 Y0.43000
X1.80500 Y0.43100
X1.80400 Y0.43100
X1.80400 Y0.43200
X1.80300 Y0.43200
X1.80300 Y0.43300
X1.80200 Y0.43300
X1.80200 Y0.43400
X1.80100 Y0.43400
X1.80100 Y0.43500
X1.80000 Y0.43500
X1.80000 Y0.43600
X1.79900 Y0.43600
X1.79900 Y0.43700
X1.79800 Y0.43700
X1.79800 Y0.43800
X1.79700 Y0.43800
X1.79700 Y0.43900
X1.79600 Y0.43900
X1.79600 Y0.44000
X1.79500 Y0.44000
X1.79500 Y0.44100
X1.79400 Y0.44100
X1.79400 Y0.44200
X1.79300 Y0.44200
X1.79300 Y0.44300
X1.79200 Y0.44300
X1.79200 Y0.44400
X1.79100 Y0.44400
X1.79100 Y0.44500
X1.79000 Y0.44500
X1.79000 Y0.44600
X1.78900 Y0.44600
X1.78900 Y0.44700
X1.78800 Y0.44700
X1.78800 Y0.44800
X1.78700 Y0.44800
X1.78700 Y0.44900
X1.78600 Y0.44900
X1.78600 Y0.45000
X1.78500 Y0.45000
X1.78500 Y0.45100
X1.78400 Y0.45100
X1.78400 Y0.45200
X1.78300 Y0.45200
X1.78300 Y0.45300
X1.78200 Y0.45300
X1.78200 Y0.45400
X1.78100 Y0.45400
X1.78100 Y0.45500
X1.78000 Y0.45500
X1.78000 Y0.45600
X1.77900 Y0.45600
X1.77900 Y0.45700
X1.77800 Y0.45700
X1.77800 Y0.45800
X1.77700 Y0.45800
X1.77700 Y0.45900
X1.77600 Y0.45900
X1.77600 Y0.46000
X1.77500 Y0.46000
X1.77500 Y0.46100
X1.77400 Y0.46100
X1.77400 Y0.46200
X1.77300 Y0.46200
X1.77300 Y0.46300
X1.77200 Y0.46300
X1.77200 Y0.46400
X1.77100 Y0.46400
X1.77100 Y0.46500
X1.77000 Y0.46500
X1.77000 Y0.46600
X1.76900 Y0.46600
X1.76900 Y0.46700
X1.76800 Y0.46700
X1.76800 Y0.46800
X1.76700 Y0.46800
X1.76700 Y0.46900
X1.76600 Y0.46900
X1.76600 Y0.47000
X1.76500 Y0.47000
X1.76500 Y0.47100
X1.76400 Y0.47100
X1.76400 Y0.47200
X1.76300 Y0.47200
X1.76300 Y0.47300
X1.76200 Y0.47300
X1.76200 Y0.47400
X1.76100 Y0.47400
X1.76100 Y0.47500
X1.76000 Y0.47500
X1.76000 Y0.47600
X1.75900 Y0.47600
X1.75900 Y0.47700
X1.75800 Y0.47700
X1.75800 Y0.47800
X1.75700 Y0.47800
X1.75700 Y0.47900
X1.75600 Y0.47900
X1.75600 Y0.48000
X1.75500 Y0.48000
X1.75500 Y0.48100
X1.75400 Y0.48100
X1.75400 Y0.48200
X1.75300 Y0.48200
X1.75300 Y0.48300
X1.75200 Y0.48300
X1.75200 Y0.48400
X1.75100 Y0.48400
X1.75100 Y0.48500
X1.75000 Y0.48500
X1.75000 Y0.48600
X1.74900 Y0.48600
X1.74900 Y0.48700
X1.74800 Y0.48700
X1.74800 Y0.48800
X1.74700 Y0.48800
X1.74700 Y0.48900
X1.74600 Y0.48900
X1.74600 Y0.49000
X1.74500 Y0.49000
X1.74500 Y0.49100
X1.74400 Y0.49100
X1.74400 Y0.49200
X1.74300 Y0.49200
X1.74300 Y0.49300
X1.74200 Y0.49300
X1.74200 Y0.49400
X1.74100 Y0.49400
X1.74100 Y0.49500
X1.74000 Y0.49500
X1.74000 Y0.49600
X1.73900 Y0.49600
X1.73900 Y0.49700
X1.73800 Y0.49700
X1.73800 Y0.49800
X1.73700 Y0.49800
X1.73700 Y0.49900
X1.73600 Y0.49900
X1.73600 Y0.50000
X1.73500 Y0.50000
X1.73500 Y0.50100
X1.73400 Y0.50100
X1.73400 Y0.50200
X1.73300 Y0.50200
X1.73300 Y0.50300
X1.73200 Y0.50300
X1.73200 Y0.50400
X1.73100 Y0.50400
X1.73100 Y0.50500
X1.73000 Y0.50500
X1.73000 Y0.50600
X1.72900 Y0.50600
X1.72900 Y0.50700
X1.72800 Y0.50700
X1.72800 Y0.50800
X1.72700 Y0.50800
X1.72700 Y0.50900
X1.72600 Y0.50900
X1.72600 Y0.51000
X1.72500 Y0.51000
X1.72500 Y0.51100
X1.72400 Y0.51100
X1.72400 Y0.51200
X1.72300 Y0.51200
X1.72300 Y0.51300
X1.72200 Y0.51300
X1.72200 Y0.51400
X1.72100 Y0.51400
X1.72100 Y0.51500
X1.72000 Y0.51500
X1.72000 Y0.51600
X1.71900 Y0.51600
X1.71900 Y0.51700
X1.71800 Y0.51700
X1.71800 Y0.51800
X1.71700 Y0.51800
X1.71700 Y0.51900
X1.71600 Y0.51900
X1.71600 Y0.52000
X1.71500 Y0.52000
X1.71500 Y0.52100
X1.71400 Y0.52100
X1.71400 Y0.52200
X1.71300 Y0.52200
X1.71300 Y0.52300
X1.71200 Y0.52300
X1.71200 Y0.52400
X1.71100 Y0.52400
X1.71100 Y0.52500
X1.71000 Y0.52500
X1.71000 Y0.52600
X1.70900 Y0.52600
X1.70900 Y0.52700
X1.70800 Y0.52700
X1.70800 Y0.52800
X1.70700 Y0.52800
X1.70700 Y0.52900
X1.70600 Y0.52900
X1.70600 Y0.53000
X1.70500 Y0.53000
X1.70500 Y0.53100
X1.70400 Y0.53100
X1.70400 Y0.53200
X1.70300 Y0.53200
X1.70300 Y0.53300
X1.70200 Y0.53300
X1.70200 Y0.53400
X1.70100 Y0.53400
X1.70100 Y0.53500
X1.70000 Y0.53500
X1.70000 Y0.53600
X1.69900 Y0.53600
X1.69900 Y0.53700
X1.69800 Y0.53700
X1.69800 Y0.53800
X1.69700 Y0.53800
X1.69700 Y0.53900
X1.69600 Y0.53900
X1.69600 Y0.54000
X1.69500 Y0.54000
X1.69500 Y0.54100
X1.69400 Y0.54100
X1.69400 Y0.54200
X1.69300 Y0.54200
X1.69300 Y0.54300
X1.69200 Y0.54300
X1.69200 Y0.54400
X1.69100 Y0.54400
X1.69100 Y0.54500
X1.69000 Y0.54500
X1.69000 Y0.54600
X1.68900 Y0.54600
X1.68900 Y0.54700
X1.68800 Y0.54700
X1.68800 Y0.54800
X1.68700 Y0.54800
X1.68700 Y0.54900
X1.68600 Y0.54900
X1.68600 Y0.55000
X1.68500 Y0.55000
X1.68500 Y0.55100
X1.68400 Y0.55100
X1.68400 Y0.55200
X1.68300 Y0.55200
X1.68300 Y0.55300
X1.68200 Y0.55300
X1.68200 Y0.55400
X1.68100 Y0.55400
X1.68100 Y0.55500
X1.68000 Y0.55500
X1.68000 Y0.55600
X1.67900 Y0.55600
X1.67900 Y0.55700
X1.67800 Y0.55700
X1.67800 Y0.55800
X1.67700 Y0.55800
X1.67700 Y0.55900
X1.67600 Y0.55900
X1.67600 Y0.56000
X1.67500 Y0.56000
X1.67500 Y0.56100
X1.67400 Y0.56100
X1.67400 Y0.56200
X1.67300 Y0.56200
X1.67300 Y0.56300
X1.67200 Y0.56300
X1.67200 Y0.56400
X1.67100 Y0.56400
X1.67100 Y0.56500
X1.67000 Y0.56500
X1.67000 Y0.56600
X1.66900 Y0.56600
X1.66900 Y0.56700
X1.66800 Y0.56700
X1.66800 Y0.56800
X1.66700 Y0.56800
X1.66700 Y0.56900
X1.66600 Y0.56900
X1.66600 Y0.57000
X1.66500 Y0.57000
X1.66500 Y0.57100
X1.66400 Y0.57100
X1.66400 Y0.57200
X1.66300 Y0.57200
X1.66300 Y0.57300
X1.66200 Y0.57300
X1.66200 Y0.57400
X1.66100 Y0.57400
X1.66100 Y0.57500
X1.66000 Y0.57500
X1.66000 Y0.57600
X1.65900 Y0.57600
X1.65900 Y0.57700
X1.65800 Y0.57700
X1.65800 Y0.57800
X1.65700 Y0.57800
X1.65700 Y0.57900
X1.65600 Y0.57900
X1.65600 Y0.58000
X1.65500 Y0.58000
X1.65500 Y0.58100
X1.65400 Y0.58100
X1.65400 Y0.58200
X1.65300 Y0.58200
X1.65300 Y0.58300
X1.65200 Y0.58300
X1.65200 Y0.58400
X1.65100 Y0.58400
X1.65100 Y0.58500
X1.65000 Y0.58500
X1.65000 Y0.58600
X1.64900 Y0.58600
X1.64900 Y0.58700
X1.64800 Y0.58700
X1.64800 Y0.58800
X1.64700 Y0.58800
X1.64700 Y0.58900
X1.64600 Y0.58900
X1.64600 Y0.59000
X1.64500 Y0.59000
X1.64500 Y0.59100
X1.64400 Y0.59100
X1.64400 Y0.59200
X1.64300 Y0.59200
X1.64300 Y0.59300
X1.64200 Y0.59300
X1.64200 Y0.59400
X1.64100 Y0.59400
X1.64100 Y0.59500
X1.64000 Y0.59500
X1.64000 Y0.59600
X1.63900 Y0.59600
X1.63900 Y0.59700
X1.63800 Y0.59700
X1.63800 Y0.59800
X1.63700 Y0.59800
X1.63700 Y0.59900
X1.63600 Y0.59900
X1.63600 Y0.60000
X1.63500 Y0.60000
X1.63500 Y0.60100
X1.63400 Y0.60100
X1.63400 Y0.60200
X1.63300 Y0.60200
X1.63300 Y0.60300
X1.63200 Y0.60300
X1.63200 Y0.60400
X1.63100 Y0.60400
X1.63100 Y0.60500
X1.63000 Y0.60500
X1.63000 Y0.60600
X1.62900 Y0.60600
X1.62900 Y0.60700
X1.62800 Y0.60700
X1.62800 Y0.60800
X1.62700 Y0.60800
X1.62700 Y0.60900
X1.62600 Y0.60900
X1.62600 Y0.61000
X1.62500 Y0.61000
X1.62500 Y0.61100
X1.62400 Y0.61100
X1.62400 Y0.61200
X1.62300 Y0.61200
X1.62300 Y0.61300
X1.62200 Y0.61300
X1.62200 Y0.61400
X1.62100 Y0.61400
X1.62100 Y0.61500
X1.62000 Y0.61500
X1.62000 Y0.61600
X1.61900 Y0.61600
X1.61900 Y0.61700
X1.61800 Y0.61700
X1.61800 Y0.61800
X1.61700 Y0.61800
X1.61700 Y0.61900
X1.61600 Y0.61900
X1.61600 Y0.62000
X1.61500 Y0.62000
X1.61500 Y0.62100
X1.61400 Y0.62100
X1.61400 Y0.62200
X1.61300 Y0.62200
X1.61300 Y0.62300
X1.61200 Y0.62300
X1.61200 Y0.62400
X1.61100 Y0.62400
X1.61100 Y0.62500
X1.61000 Y0.62500
X1.61000 Y0.62600
X1.60900 Y0.62600
X1.60900 Y0.62700
X1.60800 Y0.62700
X1.60800 Y0.62800
X1.60700 Y0.62800
X1.60700 Y0.62900
X1.60600 Y0.62900
X1.60600 Y0.63000
X1.60500 Y0.63000
X1.60500 Y0.63100
X1.60400 Y0.63100
X1.60400 Y0.63200
X1.60300 Y0.63200
X1.60300 Y0.63300
X1.60200 Y0.63300
X1.60200 Y0.63400
X1.60100 Y0.63400
X1.60100 Y0.63500
X1.60000 Y0.63500
X1.60000 Y0.63600
X1.59900 Y0.63600
X1.59900 Y0.63700
X1.59800 Y0.63700
X1.59800 Y0.63800
X1.59700 Y0.63800
X1.59700 Y0.63900
X1.59600 Y0.63900
X1.59600 Y0.64000
X1.59500 Y0.64000
X1.59500 Y0.64100
X1.59400 Y0.64100
X1.59400 Y0.64200
X1.59300 Y0.64200
X1.59300 Y0.64300
X1.59200 Y0.64300
X1.59200 Y0.64400
X1.59100 Y0.64400
X1.59100 Y0.64500
X1.59000 Y0.64500
X1.59000 Y0.64600
X1.58900 Y0.64600
X1.58900 Y0.64700
X1.58800 Y0.64700
X1.58800 Y0.64800
X1.58700 Y0.64800
X1.58700 Y0.64900
X1.58600 Y0.64900
X1.58600 Y0.65000
X1.58500 Y0.65000
X1.58500 Y0.65100
X1.58400 Y0.65100
X1.58400 Y0.65200
X1.58300 Y0.65200
X1.58300 Y0.65300
X1.58200 Y0.65300
X1.58200 Y0.65400
X1.57900 Y0.65400
X1.57900 Y0.65500
X1.57000 Y0.65500
X1.57000 Y0.65600
X1.56600 Y0.65600
X1.56600 Y0.65700
X1.56400 Y0.65700
X1.56400 Y0.65800
X1.56200 Y0.65800
X1.56200 Y0.65900
X1.56100 Y0.65900
X1.56100 Y0.66100
X1.56000 Y0.66100
X1.56000 Y0.66200
X1.55900 Y0.66200
X1.55900 Y0.66400
X1.55800 Y0.66400
X1.55800 Y0.66800
X1.55700 Y0.66800
X1.55700 Y0.67600
X1.55600 Y0.67600
X1.55600 Y0.67700
X1.55500 Y0.67700
X1.55500 Y0.67800
X1.55100 Y0.67800
X1.55100 Y0.67700
X1.55000 Y0.67700
X1.55000 Y0.67600
X1.54900 Y0.67600
X1.54900 Y0.67500
X1.54500 Y0.67500
X1.54500 Y0.67400
X1.54200 Y0.67400
X1.54200 Y0.65300
X1.54300 Y0.65300
X1.54300 Y0.65200
X1.54400 Y0.65200
X1.54400 Y0.65100
X1.54900 Y0.65100
X1.54900 Y0.65000
X1.55000 Y0.65000
X1.55000 Y0.64900
X1.55200 Y0.64900
X1.55200 Y0.64800
X1.55400 Y0.64800
X1.55400 Y0.64700
X1.55500 Y0.64700
X1.55500 Y0.64600
X1.55600 Y0.64600
X1.55600 Y0.64500
X1.55700 Y0.64500
X1.55700 Y0.64400
X1.55800 Y0.64400
X1.55800 Y0.64300
X1.55900 Y0.64300
X1.55900 Y0.64200
X1.56000 Y0.64200
X1.56000 Y0.64100
X1.56100 Y0.64100
X1.56100 Y0.63900
X1.56200 Y0.63900
X1.56200 Y0.63800
X1.56300 Y0.63800
X1.56300 Y0.63500
X1.56400 Y0.63500
X1.56400 Y0.63300
X1.56500 Y0.63300
X1.56500 Y0.63000
X1.56600 Y0.63000
X1.56600 Y0.61300
X1.56500 Y0.61300
X1.56500 Y0.61000
X1.56400 Y0.61000
X1.56400 Y0.60800
X1.56300 Y0.60800
X1.56300 Y0.60500
X1.56200 Y0.60500
X1.56200 Y0.60400
X1.56100 Y0.60400
X1.56100 Y0.60200
X1.56000 Y0.60200
X1.56000 Y0.60100
X1.55900 Y0.60100
X1.55900 Y0.59900
X1.55800 Y0.59900
X1.55800 Y0.59800
X1.55700 Y0.59800
X1.55700 Y0.59700
X1.55600 Y0.59700
X1.55600 Y0.59600
X1.55400 Y0.59600
X1.55400 Y0.59500
X1.55200 Y0.59500
X1.55200 Y0.59400
X1.55000 Y0.59400
X1.55000 Y0.59300
X1.54900 Y0.59300
X1.54900 Y0.59200
X1.54600 Y0.59200
X1.54600 Y0.59100
X1.54300 Y0.59100
X1.54300 Y0.59000
X1.52600 Y0.59000
X1.52600 Y0.59100
X1.52300 Y0.59100
X1.52300 Y0.59200
X1.52000 Y0.59200
X1.52000 Y0.59300
X1.51900 Y0.59300
X1.51900 Y0.59400
X1.51700 Y0.59400
X1.51700 Y0.59500
X1.51500 Y0.59500
X1.51500 Y0.59600
X1.51300 Y0.59600
X1.51300 Y0.59700
X1.51200 Y0.59700
X1.51200 Y0.59800
X1.51100 Y0.59800
X1.51100 Y0.59900
X1.50900 Y0.59900
X1.50900 Y0.60000
X1.50600 Y0.60000
X1.50600 Y0.60100
X1.50300 Y0.60100
X1.50300 Y0.60000
X1.50200 Y0.60000
X1.50200 Y0.56700
X1.50300 Y0.56700
X1.50300 Y0.56400
X1.50400 Y0.56400
X1.50400 Y0.56300
X1.50500 Y0.56300
X1.50500 Y0.56200
X1.50600 Y0.56200
X1.50600 Y0.56100
X1.50700 Y0.56100
X1.50700 Y0.56000
X1.50800 Y0.56000
X1.50800 Y0.55900
X1.50900 Y0.55900
X1.50900 Y0.55800
X1.51000 Y0.55800
X1.51000 Y0.55700
X1.51100 Y0.55700
X1.51100 Y0.55600
X1.51200 Y0.55600
X1.51200 Y0.55500
X1.51300 Y0.55500
X1.51300 Y0.55400
X1.51400 Y0.55400
X1.51400 Y0.55300
X1.51500 Y0.55300
X1.51500 Y0.55200
X1.51600 Y0.55200
X1.51600 Y0.55100
X1.52500 Y0.55100
X1.52500 Y0.55200
X1.52700 Y0.55200
X1.52700 Y0.55300
X1.54300 Y0.55300
X1.54300 Y0.55200
X1.54400 Y0.55200
X1.54400 Y0.55100
X1.54900 Y0.55100
X1.54900 Y0.55000
X1.55000 Y0.55000
X1.55000 Y0.54900
X1.55200 Y0.54900
X1.55200 Y0.54800
X1.55400 Y0.54800
X1.55400 Y0.54700
X1.55500 Y0.54700
X1.55500 Y0.54600
X1.55600 Y0.54600
X1.55600 Y0.54500
X1.55700 Y0.54500
X1.55700 Y0.54400
X1.55800 Y0.54400
X1.55800 Y0.54300
X1.55900 Y0.54300
X1.55900 Y0.54200
X1.56000 Y0.54200
X1.56000 Y0.54100
X1.56100 Y0.54100
X1.56100 Y0.53900
X1.56200 Y0.53900
X1.56200 Y0.53800
X1.56300 Y0.53800
X1.56300 Y0.53500
X1.56400 Y0.53500
X1.56400 Y0.53300
X1.56500 Y0.53300
X1.56500 Y0.53000
X1.56600 Y0.53000
X1.56600 Y0.51300
X1.56500 Y0.51300
X1.56500 Y0.51000
X1.56400 Y0.51000
X1.56400 Y0.50800
X1.56300 Y0.50800
X1.56300 Y0.50500
X1.56200 Y0.50500
X1.56200 Y0.50400
X1.56100 Y0.50400
X1.56100 Y0.50200
X1.56000 Y0.50200
X1.56000 Y0.50100
X1.55900 Y0.50100
X1.55900 Y0.49900
X1.55800 Y0.49900
X1.55800 Y0.49800
X1.55700 Y0.49800
X1.55700 Y0.49700
X1.55600 Y0.49700
X1.55600 Y0.49600
X1.55400 Y0.49600
X1.55400 Y0.49500
X1.55200 Y0.49500
X1.55200 Y0.49400
X1.55000 Y0.49400
X1.55000 Y0.49300
X1.54900 Y0.49300
X1.54900 Y0.49200
X1.54600 Y0.49200
X1.54600 Y0.49100
X1.54300 Y0.49100
X1.54300 Y0.49000
X1.52600 Y0.49000
X1.52600 Y0.49100
X1.52300 Y0.49100
X1.52300 Y0.49200
X1.52000 Y0.49200
X1.52000 Y0.49300
X1.51900 Y0.49300
X1.51900 Y0.49400
X1.51700 Y0.49400
X1.51700 Y0.49500
X1.51500 Y0.49500
X1.51500 Y0.49600
X1.51300 Y0.49600
X1.51300 Y0.49700
X1.51200 Y0.49700
X1.51200 Y0.49900
X1.51100 Y0.49900
X1.51100 Y0.50000
X1.51000 Y0.50000
X1.51000 Y0.50100
X1.50900 Y0.50100
X1.50900 Y0.50200
X1.50800 Y0.50200
X1.50800 Y0.50400
X1.50700 Y0.50400
X1.50700 Y0.50600
X1.50600 Y0.50600
X1.50600 Y0.50800
X1.50500 Y0.50800
X1.50500 Y0.51200
X1.50400 Y0.51200
X1.50400 Y0.51300
X1.50300 Y0.51300
X1.50300 Y0.52900
X1.50400 Y0.52900
X1.50400 Y0.53100
X1.50500 Y0.53100
X1.50500 Y0.54000
X1.50400 Y0.54000
X1.50400 Y0.54100
X1.50300 Y0.54100
X1.50300 Y0.54200
X1.50200 Y0.54200
X1.50200 Y0.54300
X1.50100 Y0.54300
X1.50100 Y0.54400
X1.50000 Y0.54400
X1.50000 Y0.54500
X1.49900 Y0.54500
X1.49900 Y0.54600
X1.49800 Y0.54600
X1.49800 Y0.54700
X1.49700 Y0.54700
X1.49700 Y0.54800
X1.49600 Y0.54800
X1.49600 Y0.54900
X1.49500 Y0.54900
X1.49500 Y0.55000
X1.49400 Y0.55000
X1.49400 Y0.55100
X1.49300 Y0.55100
X1.49300 Y0.55200
X1.49200 Y0.55200
X1.49200 Y0.55300
X1.49100 Y0.55300
X1.49100 Y0.55400
X1.49000 Y0.55400
X1.49000 Y0.55500
X1.48900 Y0.55500
X1.48900 Y0.55700
X1.48800 Y0.55700
X1.48800 Y0.55900
X1.48700 Y0.55900
X1.48700 Y0.62500
X1.48600 Y0.62500
X1.48600 Y0.62600
X1.48500 Y0.62600
X1.48500 Y0.62700
X1.48200 Y0.62700
X1.48200 Y0.62600
X1.48100 Y0.62600
X1.48100 Y0.62500
X1.48000 Y0.62500
X1.48000 Y0.62400
X1.45200 Y0.62400
X1.45200 Y0.62500
X1.44900 Y0.62500
X1.44900 Y0.62400
X1.44200 Y0.62400
X1.44200 Y0.60300
X1.44300 Y0.60300
X1.44300 Y0.60200
X1.44400 Y0.60200
X1.44400 Y0.60100
X1.44900 Y0.60100
X1.44900 Y0.60000
X1.45000 Y0.60000
X1.45000 Y0.59900
X1.45200 Y0.59900
X1.45200 Y0.59800
X1.45400 Y0.59800
X1.45400 Y0.59700
X1.45500 Y0.59700
X1.45500 Y0.59600
X1.45600 Y0.59600
X1.45600 Y0.59500
X1.45700 Y0.59500
X1.45700 Y0.59400
X1.45800 Y0.59400
X1.45800 Y0.59300
X1.45900 Y0.59300
X1.45900 Y0.59200
X1.46000 Y0.59200
X1.46000 Y0.59100
X1.46100 Y0.59100
X1.46100 Y0.58900
X1.46200 Y0.58900
X1.46200 Y0.58800
X1.46300 Y0.58800
X1.46300 Y0.58500
X1.46400 Y0.58500
X1.46400 Y0.58300
X1.46500 Y0.58300
X1.46500 Y0.58000
X1.46600 Y0.58000
X1.46600 Y0.56300
X1.46500 Y0.56300
X1.46500 Y0.56000
X1.46400 Y0.56000
X1.46400 Y0.55800
X1.46300 Y0.55800
X1.46300 Y0.55500
X1.46200 Y0.55500
X1.46200 Y0.55400
X1.46100 Y0.55400
X1.46100 Y0.55200
X1.46000 Y0.55200
X1.46000 Y0.55100
X1.45900 Y0.55100
X1.45900 Y0.54900
X1.45800 Y0.54900
X1.45800 Y0.54800
X1.45700 Y0.54800
X1.45700 Y0.54700
X1.45600 Y0.54700
X1.45600 Y0.54600
X1.45400 Y0.54600
X1.45400 Y0.54500
X1.45200 Y0.54500
X1.45200 Y0.54400
X1.45000 Y0.54400
X1.45000 Y0.54300
X1.44900 Y0.54300
X1.44900 Y0.54200
X1.44600 Y0.54200
X1.44600 Y0.54100
X1.44300 Y0.54100
X1.44300 Y0.54000
X1.42600 Y0.54000
X1.42600 Y0.54100
X1.42300 Y0.54100
X1.42300 Y0.54200
X1.42000 Y0.54200
X1.42000 Y0.54300
X1.41900 Y0.54300
X1.41900 Y0.54400
X1.41700 Y0.54400
X1.41700 Y0.54500
X1.41500 Y0.54500
X1.41500 Y0.54600
X1.41300 Y0.54600
X1.41300 Y0.54700
X1.41200 Y0.54700
X1.41200 Y0.54900
X1.41100 Y0.54900
X1.41100 Y0.55000
X1.41000 Y0.55000
X1.41000 Y0.55100
X1.40900 Y0.55100
X1.40900 Y0.55200
X1.40800 Y0.55200
X1.40800 Y0.55400
X1.40700 Y0.55400
X1.40700 Y0.55600
X1.40600 Y0.55600
X1.40600 Y0.55800
X1.40500 Y0.55800
X1.40500 Y0.56200
X1.40400 Y0.56200
X1.40400 Y0.56300
X1.40300 Y0.56300
X1.40300 Y0.57900
X1.40400 Y0.57900
X1.40400 Y0.58100
X1.40500 Y0.58100
X1.40500 Y0.58500
X1.40600 Y0.58500
X1.40600 Y0.58700
X1.40700 Y0.58700
X1.40700 Y0.58900
X1.40800 Y0.58900
X1.40800 Y0.59000
X1.40900 Y0.59000
X1.40900 Y0.59100
X1.41000 Y0.59100
X1.41000 Y0.59200
X1.41100 Y0.59200
X1.41100 Y0.59300
X1.41200 Y0.59300
X1.41200 Y0.59400
X1.41300 Y0.59400
X1.41300 Y0.59500
X1.41400 Y0.59500
X1.41400 Y0.59600
X1.41500 Y0.59600
X1.41500 Y0.59700
X1.41600 Y0.59700
X1.41600 Y0.59800
X1.41700 Y0.59800
X1.41700 Y0.59900
X1.41900 Y0.59900
X1.41900 Y0.60000
X1.42000 Y0.60000
X1.42000 Y0.60100
X1.42500 Y0.60100
X1.42500 Y0.60200
X1.42600 Y0.60200
X1.42600 Y0.60300
X1.42700 Y0.60300
X1.42700 Y0.62400
X1.42400 Y0.62400
X1.42400 Y0.62500
X1.42100 Y0.62500
X1.42100 Y0.62800
X1.42000 Y0.62800
X1.42000 Y0.65700
X1.42100 Y0.65700
X1.42100 Y0.66000
X1.42400 Y0.66000
X1.42400 Y0.66100
X1.44500 Y0.66100
X1.44500 Y0.66000
X1.44900 Y0.66000
X1.44900 Y0.65900
X1.45200 Y0.65900
X1.45200 Y0.66000
X1.45600 Y0.66000
X1.45600 Y0.66100
X1.47200 Y0.66100
X1.47200 Y0.66200
X1.47300 Y0.66200
X1.47300 Y0.66400
X1.47200 Y0.66400
X1.47200 Y0.66700
X1.47100 Y0.66700
X1.47100 Y0.67000
X1.47000 Y0.67000
X1.47000 Y0.67100
X1.46900 Y0.67100
X1.46900 Y0.67200
X1.46800 Y0.67200
X1.46800 Y0.67300
X1.46500 Y0.67300
X1.46500 Y0.67400
X1.44900 Y0.67400
X1.44900 Y0.67500
X1.44500 Y0.67500
X1.44500 Y0.67600
X1.44400 Y0.67600
X1.44400 Y0.70200
X1.44500 Y0.70200
X1.44500 Y0.70600
X1.44600 Y0.70600
X1.44600 Y0.71000
X1.44900 Y0.71000
X1.44900 Y0.71100
X1.45200 Y0.71100
X1.45200 Y0.73000
X1.45300 Y0.73000
X1.45300 Y0.73300
X1.45400 Y0.73300
X1.45400 Y0.73500
X1.45500 Y0.73500
X1.45500 Y0.73600
X1.45600 Y0.73600
X1.45600 Y0.73700
X1.45700 Y0.73700
X1.45700 Y0.73800
X1.45800 Y0.73800
X1.45800 Y0.74100
X1.45900 Y0.74100
X1.45900 Y0.76300
X1.45800 Y0.76300
X1.45800 Y0.76400
X1.45600 Y0.76400
X1.45600 Y0.76300
X1.45300 Y0.76300
X1.45300 Y0.76200
X1.45000 Y0.76200
X1.45000 Y0.76100
X1.44900 Y0.76100
X1.44900 Y0.76000
X1.44800 Y0.76000
X1.44800 Y0.75900
X1.44700 Y0.75900
X1.44700 Y0.75800
X1.44600 Y0.75800
X1.44600 Y0.75700
X1.44500 Y0.75700
X1.44500 Y0.75600
X1.44400 Y0.75600
X1.44400 Y0.75500
X1.44300 Y0.75500
X1.44300 Y0.75400
X1.44200 Y0.75400
X1.44200 Y0.75300
X1.44100 Y0.75300
X1.44100 Y0.75200
X1.43900 Y0.75200
X1.43900 Y0.75100
X1.43700 Y0.75100
X1.43700 Y0.75000
X1.42000 Y0.75000
X1.42000 Y0.74900
X1.41700 Y0.74900
X1.41700 Y0.74800
X1.41600 Y0.74800
X1.41600 Y0.74700
X1.41500 Y0.74700
X1.41500 Y0.74600
X1.41400 Y0.74600
X1.41400 Y0.74500
X1.41300 Y0.74500
X1.41300 Y0.74400
X1.41200 Y0.74400
X1.41200 Y0.74300
X1.41100 Y0.74300
X1.41100 Y0.74200
X1.41000 Y0.74200
X1.41000 Y0.74100
X1.40900 Y0.74100
X1.40900 Y0.74000
X1.40800 Y0.74000
X1.40800 Y0.73900
X1.40700 Y0.73900
X1.40700 Y0.73800
X1.40600 Y0.73800
X1.40600 Y0.73700
X1.40500 Y0.73700
X1.40500 Y0.73600
X1.40400 Y0.73600
X1.40400 Y0.73500
X1.40300 Y0.73500
X1.40300 Y0.73400
X1.40200 Y0.73400
X1.40200 Y0.73300
X1.40100 Y0.73300
X1.40100 Y0.73200
X1.40000 Y0.73200
X1.40000 Y0.73100
X1.39900 Y0.73100
X1.39900 Y0.73000
X1.39800 Y0.73000
X1.39800 Y0.72700
X1.39700 Y0.72700
X1.39700 Y0.67000
X1.39600 Y0.67000
X1.39600 Y0.66800
X1.39500 Y0.66800
X1.39500 Y0.66600
X1.39400 Y0.66600
X1.39400 Y0.66500
X1.39300 Y0.66500
X1.39300 Y0.66400
X1.39200 Y0.66400
X1.39200 Y0.66300
X1.39100 Y0.66300
X1.39100 Y0.66200
X1.39000 Y0.66200
X1.39000 Y0.66100
X1.38900 Y0.66100
X1.38900 Y0.66000
X1.38800 Y0.66000
X1.38800 Y0.65900
X1.38700 Y0.65900
X1.38700 Y0.65800
X1.38600 Y0.65800
X1.38600 Y0.65700
X1.38500 Y0.65700
X1.38500 Y0.65600
X1.38400 Y0.65600
X1.38400 Y0.65500
X1.38300 Y0.65500
X1.38300 Y0.65400
X1.38200 Y0.65400
X1.38200 Y0.65300
X1.38100 Y0.65300
X1.38100 Y0.65200
X1.38000 Y0.65200
X1.38000 Y0.65100
X1.37900 Y0.65100
X1.37900 Y0.65000
X1.37800 Y0.65000
X1.37800 Y0.64900
X1.37700 Y0.64900
X1.37700 Y0.64800
X1.37600 Y0.64800
X1.37600 Y0.64700
X1.37500 Y0.64700
X1.37500 Y0.64600
X1.37400 Y0.64600
X1.37400 Y0.64500
X1.37300 Y0.64500
X1.37300 Y0.64400
X1.37200 Y0.64400
X1.37200 Y0.64300
X1.37100 Y0.64300
X1.37100 Y0.64200
X1.37000 Y0.64200
X1.37000 Y0.63900
X1.36900 Y0.63900
X1.36900 Y0.63500
X1.36800 Y0.63500
X1.36800 Y0.63200
X1.36700 Y0.63200
X1.36700 Y0.63000
X1.36500 Y0.63000
X1.36500 Y0.62900
X1.36200 Y0.62900
X1.36200 Y0.62800
X1.35800 Y0.62800
X1.35800 Y0.62700
X1.19800 Y0.62700
X1.19800 Y0.62600
X1.19400 Y0.62600
X1.19400 Y0.62500
X1.19300 Y0.62500
X1.19300 Y0.62400
X1.19200 Y0.62400
X1.19200 Y0.62300
X1.19100 Y0.62300
X1.19100 Y0.62200
X1.19000 Y0.62200
X1.19000 Y0.62100
X1.18900 Y0.62100
X1.18900 Y0.62000
X1.18800 Y0.62000
X1.18800 Y0.61900
X1.18700 Y0.61900
X1.18700 Y0.61800
X1.18600 Y0.61800
X1.18600 Y0.61700
X1.18400 Y0.61700
X1.18400 Y0.61600
X1.18200 Y0.61600
X1.18200 Y0.61500
X1.11000 Y0.61500
X1.11000 Y0.61400
X1.10700 Y0.61400
X1.10700 Y0.61300
X1.10600 Y0.61300
X1.10600 Y0.61200
X1.10500 Y0.61200
X1.10500 Y0.61100
X1.10400 Y0.61100
X1.10400 Y0.61000
X1.10300 Y0.61000
X1.10300 Y0.60900
X1.10200 Y0.60900
X1.10200 Y0.60800
X1.10100 Y0.60800
X1.10100 Y0.60700
X1.10000 Y0.60700
X1.10000 Y0.60600
X1.09900 Y0.60600
X1.09900 Y0.60500
X1.09800 Y0.60500
X1.09800 Y0.60200
X1.09700 Y0.60200
X1.09700 Y0.54000
X1.09800 Y0.54000
X1.09800 Y0.53800
X1.10000 Y0.53800
X1.10000 Y0.53700
X1.10200 Y0.53700
X1.10200 Y0.53600
X1.10300 Y0.53600
X1.10300 Y0.53400
X1.10400 Y0.53400
X1.10400 Y0.53300
X1.10500 Y0.53300
X1.10500 Y0.53100
X1.10600 Y0.53100
X1.10600 Y0.52800
X1.10700 Y0.52800
X1.10700 Y0.51700
X1.10800 Y0.51700
X1.10800 Y0.48500
X1.12100 Y0.48500
X1.12100 Y0.51700
X1.12200 Y0.51700
X1.12200 Y0.52700
X1.12300 Y0.52700
X1.12300 Y0.53100
X1.12400 Y0.53100
X1.12400 Y0.53300
X1.12500 Y0.53300
X1.12500 Y0.53400
X1.12600 Y0.53400
X1.12600 Y0.53600
X1.12700 Y0.53600
X1.12700 Y0.53700
X1.12900 Y0.53700
X1.12900 Y0.53800
X1.13100 Y0.53800
X1.13100 Y0.53900
X1.13500 Y0.53900
X1.13500 Y0.54000
X1.14400 Y0.54000
X1.14400 Y0.53900
X1.14800 Y0.53900
X1.14800 Y0.53800
X1.15000 Y0.53800
X1.15000 Y0.53700
X1.15200 Y0.53700
X1.15200 Y0.53600
X1.15300 Y0.53600
X1.15300 Y0.53400
X1.15400 Y0.53400
X1.15400 Y0.53300
X1.15500 Y0.53300
X1.15500 Y0.53100
X1.15600 Y0.53100
X1.15600 Y0.52800
X1.15700 Y0.52800
X1.15700 Y0.51700
X1.15800 Y0.51700
X1.15800 Y0.49200
X1.15700 Y0.49200
X1.15700 Y0.48800
X1.15600 Y0.48800
X1.15600 Y0.48500
X1.15700 Y0.48500
X1.15700 Y0.48100
X1.15800 Y0.48100
X1.15800 Y0.46000
X1.15700 Y0.46000
X1.15700 Y0.45800
X1.15400 Y0.45800
X1.15400 Y0.45700
X1.13100 Y0.45700
X1.13100 Y0.45600
X1.12800 Y0.45600
X1.12800 Y0.45400
X1.12700 Y0.45400
X1.12700 Y0.45300
X1.12500 Y0.45300
X1.12500 Y0.45200
X1.12300 Y0.45200
X1.12300 Y0.45100
X1.11900 Y0.45100
X1.11900 Y0.45000
X1.11000 Y0.45000
X1.11000 Y0.45100
X1.10600 Y0.45100
X1.10600 Y0.45200
X1.10400 Y0.45200
X1.10400 Y0.45300
X1.10200 Y0.45300
X1.10200 Y0.45400
X1.10100 Y0.45400
X1.10100 Y0.45600
X1.09800 Y0.45600
X1.09800 Y0.45700
X1.07500 Y0.45700
X1.07500 Y0.45800
X1.07200 Y0.45800
X1.07200 Y0.46000
X1.07100 Y0.46000
X1.07100 Y0.48100
X1.07200 Y0.48100
X1.07200 Y0.48500
X1.07300 Y0.48500
X1.07300 Y0.48800
X1.07200 Y0.48800
X1.07200 Y0.49200
X1.07100 Y0.49200
X1.07100 Y0.51700
X1.07200 Y0.51700
X1.07200 Y0.52700
X1.07300 Y0.52700
X1.07300 Y0.53100
X1.07400 Y0.53100
X1.07400 Y0.53300
X1.07500 Y0.53300
X1.07500 Y0.53400
X1.07600 Y0.53400
X1.07600 Y0.53600
X1.07700 Y0.53600
X1.07700 Y0.53700
X1.07900 Y0.53700
X1.07900 Y0.53800
X1.08100 Y0.53800
X1.08100 Y0.54000
X1.08200 Y0.54000
X1.08200 Y0.60900
X1.08300 Y0.60900
X1.08300 Y0.61200
X1.08400 Y0.61200
X1.08400 Y0.61400
X1.08500 Y0.61400
X1.08500 Y0.61500
X1.08600 Y0.61500
X1.08600 Y0.61600
X1.08700 Y0.61600
X1.08700 Y0.61700
X1.08800 Y0.61700
X1.08800 Y0.61800
X1.08900 Y0.61800
X1.08900 Y0.61900
X1.09000 Y0.61900
X1.09000 Y0.62200
X1.09100 Y0.62200
X1.09100 Y0.62500
X1.09200 Y0.62500
X1.09200 Y0.62900
X1.01100 Y0.62900
X1.01100 Y0.62800
X1.00800 Y0.62800
X1.00800 Y0.62700
X1.00500 Y0.62700
X1.00500 Y0.62600
X1.00400 Y0.62600
X1.00400 Y0.62500
X1.00300 Y0.62500
X1.00300 Y0.62400
X1.00200 Y0.62400
X1.00200 Y0.62300
X1.00100 Y0.62300
X1.00100 Y0.62200
X1.00000 Y0.62200
X1.00000 Y0.62100
X0.99900 Y0.62100
X0.99900 Y0.62000
X0.99800 Y0.62000
X0.99800 Y0.61700
X0.99700 Y0.61700
X0.99700 Y0.54000
X0.99800 Y0.54000
X0.99800 Y0.53800
X1.00000 Y0.53800
X1.00000 Y0.53700
X1.00200 Y0.53700
X1.00200 Y0.53600
X1.00300 Y0.53600
X1.00300 Y0.53400
X1.00400 Y0.53400
X1.00400 Y0.53300
X1.00500 Y0.53300
X1.00500 Y0.53100
X1.00600 Y0.53100
X1.00600 Y0.52800
X1.00700 Y0.52800
X1.00700 Y0.51700
X1.00600 Y0.51700
X1.00600 Y0.51400
X1.00500 Y0.51400
X1.00500 Y0.51200
X1.00400 Y0.51200
X1.00400 Y0.51100
X1.00300 Y0.51100
X1.00300 Y0.50900
X1.00200 Y0.50900
X1.00200 Y0.50800
X1.00000 Y0.50800
X1.00000 Y0.50700
X0.99800 Y0.50700
X0.99800 Y0.50600
X0.99400 Y0.50600
X0.99400 Y0.50500
X0.98500 Y0.50500
X0.98500 Y0.50600
X0.98100 Y0.50600
X0.98100 Y0.50700
X0.97900 Y0.50700
X0.97900 Y0.50800
X0.97700 Y0.50800
X0.97700 Y0.50900
X0.97600 Y0.50900
X0.97600 Y0.51100
X0.97500 Y0.51100
X0.97500 Y0.51200
X0.97400 Y0.51200
X0.97400 Y0.51400
X0.97300 Y0.51400
X0.97300 Y0.51800
X0.97200 Y0.51800
X0.97200 Y0.52700
X0.97300 Y0.52700
X0.97300 Y0.53100
X0.97400 Y0.53100
X0.97400 Y0.53300
X0.97500 Y0.53300
X0.97500 Y0.53400
X0.97600 Y0.53400
X0.97600 Y0.53600
X0.97700 Y0.53600
X0.97700 Y0.53700
X0.97900 Y0.53700
X0.97900 Y0.53800
X0.98100 Y0.53800
X0.98100 Y0.54000
X0.98200 Y0.54000
X0.98200 Y0.62900
X0.98100 Y0.62900
X0.98100 Y0.63000
X0.98000 Y0.63000
X0.98000 Y0.63100
X0.97900 Y0.63100
X0.97900 Y0.63200
X0.97800 Y0.63200
X0.97800 Y0.63300
X0.78700 Y0.63300
X0.78700 Y0.68600
X1.35000 Y0.68600
X1.35000 Y1.19500
X1.34900 Y1.19500
X1.34900 Y1.19600
X1.34800 Y1.19600
X1.34800 Y1.19800
X1.34700 Y1.19800
X1.34700 Y1.19900
X1.34600 Y1.19900
X1.34600 Y1.20000
X1.34500 Y1.20000
X1.34500 Y1.20100
X1.19700 Y1.20100
X1.19700 Y1.20200
X1.19300 Y1.20200
X1.19300 Y1.20300
X1.19100 Y1.20300
X1.19100 Y1.20400
X1.19000 Y1.20400
X1.19000 Y1.20500
X1.18900 Y1.20500
X1.18900 Y1.20600
X1.18800 Y1.20600
X1.18800 Y1.20700
X1.18700 Y1.20700
X1.18700 Y1.20800
X1.18600 Y1.20800
X1.18600 Y1.20900
X1.18500 Y1.20900
X1.18500 Y1.21000
X1.18400 Y1.21000
X1.18400 Y1.21100
X1.18300 Y1.21100
X1.18300 Y1.21200
X1.18200 Y1.21200
X1.18200 Y1.21300
X1.18100 Y1.21300
X1.18100 Y1.21400
X1.18000 Y1.21400
X1.18000 Y1.21500
X1.17900 Y1.21500
X1.17900 Y1.21700
X1.17800 Y1.21700
X1.17800 Y1.22100
X1.17700 Y1.22100
X1.17700 Y1.26900
X1.17600 Y1.26900
X1.17600 Y1.27100
X1.17400 Y1.27100
X1.17400 Y1.27200
X1.17200 Y1.27200
X1.17200 Y1.27300
X1.17100 Y1.27300
X1.17100 Y1.27500
X1.17000 Y1.27500
X1.17000 Y1.27600
X1.16900 Y1.27600
X1.16900 Y1.27800
X1.16800 Y1.27800
X1.16800 Y1.28200
X1.16700 Y1.28200
X1.16700 Y1.28300
X1.16600 Y1.28300
X1.16600 Y1.28400
X1.16500 Y1.28400
X1.16500 Y1.28500
X1.16400 Y1.28500
X1.16400 Y1.28600
X1.16000 Y1.28600
X1.16000 Y1.28500
X1.15900 Y1.28500
X1.15900 Y1.28400
X1.15800 Y1.28400
X1.15800 Y1.28300
X1.15700 Y1.28300
X1.15700 Y1.28100
X1.15600 Y1.28100
X1.15600 Y1.27800
X1.15500 Y1.27800
X1.15500 Y1.27600
X1.15400 Y1.27600
X1.15400 Y1.27500
X1.15300 Y1.27500
X1.15300 Y1.27300
X1.15200 Y1.27300
X1.15200 Y1.27200
X1.15000 Y1.27200
X1.15000 Y1.27000
X1.14900 Y1.27000
X1.14900 Y0.91800
X1.14800 Y0.91800
X1.14800 Y0.91600
X1.14700 Y0.91600
X1.14700 Y0.91400
X1.14600 Y0.91400
X1.14600 Y0.91300
X1.14500 Y0.91300
X1.14500 Y0.91200
X1.14400 Y0.91200
X1.14400 Y0.91100
X1.14300 Y0.91100
X1.14300 Y0.91000
X1.14200 Y0.91000
X1.14200 Y0.90900
X1.14100 Y0.90900
X1.14100 Y0.90800
X1.14000 Y0.90800
X1.14000 Y0.90700
X1.13900 Y0.90700
X1.13900 Y0.90600
X1.13800 Y0.90600
X1.13800 Y0.90500
X1.13700 Y0.90500
X1.13700 Y0.90400
X1.13600 Y0.90400
X1.13600 Y0.90300
X1.13500 Y0.90300
X1.13500 Y0.90200
X1.13400 Y0.90200
X1.13400 Y0.90100
X1.13300 Y0.90100
X1.13300 Y0.90000
X1.13200 Y0.90000
X1.13200 Y0.89900
X1.13100 Y0.89900
X1.13100 Y0.89800
X1.13000 Y0.89800
X1.13000 Y0.89700
X1.12900 Y0.89700
X1.12900 Y0.89600
X1.12800 Y0.89600
X1.12800 Y0.89500
X1.12700 Y0.89500
X1.12700 Y0.89400
X1.12600 Y0.89400
X1.12600 Y0.89300
X1.12500 Y0.89300
X1.12500 Y0.89200
X1.12400 Y0.89200
X1.12400 Y0.89100
X1.12300 Y0.89100
X1.12300 Y0.89000
X1.12200 Y0.89000
X1.12200 Y0.88900
X1.12100 Y0.88900
X1.12100 Y0.88800
X1.12000 Y0.88800
X1.12000 Y0.88700
X1.11900 Y0.88700
X1.11900 Y0.88600
X1.11800 Y0.88600
X1.11800 Y0.88500
X1.11700 Y0.88500
X1.11700 Y0.88400
X1.11600 Y0.88400
X1.11600 Y0.88300
X1.11500 Y0.88300
X1.11500 Y0.88200
X1.11400 Y0.88200
X1.11400 Y0.88100
X1.11300 Y0.88100
X1.11300 Y0.88000
X1.11200 Y0.88000
X1.11200 Y0.87900
X1.11100 Y0.87900
X1.11100 Y0.87800
X1.11000 Y0.87800
X1.11000 Y0.87700
X1.10900 Y0.87700
X1.10900 Y0.87600
X1.10800 Y0.87600
X1.10800 Y0.87500
X1.10700 Y0.87500
X1.10700 Y0.87400
X1.10600 Y0.87400
X1.10600 Y0.87300
X1.10500 Y0.87300
X1.10500 Y0.87200
X1.10400 Y0.87200
X1.10400 Y0.87100
X1.10300 Y0.87100
X1.10300 Y0.87000
X1.10200 Y0.87000
X1.10200 Y0.86900
X1.10100 Y0.86900
X1.10100 Y0.86800
X1.10000 Y0.86800
X1.10000 Y0.86700
X1.09900 Y0.86700
X1.09900 Y0.86600
X1.09800 Y0.86600
X1.09800 Y0.86500
X1.09700 Y0.86500
X1.09700 Y0.86400
X1.09600 Y0.86400
X1.09600 Y0.86300
X1.09500 Y0.86300
X1.09500 Y0.86200
X1.09400 Y0.86200
X1.09400 Y0.86100
X1.09300 Y0.86100
X1.09300 Y0.86000
X1.09200 Y0.86000
X1.09200 Y0.85900
X1.09100 Y0.85900
X1.09100 Y0.85800
X1.09000 Y0.85800
X1.09000 Y0.85700
X1.08900 Y0.85700
X1.08900 Y0.85600
X1.08800 Y0.85600
X1.08800 Y0.85500
X1.08700 Y0.85500
X1.08700 Y0.85400
X1.08600 Y0.85400
X1.08600 Y0.85300
X1.08500 Y0.85300
X1.08500 Y0.85200
X1.08400 Y0.85200
X1.08400 Y0.85100
X1.08300 Y0.85100
X1.08300 Y0.85000
X1.08200 Y0.85000
X1.08200 Y0.84900
X1.08100 Y0.84900
X1.08100 Y0.84800
X1.08000 Y0.84800
X1.08000 Y0.84700
X1.07900 Y0.84700
X1.07900 Y0.84600
X1.07800 Y0.84600
X1.07800 Y0.84500
X1.07700 Y0.84500
X1.07700 Y0.84400
X1.07600 Y0.84400
X1.07600 Y0.84300
X1.07500 Y0.84300
X1.07500 Y0.84200
X1.07400 Y0.84200
X1.07400 Y0.84100
X1.07300 Y0.84100
X1.07300 Y0.84000
X1.07200 Y0.84000
X1.07200 Y0.83900
X1.07100 Y0.83900
X1.07100 Y0.83800
X1.07000 Y0.83800
X1.07000 Y0.83700
X1.06900 Y0.83700
X1.06900 Y0.83600
X1.06800 Y0.83600
X1.06800 Y0.83500
X1.06700 Y0.83500
X1.06700 Y0.83400
X1.06600 Y0.83400
X1.06600 Y0.83300
X1.06500 Y0.83300
X1.06500 Y0.83200
X1.06400 Y0.83200
X1.06400 Y0.83100
X1.06300 Y0.83100
X1.06300 Y0.83000
X1.06200 Y0.83000
X1.06200 Y0.82900
X1.06100 Y0.82900
X1.06100 Y0.82800
X1.06000 Y0.82800
X1.06000 Y0.82700
X1.05900 Y0.82700
X1.05900 Y0.82600
X1.05800 Y0.82600
X1.05800 Y0.82500
X1.05700 Y0.82500
X1.05700 Y0.82400
X1.05600 Y0.82400
X1.05600 Y0.82300
X1.05500 Y0.82300
X1.05500 Y0.82200
X1.05400 Y0.82200
X1.05400 Y0.82100
X1.05300 Y0.82100
X1.05300 Y0.82000
X1.05200 Y0.82000
X1.05200 Y0.81900
X1.05100 Y0.81900
X1.05100 Y0.81800
X1.05000 Y0.81800
X1.05000 Y0.81700
X1.04900 Y0.81700
X1.04900 Y0.81600
X1.04800 Y0.81600
X1.04800 Y0.81500
X1.04700 Y0.81500
X1.04700 Y0.81400
X1.04600 Y0.81400
X1.04600 Y0.81300
X1.04500 Y0.81300
X1.04500 Y0.81200
X1.04400 Y0.81200
X1.04400 Y0.81100
X1.04300 Y0.81100
X1.04300 Y0.81000
X1.04200 Y0.81000
X1.04200 Y0.80900
X1.04100 Y0.80900
X1.04100 Y0.80800
X1.04000 Y0.80800
X1.04000 Y0.80700
X1.03900 Y0.80700
X1.03900 Y0.80600
X1.03800 Y0.80600
X1.03800 Y0.80500
X1.03700 Y0.80500
X1.03700 Y0.80400
X1.03600 Y0.80400
X1.03600 Y0.80300
X1.03500 Y0.80300
X1.03500 Y0.80200
X1.03400 Y0.80200
X1.03400 Y0.80100
X1.03300 Y0.80100
X1.03300 Y0.80000
X1.03200 Y0.80000
X1.03200 Y0.79900
X1.03100 Y0.79900
X1.03100 Y0.79800
X1.03000 Y0.79800
X1.03000 Y0.79700
X1.02900 Y0.79700
X1.02900 Y0.79600
X1.02800 Y0.79600
X1.02800 Y0.79500
X1.02700 Y0.79500
X1.02700 Y0.79400
X1.02600 Y0.79400
X1.02600 Y0.79300
X1.02500 Y0.79300
X1.02500 Y0.79200
X1.02400 Y0.79200
X1.02400 Y0.79100
X1.02300 Y0.79100
X1.02300 Y0.79000
X1.02200 Y0.79000
X1.02200 Y0.78900
X1.02100 Y0.78900
X1.02100 Y0.78800
X1.02000 Y0.78800
X1.02000 Y0.78700
X1.01900 Y0.78700
X1.01900 Y0.78600
X1.01800 Y0.78600
X1.01800 Y0.78500
X1.01700 Y0.78500
X1.01700 Y0.78400
X1.01600 Y0.78400
X1.01600 Y0.78300
X1.01500 Y0.78300
X1.01500 Y0.78200
X1.01400 Y0.78200
X1.01400 Y0.78100
X1.01300 Y0.78100
X1.01300 Y0.78000
X1.01200 Y0.78000
X1.01200 Y0.77900
X1.01100 Y0.77900
X1.01100 Y0.77800
X1.01000 Y0.77800
X1.01000 Y0.77700
X1.00900 Y0.77700
X1.00900 Y0.77600
X1.00800 Y0.77600
X1.00800 Y0.77500
X1.00700 Y0.77500
X1.00700 Y0.77400
X1.00600 Y0.77400
X1.00600 Y0.77300
X1.00500 Y0.77300
X1.00500 Y0.77200
X1.00400 Y0.77200
X1.00400 Y0.77100
X1.00300 Y0.77100
X1.00300 Y0.77000
X1.00200 Y0.77000
X1.00200 Y0.76900
X1.00100 Y0.76900
X1.00100 Y0.76800
X1.00000 Y0.76800
X1.00000 Y0.76700
X0.99900 Y0.76700
X0.99900 Y0.76600
X0.99800 Y0.76600
X0.99800 Y0.76500
X0.99700 Y0.76500
X0.99700 Y0.76400
X0.99600 Y0.76400
X0.99600 Y0.76300
X0.99500 Y0.76300
X0.99500 Y0.76200
X0.99400 Y0.76200
X0.99400 Y0.76100
X0.99300 Y0.76100
X0.99300 Y0.76000
X0.99200 Y0.76000
X0.99200 Y0.75700
X0.99100 Y0.75700
X0.99100 Y0.75300
X0.99200 Y0.75300
X0.99200 Y0.73800
X0.99100 Y0.73800
X0.99100 Y0.73500
X0.99000 Y0.73500
X0.99000 Y0.73300
X0.98900 Y0.73300
X0.98900 Y0.73100
X0.98800 Y0.73100
X0.98800 Y0.72900
X0.98700 Y0.72900
X0.98700 Y0.72800
X0.98600 Y0.72800
X0.98600 Y0.72600
X0.98500 Y0.72600
X0.98500 Y0.72500
X0.98400 Y0.72500
X0.98400 Y0.72400
X0.98300 Y0.72400
X0.98300 Y0.72300
X0.98200 Y0.72300
X0.98200 Y0.72200
X0.98000 Y0.72200
X0.98000 Y0.72100
X0.97800 Y0.72100
X0.97800 Y0.72000
X0.97700 Y0.72000
X0.97700 Y0.71900
X0.97500 Y0.71900
X0.97500 Y0.71800
X0.97300 Y0.71800
X0.97300 Y0.71700
X0.97000 Y0.71700
X0.97000 Y0.71600
X0.95500 Y0.71600
X0.95500 Y0.71700
X0.95200 Y0.71700
X0.95200 Y0.71800
X0.95000 Y0.71800
X0.95000 Y0.71900
X0.94800 Y0.71900
X0.94800 Y0.72000
X0.94700 Y0.72000
X0.94700 Y0.72100
X0.94500 Y0.72100
X0.94500 Y0.72200
X0.94300 Y0.72200
X0.94300 Y0.72300
X0.94200 Y0.72300
X0.94200 Y0.72400
X0.94100 Y0.72400
X0.94100 Y0.72500
X0.94000 Y0.72500
X0.94000 Y0.72600
X0.93900 Y0.72600
X0.93900 Y0.72800
X0.93800 Y0.72800
X0.93800 Y0.72900
X0.93700 Y0.72900
X0.93700 Y0.73100
X0.93600 Y0.73100
X0.93600 Y0.73400
X0.93500 Y0.73400
X0.93500 Y0.73800
X0.93400 Y0.73800
X0.93400 Y0.74200
X0.93300 Y0.74200
X0.93300 Y0.74900
X0.93400 Y0.74900
X0.93400 Y0.75300
X0.93500 Y0.75300
X0.93500 Y0.75700
X0.93600 Y0.75700
X0.93600 Y0.76000
X0.93700 Y0.76000
X0.93700 Y0.76100
X0.93800 Y0.76100
X0.93800 Y0.76300
X0.93900 Y0.76300
X0.93900 Y0.76400
X0.94000 Y0.76400
X0.94000 Y0.76600
X0.94100 Y0.76600
X0.94100 Y0.76700
X0.94200 Y0.76700
X0.94200 Y0.76800
X0.94400 Y0.76800
X0.94400 Y0.76900
X0.94500 Y0.76900
X0.94500 Y0.77000
X0.94700 Y0.77000
X0.94700 Y0.77100
X0.94800 Y0.77100
X0.94800 Y0.77200
X0.95000 Y0.77200
X0.95000 Y0.77300
X0.95500 Y0.77300
X0.95500 Y0.77400
X0.95900 Y0.77400
X0.95900 Y0.77500
X0.96600 Y0.77500
X0.96600 Y0.77400
X0.97000 Y0.77400
X0.97000 Y0.77300
X0.97700 Y0.77300
X0.97700 Y0.77400
X0.98000 Y0.77400
X0.98000 Y0.77600
X0.98100 Y0.77600
X0.98100 Y0.77700
X0.98200 Y0.77700
X0.98200 Y0.77800
X0.98300 Y0.77800
X0.98300 Y0.77900
X0.98400 Y0.77900
X0.98400 Y0.78000
X0.98500 Y0.78000
X0.98500 Y0.78100
X0.98600 Y0.78100
X0.98600 Y0.78200
X0.98700 Y0.78200
X0.98700 Y0.78300
X0.98800 Y0.78300
X0.98800 Y0.78400
X0.98900 Y0.78400
X0.98900 Y0.78500
X0.99000 Y0.78500
X0.99000 Y0.78600
X0.99100 Y0.78600
X0.99100 Y0.78700
X0.99200 Y0.78700
X0.99200 Y0.78800
X0.99300 Y0.78800
X0.99300 Y0.78900
X0.99400 Y0.78900
X0.99400 Y0.79000
X0.99500 Y0.79000
X0.99500 Y0.79100
X0.99600 Y0.79100
X0.99600 Y0.79200
X0.99700 Y0.79200
X0.99700 Y0.79300
X0.99800 Y0.79300
X0.99800 Y0.79400
X0.99900 Y0.79400
X0.99900 Y0.79500
X1.00000 Y0.79500
X1.00000 Y0.79600
X1.00100 Y0.79600
X1.00100 Y0.79700
X1.00200 Y0.79700
X1.00200 Y0.79800
X1.00300 Y0.79800
X1.00300 Y0.79900
X1.00400 Y0.79900
X1.00400 Y0.80000
X1.00500 Y0.80000
X1.00500 Y0.80100
X1.00600 Y0.80100
X1.00600 Y0.80200
X1.00700 Y0.80200
X1.00700 Y0.80300
X1.00800 Y0.80300
X1.00800 Y0.80400
X1.00900 Y0.80400
X1.00900 Y0.80500
X1.01000 Y0.80500
X1.01000 Y0.80600
X1.01100 Y0.80600
X1.01100 Y0.80700
X1.01200 Y0.80700
X1.01200 Y0.80800
X1.01300 Y0.80800
X1.01300 Y0.80900
X1.01400 Y0.80900
X1.01400 Y0.81000
X1.01500 Y0.81000
X1.01500 Y0.81100
X1.01600 Y0.81100
X1.01600 Y0.81200
X1.01700 Y0.81200
X1.01700 Y0.81300
X1.01800 Y0.81300
X1.01800 Y0.81400
X1.01900 Y0.81400
X1.01900 Y0.81500
X1.02000 Y0.81500
X1.02000 Y0.81600
X1.02100 Y0.81600
X1.02100 Y0.81700
X1.02200 Y0.81700
X1.02200 Y0.81800
X1.02300 Y0.81800
X1.02300 Y0.81900
X1.02400 Y0.81900
X1.02400 Y0.82000
X1.02500 Y0.82000
X1.02500 Y0.82100
X1.02600 Y0.82100
X1.02600 Y0.82200
X1.02700 Y0.82200
X1.02700 Y0.82300
X1.02800 Y0.82300
X1.02800 Y0.82400
X1.02900 Y0.82400
X1.02900 Y0.82500
X1.03000 Y0.82500
X1.03000 Y0.82600
X1.03100 Y0.82600
X1.03100 Y0.82700
X1.03200 Y0.82700
X1.03200 Y0.82800
X1.03300 Y0.82800
X1.03300 Y0.82900
X1.03400 Y0.82900
X1.03400 Y0.83000
X1.03500 Y0.83000
X1.03500 Y0.83100
X1.03600 Y0.83100
X1.03600 Y0.83200
X1.03700 Y0.83200
X1.03700 Y0.83300
X1.03800 Y0.83300
X1.03800 Y0.83400
X1.03900 Y0.83400
X1.03900 Y0.83500
X1.04000 Y0.83500
X1.04000 Y0.83600
X1.04100 Y0.83600
X1.04100 Y0.83700
X1.04200 Y0.83700
X1.04200 Y0.83800
X1.04300 Y0.83800
X1.04300 Y0.83900
X1.04400 Y0.83900
X1.04400 Y0.84000
X1.04500 Y0.84000
X1.04500 Y0.84100
X1.04600 Y0.84100
X1.04600 Y0.84200
X1.04700 Y0.84200
X1.04700 Y0.84300
X1.04800 Y0.84300
X1.04800 Y0.84400
X1.04900 Y0.84400
X1.04900 Y0.84500
X1.05000 Y0.84500
X1.05000 Y0.84600
X1.05100 Y0.84600
X1.05100 Y0.84700
X1.05200 Y0.84700
X1.05200 Y0.84800
X1.05300 Y0.84800
X1.05300 Y0.84900
X1.05400 Y0.84900
X1.05400 Y0.85000
X1.05500 Y0.85000
X1.05500 Y0.85100
X1.05600 Y0.85100
X1.05600 Y0.85200
X1.05700 Y0.85200
X1.05700 Y0.85300
X1.05800 Y0.85300
X1.05800 Y0.85400
X1.05900 Y0.85400
X1.05900 Y0.85500
X1.06000 Y0.85500
X1.06000 Y0.85600
X1.06100 Y0.85600
X1.06100 Y0.85700
X1.06200 Y0.85700
X1.06200 Y0.85800
X1.06300 Y0.85800
X1.06300 Y0.85900
X1.06400 Y0.85900
X1.06400 Y0.86000
X1.06500 Y0.86000
X1.06500 Y0.86100
X1.06600 Y0.86100
X1.06600 Y0.86200
X1.06700 Y0.86200
X1.06700 Y0.86300
X1.06800 Y0.86300
X1.06800 Y0.86400
X1.06900 Y0.86400
X1.06900 Y0.86500
X1.07000 Y0.86500
X1.07000 Y0.86600
X1.07100 Y0.86600
X1.07100 Y0.86700
X1.07200 Y0.86700
X1.07200 Y0.86800
X1.07300 Y0.86800
X1.07300 Y0.86900
X1.07400 Y0.86900
X1.07400 Y0.87000
X1.07500 Y0.87000
X1.07500 Y0.87100
X1.07600 Y0.87100
X1.07600 Y0.87200
X1.07700 Y0.87200
X1.07700 Y0.87300
X1.07800 Y0.87300
X1.07800 Y0.87400
X1.07900 Y0.87400
X1.07900 Y0.87500
X1.08000 Y0.87500
X1.08000 Y0.87600
X1.08100 Y0.87600
X1.08100 Y0.87700
X1.08200 Y0.87700
X1.08200 Y0.87800
X1.08300 Y0.87800
X1.08300 Y0.87900
X1.08400 Y0.87900
X1.08400 Y0.88000
X1.08500 Y0.88000
X1.08500 Y0.88100
X1.08600 Y0.88100
X1.08600 Y0.88200
X1.08700 Y0.88200
X1.08700 Y0.88300
X1.08800 Y0.88300
X1.08800 Y0.88400
X1.08900 Y0.88400
X1.08900 Y0.88500
X1.09000 Y0.88500
X1.09000 Y0.88600
X1.09100 Y0.88600
X1.09100 Y0.88700
X1.09200 Y0.88700
X1.09200 Y0.88800
X1.09300 Y0.88800
X1.09300 Y0.88900
X1.09400 Y0.88900
X1.09400 Y0.89000
X1.09500 Y0.89000
X1.09500 Y0.89100
X1.09600 Y0.89100
X1.09600 Y0.89200
X1.09700 Y0.89200
X1.09700 Y0.89300
X1.09800 Y0.89300
X1.09800 Y0.89400
X1.09900 Y0.89400
X1.09900 Y0.89500
X1.10000 Y0.89500
X1.10000 Y0.89600
X1.10100 Y0.89600
X1.10100 Y0.89700
X1.10200 Y0.89700
X1.10200 Y0.89800
X1.10300 Y0.89800
X1.10300 Y0.89900
X1.10400 Y0.89900
X1.10400 Y0.90000
X1.10500 Y0.90000
X1.10500 Y0.90100
X1.10600 Y0.90100
X1.10600 Y0.90200
X1.10700 Y0.90200
X1.10700 Y0.90300
X1.10800 Y0.90300
X1.10800 Y0.90400
X1.10900 Y0.90400
X1.10900 Y0.90500
X1.11000 Y0.90500
X1.11000 Y0.90600
X1.11100 Y0.90600
X1.11100 Y0.90700
X1.11200 Y0.90700
X1.11200 Y0.90800
X1.11300 Y0.90800
X1.11300 Y0.90900
X1.11400 Y0.90900
X1.11400 Y0.91000
X1.11500 Y0.91000
X1.11500 Y0.91100
X1.11600 Y0.91100
X1.11600 Y0.91200
X1.11700 Y0.91200
X1.11700 Y0.91300
X1.11800 Y0.91300
X1.11800 Y0.91400
X1.11900 Y0.91400
X1.11900 Y0.91500
X1.12000 Y0.91500
X1.12000 Y0.91600
X1.12100 Y0.91600
X1.12100 Y0.91700
X1.12200 Y0.91700
X1.12200 Y0.91800
X1.12300 Y0.91800
X1.12300 Y0.91900
X1.12400 Y0.91900
X1.12400 Y0.92000
X1.12500 Y0.92000
X1.12500 Y0.92100
X1.12600 Y0.92100
X1.12600 Y0.92200
X1.12700 Y0.92200
X1.12700 Y0.92300
X1.12800 Y0.92300
X1.12800 Y0.92500
X1.12900 Y0.92500
X1.12900 Y0.92800
X1.13000 Y0.92800
X1.13000 Y1.27000
X1.12900 Y1.27000
X1.12900 Y1.27200
X1.12700 Y1.27200
X1.12700 Y1.27300
X1.12600 Y1.27300
X1.12600 Y1.27500
X1.12500 Y1.27500
X1.12500 Y1.27600
X1.12400 Y1.27600
X1.12400 Y1.27800
X1.12300 Y1.27800
X1.12300 Y1.28200
X1.12200 Y1.28200
X1.12200 Y1.29000
X1.12300 Y1.29000
X1.12300 Y1.29500
X1.12400 Y1.29500
X1.12400 Y1.29700
X1.12500 Y1.29700
X1.12500 Y1.29800
X1.12600 Y1.29800
X1.12600 Y1.29900
X1.12700 Y1.29900
X1.12700 Y1.30000
X1.12800 Y1.30000
X1.12800 Y1.30100
X1.12900 Y1.30100
X1.12900 Y1.30200
X1.13100 Y1.30200
X1.13100 Y1.30300
X1.13600 Y1.30300
X1.13600 Y1.30400
X1.13700 Y1.30400
X1.13700 Y1.30500
X1.13800 Y1.30500
X1.13800 Y1.30600
X1.13900 Y1.30600
X1.13900 Y1.30700
X1.14000 Y1.30700
X1.14000 Y1.31100
X1.13900 Y1.31100
X1.13900 Y1.31200
X1.13800 Y1.31200
X1.13800 Y1.31300
X1.13700 Y1.31300
X1.13700 Y1.31400
X1.09300 Y1.31400
X1.09300 Y1.31300
X1.09200 Y1.31300
X1.09200 Y1.31200
X1.09100 Y1.31200
X1.09100 Y1.31100
X1.08900 Y1.31100
X1.08900 Y1.31200
X1.08800 Y1.31200
X1.08800 Y1.31300
X1.08700 Y1.31300
X1.08700 Y1.31400
X0.93800 Y1.31400
X0.93800 Y1.31300
X0.93500 Y1.31300
X0.93500 Y1.31200
X0.93400 Y1.31200
X0.93400 Y1.31100
X0.93300 Y1.31100
X0.93300 Y1.31000
X0.93200 Y1.31000
X0.93200 Y1.30900
X0.93100 Y1.30900
X0.93100 Y1.30800
X0.93000 Y1.30800
X0.93000 Y1.30700
X0.92900 Y1.30700
X0.92900 Y1.30600
X0.92800 Y1.30600
X0.92800 Y1.30500
X0.92700 Y1.30500
X0.92700 Y1.30400
X0.92600 Y1.30400
X0.92600 Y1.30300
X0.92500 Y1.30300
X0.92500 Y1.30200
X0.92400 Y1.30200
X0.92400 Y1.30100
X0.92300 Y1.30100
X0.92300 Y1.30000
X0.92200 Y1.30000
X0.92200 Y1.29900
X0.92100 Y1.29900
X0.92100 Y1.29800
X0.92000 Y1.29800
X0.92000 Y1.29700
X0.91900 Y1.29700
X0.91900 Y1.29600
X0.91800 Y1.29600
X0.91800 Y1.29500
X0.91700 Y1.29500
X0.91700 Y1.29400
X0.91600 Y1.29400
X0.91600 Y1.29300
X0.91500 Y1.29300
X0.91500 Y1.29200
X0.91400 Y1.29200
X0.91400 Y1.29100
X0.91300 Y1.29100
X0.91300 Y1.29000
X0.91200 Y1.29000
X0.91200 Y1.28900
X0.91100 Y1.28900
X0.91100 Y1.28800
X0.91000 Y1.28800
X0.91000 Y1.28700
X0.90900 Y1.28700
X0.90900 Y1.28600
X0.90800 Y1.28600
X0.90800 Y1.28500
X0.90700 Y1.28500
X0.90700 Y1.28400
X0.90600 Y1.28400
X0.90600 Y1.28300
X0.90500 Y1.28300
X0.90500 Y1.28200
X0.90400 Y1.28200
X0.90400 Y1.28100
X0.90300 Y1.28100
X0.90300 Y1.28000
X0.90200 Y1.28000
X0.90200 Y1.27900
X0.90100 Y1.27900
X0.90100 Y1.27800
X0.90000 Y1.27800
X0.90000 Y1.27700
X0.89900 Y1.27700
X0.89900 Y1.27600
X0.89800 Y1.27600
X0.89800 Y1.27500
X0.89700 Y1.27500
X0.89700 Y1.27400
X0.89600 Y1.27400
X0.89600 Y1.27300
X0.89500 Y1.27300
X0.89500 Y1.27200
X0.89400 Y1.27200
X0.89400 Y1.27100
X0.89300 Y1.27100
X0.89300 Y1.27000
X0.89200 Y1.27000
X0.89200 Y1.26900
X0.89100 Y1.26900
X0.89100 Y1.26800
X0.89000 Y1.26800
X0.89000 Y1.26700
X0.88900 Y1.26700
X0.88900 Y1.26600
X0.88800 Y1.26600
X0.88800 Y1.26500
X0.88700 Y1.26500
X0.88700 Y1.26400
X0.88600 Y1.26400
X0.88600 Y1.26300
X0.88500 Y1.26300
X0.88500 Y1.26200
X0.88400 Y1.26200
X0.88400 Y1.26100
X0.88300 Y1.26100
X0.88300 Y1.26000
X0.88200 Y1.26000
X0.88200 Y1.25900
X0.88100 Y1.25900
X0.88100 Y1.25800
X0.88000 Y1.25800
X0.88000 Y1.25700
X0.87900 Y1.25700
X0.87900 Y1.25600
X0.87800 Y1.25600
X0.87800 Y1.25500
X0.87700 Y1.25500
X0.87700 Y1.25400
X0.87600 Y1.25400
X0.87600 Y1.25300
X0.87500 Y1.25300
X0.87500 Y1.25200
X0.87400 Y1.25200
X0.87400 Y1.25100
X0.87300 Y1.25100
X0.87300 Y1.25000
X0.87200 Y1.25000
X0.87200 Y1.24900
X0.87100 Y1.24900
X0.87100 Y1.24800
X0.87000 Y1.24800
X0.87000 Y1.24700
X0.86900 Y1.24700
X0.86900 Y1.24600
X0.86800 Y1.24600
X0.86800 Y1.24500
X0.86700 Y1.24500
X0.86700 Y1.24400
X0.86600 Y1.24400
X0.86600 Y1.24300
X0.86500 Y1.24300
X0.86500 Y1.24200
X0.86400 Y1.24200
X0.86400 Y1.24100
X0.86300 Y1.24100
X0.86300 Y1.24000
X0.86200 Y1.24000
X0.86200 Y1.23900
X0.86100 Y1.23900
X0.86100 Y1.23800
