( pcb2gcode 1.1.4 )

( This file uses 9 drill bit sizes. )

G94     ( Inches per minute feed rate. )
G20     ( Units == INCHES.             )
G90     ( Absolute coordinates.        )
S10000  ( RPM spindle speed.           )

G00 Z0.19685 ( Retract )
T71
M5      ( Spindle stop.                )
M6      ( Tool change.                 )
(MSG, CHANGE TOOL BIT: to drill size 0.03800 inch)
M0      ( Temporary machine stop.      )
M3      ( Spindle on clockwise.        )

G81 R0.19685 Z0.00000 F0.98425 X0.53500 Y1.11000
X0.53500 Y1.01000
X0.63500 Y1.11000
X0.63500 Y1.01000
X0.70000 Y1.67000
X0.70000 Y1.37500
X0.73500 Y1.11000
X0.73500 Y1.01000
X0.73520 Y0.74620
X0.73520 Y0.64620
X0.73520 Y0.54620
X0.73520 Y0.44620
X0.73520 Y0.34620
X0.80000 Y1.67000
X0.80000 Y1.37500
X0.83520 Y0.74620
X0.83520 Y0.64620
X0.83520 Y0.54620
X0.83520 Y0.44620
X0.83520 Y0.34620


G00 Z0.19685 ( Retract )
T72
M5      ( Spindle stop.                )
M6      ( Tool change.                 )
(MSG, CHANGE TOOL BIT: to drill size 0.03000 inch)
M0      ( Temporary machine stop.      )
M3      ( Spindle on clockwise.        )

G81 R0.19685 Z0.00000 F0.98425 X1.13500 Y1.07000
X1.33500 Y1.07000
X1.84800 Y1.61000
X1.84800 Y0.74400
X1.87520 Y0.12120
X1.92700 Y1.61000
X1.92700 Y0.74400
X2.00600 Y1.61000
X2.00600 Y0.74400
X2.07520 Y0.12120
X2.08500 Y1.61000
X2.08500 Y0.74400
X2.16400 Y1.61000
X2.16400 Y0.74400
X2.24300 Y1.61000
X2.24300 Y0.74400
X2.32200 Y1.61000
X2.32200 Y0.74400
X2.40100 Y1.61000
X2.40100 Y0.74400
X2.48000 Y1.61000
X2.48000 Y0.74400
X2.55900 Y1.61000
X2.55900 Y0.74400


G00 Z0.19685 ( Retract )
T73
M5      ( Spindle stop.                )
M6      ( Tool change.                 )
(MSG, CHANGE TOOL BIT: to drill size 0.05000 inch)
M0      ( Temporary machine stop.      )
M3      ( Spindle on clockwise.        )

G81 R0.19685 Z0.00000 F0.98425 X1.57500 Y1.47500
X2.44000 Y1.54500
X2.58500 Y1.16000


G00 Z0.19685 ( Retract )
T74
M5      ( Spindle stop.                )
M6      ( Tool change.                 )
(MSG, CHANGE TOOL BIT: to drill size 0.03500 inch)
M0      ( Temporary machine stop.      )
M3      ( Spindle on clockwise.        )

G81 R0.19685 Z0.00000 F0.98425 X0.83000 Y2.33500
X0.88000 Y2.43500
X0.93000 Y2.33500
X0.98000 Y2.43500
X1.03000 Y2.33500
X1.08000 Y2.43500
X1.13000 Y2.33500
X1.18000 Y2.43500
X1.35500 Y0.62000
X1.35500 Y0.52000
X1.35500 Y0.42000
X1.35500 Y0.32000
X1.45500 Y0.57000
X1.45500 Y0.47000
X1.45500 Y0.37000
X1.45500 Y0.27000
X1.55500 Y2.33500
X1.60500 Y2.43500
X1.65500 Y2.33500
X1.70500 Y2.43500
X1.75500 Y2.33500
X1.80500 Y2.43500
X1.85500 Y2.33500
X1.90500 Y2.43500
X2.28000 Y2.33500
X2.33000 Y2.43500
X2.38000 Y2.33500
X2.43000 Y2.43500
X2.48000 Y2.33500
X2.53000 Y2.43500
X2.58000 Y2.33500
X2.63000 Y2.43500


G00 Z0.19685 ( Retract )
T75
M5      ( Spindle stop.                )
M6      ( Tool change.                 )
(MSG, CHANGE TOOL BIT: to drill size 0.12800 inch)
M0      ( Temporary machine stop.      )
M3      ( Spindle on clockwise.        )

G81 R0.19685 Z0.00000 F0.98425 X0.78000 Y2.08500
X1.23000 Y2.08500
X1.50500 Y2.08500
X1.95500 Y2.08500
X2.23000 Y2.08500
X2.68000 Y2.08500


G00 Z0.19685 ( Retract )
T76
M5      ( Spindle stop.                )
M6      ( Tool change.                 )
(MSG, CHANGE TOOL BIT: to drill size 0.06300 inch)
M0      ( Temporary machine stop.      )
M3      ( Spindle on clockwise.        )

G81 R0.19685 Z0.00000 F0.98425 X0.69460 Y1.96490
X1.22510 Y0.75030
X1.22510 Y0.14010
X1.31460 Y1.96490
X1.41960 Y1.96490
X2.03960 Y1.96490
X2.14460 Y1.96490
X2.76460 Y1.96490


G00 Z0.19685 ( Retract )
T77
M5      ( Spindle stop.                )
M6      ( Tool change.                 )
(MSG, CHANGE TOOL BIT: to drill size 0.03900 inch)
M0      ( Temporary machine stop.      )
M3      ( Spindle on clockwise.        )

G81 R0.19685 Z0.00000 F0.98425 X0.94520 Y0.70620
X0.94520 Y0.60620
X0.94520 Y0.28420
X0.94520 Y0.18420


G00 Z0.19685 ( Retract )
T78
M5      ( Spindle stop.                )
M6      ( Tool change.                 )
(MSG, CHANGE TOOL BIT: to drill size 0.12600 inch)
M0      ( Temporary machine stop.      )
M3      ( Spindle on clockwise.        )

G81 R0.19685 Z0.00000 F0.98425 X1.10500 Y0.67000
X1.10500 Y0.22000


G00 Z0.19685 ( Retract )
T79
M5      ( Spindle stop.                )
M6      ( Tool change.                 )
(MSG, CHANGE TOOL BIT: to drill size 0.01300 inch)
M0      ( Temporary machine stop.      )
M3      ( Spindle on clockwise.        )

G81 R0.19685 Z0.00000 F0.98425 X0.42500 Y1.18500
X0.49000 Y1.34500
X0.55000 Y1.37500
X0.58000 Y1.21000
X0.68500 Y1.27500
X0.68500 Y1.20500
X0.69000 Y0.96000
X0.71500 Y1.61000
X0.79000 Y1.27500
X0.80000 Y1.83500
X0.81000 Y1.58600
X0.81000 Y1.52500
X0.81000 Y1.46400
X0.83500 Y1.04000
X0.86500 Y1.22000
X0.87500 Y1.49000
X0.90000 Y1.44000
X0.91500 Y0.66000
X0.93500 Y1.33500
X0.93500 Y1.20500
X0.94000 Y1.56000
X0.94500 Y1.41000
X0.94520 Y0.48120
X0.95500 Y2.29000
X0.95500 Y2.17500
X0.96000 Y1.37500
X0.97500 Y1.16500
X0.98000 Y2.09000
X0.98000 Y1.96500
X1.00020 Y0.12620
X1.00500 Y2.29000
X1.03000 Y2.09000
X1.03350 Y1.44000
X1.03350 Y1.40500
X1.03500 Y1.60000
X1.03500 Y1.04000
X1.05500 Y2.29000
X1.05500 Y2.17500
X1.06000 Y1.71000
X1.07500 Y1.96500
X1.08350 Y1.61400
X1.09500 Y1.50000
X1.09520 Y0.57120
X1.11350 Y1.20000
X1.11750 Y1.61400
X1.14850 Y1.20000
X1.15150 Y1.61400
X1.15500 Y0.76000
X1.18500 Y1.20000
X1.20000 Y1.49500
X1.21500 Y1.36000
X1.23500 Y1.03000
X1.27500 Y1.72000
X1.29520 Y0.25620
X1.30020 Y0.47120
X1.30500 Y1.58000
X1.31020 Y0.12120
X1.31500 Y1.82500
X1.31520 Y0.67120
X1.33500 Y1.20000
X1.33520 Y0.18120
X1.34000 Y1.39000
X1.34520 Y0.12620
X1.35000 Y1.47500
X1.37000 Y1.36000
X1.37000 Y1.20000
X1.40000 Y1.33000
X1.40500 Y1.61000
X1.44000 Y1.33000
X1.44500 Y1.66000
X1.44850 Y1.28000
X1.45000 Y1.23500
X1.46020 Y0.71620
X1.52500 Y1.83500
X1.55020 Y0.52120
X1.55020 Y0.37620
X1.55020 Y0.33120
X1.55020 Y0.26120
X1.57500 Y1.57500
X1.58000 Y1.33000
X1.60000 Y1.62500
X1.60000 Y1.12500
X1.60020 Y0.52120
X1.65000 Y1.70000
X1.66000 Y1.48500
X1.66000 Y1.37500
X1.66000 Y1.28500
X1.68000 Y2.29000
X1.68000 Y2.17500
X1.70000 Y1.70000
X1.70000 Y1.56000
X1.70020 Y0.52120
X1.70020 Y0.26120
X1.70500 Y2.09000
X1.70500 Y1.96500
X1.70500 Y1.37500
X1.70500 Y1.28500
X1.73000 Y2.29000
X1.75000 Y1.70000
X1.75000 Y1.56000
X1.75000 Y1.45500
X1.75000 Y1.37500
X1.75000 Y1.28500
X1.75020 Y0.52120
X1.75020 Y0.33120
X1.75020 Y0.26120
X1.75500 Y2.09000
X1.77520 Y0.46620
X1.78000 Y2.29000
X1.78000 Y2.17500
X1.80000 Y1.96500
X1.80000 Y1.70000
X1.80000 Y1.56000
X1.80000 Y1.45500
X1.80000 Y1.37500
X1.80000 Y1.28500
X1.80020 Y0.52120
X1.80020 Y0.33120
X1.80020 Y0.26120
X1.85020 Y0.26120
X1.89000 Y1.50500
X1.90000 Y1.70000
X1.90020 Y0.52120
X1.90020 Y0.26120
X1.95000 Y1.70000
X1.95020 Y0.33120
X1.95020 Y0.26120
X1.99500 Y0.87000
X2.00000 Y1.70000
X2.00020 Y0.33120
X2.00020 Y0.26120
X2.04500 Y1.58000
X2.04500 Y0.78500
X2.05000 Y1.06000
X2.05000 Y0.91000
X2.05020 Y0.33120
X2.05020 Y0.26120
X2.09000 Y0.49000
X2.10020 Y0.26120
X2.12500 Y0.95000
X2.12500 Y0.86000
X2.14500 Y1.80980
X2.15020 Y0.52120
X2.15020 Y0.26120
X2.17000 Y2.42500
X2.18500 Y1.43500
X2.20020 Y0.52120
X2.20020 Y0.42120
X2.20020 Y0.33120
X2.20020 Y0.26120
X2.21500 Y1.46500
X2.22500 Y2.26000
X2.22500 Y1.81000
X2.25000 Y1.13500
X2.26000 Y1.81100
X2.28000 Y1.57500
X2.30500 Y2.28500
X2.32500 Y1.80500
X2.34500 Y1.53000
X2.34500 Y1.49000
X2.35500 Y2.28500
X2.37000 Y2.08000
X2.43000 Y2.08000
X2.45500 Y2.28500
X2.48000 Y2.08000
X2.50500 Y2.28500
X2.52000 Y1.14000
X2.54000 Y2.08000
X2.55000 Y1.70000
X2.57000 Y1.53000
X2.57000 Y1.48000
X2.57000 Y1.43000
X2.57000 Y1.33000
X2.57000 Y1.28000
X2.57000 Y1.23000
X2.60500 Y2.28500
X2.62000 Y1.75000
X2.62500 Y1.59500
X2.65000 Y1.43000
X2.65000 Y1.33000
X2.65500 Y2.28500
X2.65500 Y1.79500
X2.68500 Y2.26000


G00 Z0.19685 ( All done -- retract )

M9 ( Coolant off. )
M2 ( Program end. )

