( pcb2gcode 1.1.4 )

( This file uses 9 drill bit sizes. )

G94     ( Inches per minute feed rate. )
G20     ( Units == INCHES.             )
G90     ( Absolute coordinates.        )
S10000  ( RPM spindle speed.           )

G00 Z0.19685 ( Retract )
T71
M5      ( Spindle stop.                )
M6      ( Tool change.                 )
(MSG, CHANGE TOOL BIT: to drill size 0.03800 inch)
M0      ( Temporary machine stop.      )
M3      ( Spindle on clockwise.        )

G81 R0.19685 Z0.00000 F0.98425 X0.53500 Y3.11000
X0.53500 Y3.01000
X0.63500 Y3.11000
X0.63500 Y3.01000
X0.70000 Y3.67000
X0.70000 Y3.37500
X0.73500 Y3.11000
X0.73500 Y3.01000
X0.73520 Y2.74620
X0.73520 Y2.64620
X0.73520 Y2.54620
X0.73520 Y2.44620
X0.73520 Y2.34620
X0.80000 Y3.67000
X0.80000 Y3.37500
X0.83520 Y2.74620
X0.83520 Y2.64620
X0.83520 Y2.54620
X0.83520 Y2.44620
X0.83520 Y2.34620


G00 Z0.19685 ( Retract )
T72
M5      ( Spindle stop.                )
M6      ( Tool change.                 )
(MSG, CHANGE TOOL BIT: to drill size 0.03000 inch)
M0      ( Temporary machine stop.      )
M3      ( Spindle on clockwise.        )

G81 R0.19685 Z0.00000 F0.98425 X1.13500 Y3.07000
X1.33500 Y3.07000
X1.84800 Y3.61000
X1.84800 Y2.74400
X1.87520 Y2.12120
X1.92700 Y3.61000
X1.92700 Y2.74400
X2.00600 Y3.61000
X2.00600 Y2.74400
X2.07520 Y2.12120
X2.08500 Y3.61000
X2.08500 Y2.74400
X2.16400 Y3.61000
X2.16400 Y2.74400
X2.24300 Y3.61000
X2.24300 Y2.74400
X2.32200 Y3.61000
X2.32200 Y2.74400
X2.40100 Y3.61000
X2.40100 Y2.74400
X2.48000 Y3.61000
X2.48000 Y2.74400
X2.55900 Y3.61000
X2.55900 Y2.74400


G00 Z0.19685 ( Retract )
T73
M5      ( Spindle stop.                )
M6      ( Tool change.                 )
(MSG, CHANGE TOOL BIT: to drill size 0.05000 inch)
M0      ( Temporary machine stop.      )
M3      ( Spindle on clockwise.        )

G81 R0.19685 Z0.00000 F0.98425 X1.57500 Y3.47500
X2.44000 Y3.54500
X2.58500 Y3.16000


G00 Z0.19685 ( Retract )
T74
M5      ( Spindle stop.                )
M6      ( Tool change.                 )
(MSG, CHANGE TOOL BIT: to drill size 0.03500 inch)
M0      ( Temporary machine stop.      )
M3      ( Spindle on clockwise.        )

G81 R0.19685 Z0.00000 F0.98425 X0.83000 Y4.33500
X0.88000 Y4.43500
X0.93000 Y4.33500
X0.98000 Y4.43500
X1.03000 Y4.33500
X1.08000 Y4.43500
X1.13000 Y4.33500
X1.18000 Y4.43500
X1.35500 Y2.62000
X1.35500 Y2.52000
X1.35500 Y2.42000
X1.35500 Y2.32000
X1.45500 Y2.57000
X1.45500 Y2.47000
X1.45500 Y2.37000
X1.45500 Y2.27000
X1.55500 Y4.33500
X1.60500 Y4.43500
X1.65500 Y4.33500
X1.70500 Y4.43500
X1.75500 Y4.33500
X1.80500 Y4.43500
X1.85500 Y4.33500
X1.90500 Y4.43500
X2.28000 Y4.33500
X2.33000 Y4.43500
X2.38000 Y4.33500
X2.43000 Y4.43500
X2.48000 Y4.33500
X2.53000 Y4.43500
X2.58000 Y4.33500
X2.63000 Y4.43500


G00 Z0.19685 ( Retract )
T75
M5      ( Spindle stop.                )
M6      ( Tool change.                 )
(MSG, CHANGE TOOL BIT: to drill size 0.12800 inch)
M0      ( Temporary machine stop.      )
M3      ( Spindle on clockwise.        )

G81 R0.19685 Z0.00000 F0.98425 X0.78000 Y4.08500
X1.23000 Y4.08500
X1.50500 Y4.08500
X1.95500 Y4.08500
X2.23000 Y4.08500
X2.68000 Y4.08500


G00 Z0.19685 ( Retract )
T76
M5      ( Spindle stop.                )
M6      ( Tool change.                 )
(MSG, CHANGE TOOL BIT: to drill size 0.06300 inch)
M0      ( Temporary machine stop.      )
M3      ( Spindle on clockwise.        )

G81 R0.19685 Z0.00000 F0.98425 X0.69460 Y3.96490
X1.22510 Y2.75030
X1.22510 Y2.14010
X1.31460 Y3.96490
X1.41960 Y3.96490
X2.03960 Y3.96490
X2.14460 Y3.96490
X2.76460 Y3.96490


G00 Z0.19685 ( Retract )
T77
M5      ( Spindle stop.                )
M6      ( Tool change.                 )
(MSG, CHANGE TOOL BIT: to drill size 0.03900 inch)
M0      ( Temporary machine stop.      )
M3      ( Spindle on clockwise.        )

G81 R0.19685 Z0.00000 F0.98425 X0.94520 Y2.70620
X0.94520 Y2.60620
X0.94520 Y2.28420
X0.94520 Y2.18420


G00 Z0.19685 ( Retract )
T78
M5      ( Spindle stop.                )
M6      ( Tool change.                 )
(MSG, CHANGE TOOL BIT: to drill size 0.12600 inch)
M0      ( Temporary machine stop.      )
M3      ( Spindle on clockwise.        )

G81 R0.19685 Z0.00000 F0.98425 X1.10500 Y2.67000
X1.10500 Y2.22000


G00 Z0.19685 ( Retract )
T79
M5      ( Spindle stop.                )
M6      ( Tool change.                 )
(MSG, CHANGE TOOL BIT: to drill size 0.01300 inch)
M0      ( Temporary machine stop.      )
M3      ( Spindle on clockwise.        )

G81 R0.19685 Z0.00000 F0.98425 X0.42500 Y3.18500
X0.49000 Y3.34500
X0.55000 Y3.37500
X0.58000 Y3.21000
X0.68500 Y3.27500
X0.68500 Y3.20500
X0.69000 Y2.96000
X0.71500 Y3.61000
X0.79000 Y3.27500
X0.80000 Y3.83500
X0.81000 Y3.58600
X0.81000 Y3.52500
X0.81000 Y3.46400
X0.83500 Y3.04000
X0.86500 Y3.22000
X0.87500 Y3.49000
X0.90000 Y3.44000
X0.91500 Y2.66000
X0.93500 Y3.33500
X0.93500 Y3.20500
X0.94000 Y3.56000
X0.94500 Y3.41000
X0.94520 Y2.48120
X0.95500 Y4.29000
X0.95500 Y4.17500
X0.96000 Y3.37500
X0.97500 Y3.16500
X0.98000 Y4.09000
X0.98000 Y3.96500
X1.00020 Y2.12620
X1.00500 Y4.29000
X1.03000 Y4.09000
X1.03350 Y3.44000
X1.03350 Y3.40500
X1.03500 Y3.60000
X1.03500 Y3.04000
X1.05500 Y4.29000
X1.05500 Y4.17500
X1.06000 Y3.71000
X1.07500 Y3.96500
X1.08350 Y3.61400
X1.09500 Y3.50000
X1.09520 Y2.57120
X1.11350 Y3.20000
X1.11750 Y3.61400
X1.14850 Y3.20000
X1.15150 Y3.61400
X1.15500 Y2.76000
X1.18500 Y3.20000
X1.20000 Y3.49500
X1.21500 Y3.36000
X1.23500 Y3.03000
X1.27500 Y3.72000
X1.29520 Y2.25620
X1.30020 Y2.47120
X1.30500 Y3.58000
X1.31020 Y2.12120
X1.31500 Y3.82500
X1.31520 Y2.67120
X1.33500 Y3.20000
X1.33520 Y2.18120
X1.34000 Y3.39000
X1.34520 Y2.12620
X1.35000 Y3.47500
X1.37000 Y3.36000
X1.37000 Y3.20000
X1.40000 Y3.33000
X1.40500 Y3.61000
X1.44000 Y3.33000
X1.44500 Y3.66000
X1.44850 Y3.28000
X1.45000 Y3.23500
X1.46020 Y2.71620
X1.52500 Y3.83500
X1.55020 Y2.52120
X1.55020 Y2.37620
X1.55020 Y2.33120
X1.55020 Y2.26120
X1.57500 Y3.57500
X1.58000 Y3.33000
X1.60000 Y3.62500
X1.60000 Y3.12500
X1.60020 Y2.52120
X1.65000 Y3.70000
X1.66000 Y3.48500
X1.66000 Y3.37500
X1.66000 Y3.28500
X1.68000 Y4.29000
X1.68000 Y4.17500
X1.70000 Y3.70000
X1.70000 Y3.56000
X1.70020 Y2.52120
X1.70020 Y2.26120
X1.70500 Y4.09000
X1.70500 Y3.96500
X1.70500 Y3.37500
X1.70500 Y3.28500
X1.73000 Y4.29000
X1.75000 Y3.70000
X1.75000 Y3.56000
X1.75000 Y3.45500
X1.75000 Y3.37500
X1.75000 Y3.28500
X1.75020 Y2.52120
X1.75020 Y2.33120
X1.75020 Y2.26120
X1.75500 Y4.09000
X1.77520 Y2.46620
X1.78000 Y4.29000
X1.78000 Y4.17500
X1.80000 Y3.96500
X1.80000 Y3.70000
X1.80000 Y3.56000
X1.80000 Y3.45500
X1.80000 Y3.37500
X1.80000 Y3.28500
X1.80020 Y2.52120
X1.80020 Y2.33120
X1.80020 Y2.26120
X1.85020 Y2.26120
X1.89000 Y3.50500
X1.90000 Y3.70000
X1.90020 Y2.52120
X1.90020 Y2.26120
X1.95000 Y3.70000
X1.95020 Y2.33120
X1.95020 Y2.26120
X1.99500 Y2.87000
X2.00000 Y3.70000
X2.00020 Y2.33120
X2.00020 Y2.26120
X2.04500 Y3.58000
X2.04500 Y2.78500
X2.05000 Y3.06000
X2.05000 Y2.91000
X2.05020 Y2.33120
X2.05020 Y2.26120
X2.09000 Y2.49000
X2.10020 Y2.26120
X2.12500 Y2.95000
X2.12500 Y2.86000
X2.14500 Y3.80980
X2.15020 Y2.52120
X2.15020 Y2.26120
X2.17000 Y4.42500
X2.18500 Y3.43500
X2.20020 Y2.52120
X2.20020 Y2.42120
X2.20020 Y2.33120
X2.20020 Y2.26120
X2.21500 Y3.46500
X2.22500 Y4.26000
X2.22500 Y3.81000
X2.25000 Y3.13500
X2.26000 Y3.81100
X2.28000 Y3.57500
X2.30500 Y4.28500
X2.32500 Y3.80500
X2.34500 Y3.53000
X2.34500 Y3.49000
X2.35500 Y4.28500
X2.37000 Y4.08000
X2.43000 Y4.08000
X2.45500 Y4.28500
X2.48000 Y4.08000
X2.50500 Y4.28500
X2.52000 Y3.14000
X2.54000 Y4.08000
X2.55000 Y3.70000
X2.57000 Y3.53000
X2.57000 Y3.48000
X2.57000 Y3.43000
X2.57000 Y3.33000
X2.57000 Y3.28000
X2.57000 Y3.23000
X2.60500 Y4.28500
X2.62000 Y3.75000
X2.62500 Y3.59500
X2.65000 Y3.43000
X2.65000 Y3.33000
X2.65500 Y4.28500
X2.65500 Y3.79500
X2.68500 Y4.26000


G00 Z0.19685 ( All done -- retract )

M9 ( Coolant off. )
M2 ( Program end. )

