( pcb2gcode 1.1.4 )

G94     ( Inches per minute feed rate. )
G20     ( Units == INCHES.             )
G90     ( Absolute coordinates.        )
S10000  ( RPM spindle speed.           )
M3      ( Spindle on clockwise.        )

G64 P0.00500 ( set maximum deviation from commanded toolpath )

G04 P0 ( dwell for no time -- G64 should not smooth over this point )
G00 Z0.19685 ( retract )

G00 X2.88900 Y2.48800 ( rapid move to begin. )
G01 Z0.00000 F0.19685 ( plunge. )
G04 P0 ( dwell for no time -- G64 should not smooth over this point )
X2.88900 Y2.48800
X2.88900 Y0.07000
X2.88800 Y0.07000
X2.88800 Y0.06900
X2.88700 Y0.06900
X2.88700 Y0.06800
X0.62900 Y0.06800
X0.62900 Y0.06900
X0.62800 Y0.06900
X0.62800 Y0.07000
X0.62700 Y0.07000
X0.62700 Y0.87500
X0.62600 Y0.87500
X0.62600 Y0.87600
X0.62500 Y0.87600
X0.62500 Y0.87700
X0.62400 Y0.87700
X0.62400 Y0.87800
X0.62300 Y0.87800
X0.62300 Y0.87900
X0.62200 Y0.87900
X0.62200 Y0.88000
X0.62100 Y0.88000
X0.62100 Y0.88100
X0.62000 Y0.88100
X0.62000 Y0.88200
X0.61900 Y0.88200
X0.61900 Y0.88300
X0.61800 Y0.88300
X0.61800 Y0.88400
X0.61700 Y0.88400
X0.61700 Y0.88500
X0.61600 Y0.88500
X0.61600 Y0.88600
X0.61500 Y0.88600
X0.61500 Y0.88700
X0.61400 Y0.88700
X0.61400 Y0.88800
X0.61300 Y0.88800
X0.61300 Y0.88900
X0.61200 Y0.88900
X0.61200 Y0.89000
X0.61100 Y0.89000
X0.61100 Y0.89100
X0.61000 Y0.89100
X0.61000 Y0.89200
X0.60900 Y0.89200
X0.60900 Y0.89300
X0.60800 Y0.89300
X0.60800 Y0.89400
X0.60700 Y0.89400
X0.60700 Y0.89500
X0.60600 Y0.89500
X0.60600 Y0.89600
X0.60500 Y0.89600
X0.60500 Y0.89700
X0.60400 Y0.89700
X0.60400 Y0.89800
X0.60300 Y0.89800
X0.60300 Y0.89900
X0.60200 Y0.89900
X0.60200 Y0.90000
X0.60100 Y0.90000
X0.60100 Y0.90100
X0.60000 Y0.90100
X0.60000 Y0.90200
X0.59900 Y0.90200
X0.59900 Y0.90300
X0.59800 Y0.90300
X0.59800 Y0.90400
X0.59700 Y0.90400
X0.59700 Y0.90500
X0.59600 Y0.90500
X0.59600 Y0.90600
X0.59500 Y0.90600
X0.59500 Y0.90700
X0.59400 Y0.90700
X0.59400 Y0.90800
X0.59300 Y0.90800
X0.59300 Y0.90900
X0.59200 Y0.90900
X0.59200 Y0.91000
X0.59100 Y0.91000
X0.59100 Y0.91100
X0.59000 Y0.91100
X0.59000 Y0.91200
X0.58900 Y0.91200
X0.58900 Y0.91300
X0.58800 Y0.91300
X0.58800 Y0.91400
X0.58700 Y0.91400
X0.58700 Y0.91500
X0.58600 Y0.91500
X0.58600 Y0.91600
X0.58500 Y0.91600
X0.58500 Y0.91700
X0.58400 Y0.91700
X0.58400 Y0.91800
X0.58300 Y0.91800
X0.58300 Y0.91900
X0.58200 Y0.91900
X0.58200 Y0.92000
X0.58100 Y0.92000
X0.58100 Y0.92100
X0.58000 Y0.92100
X0.58000 Y0.92200
X0.57900 Y0.92200
X0.57900 Y0.92300
X0.57800 Y0.92300
X0.57800 Y0.92400
X0.57700 Y0.92400
X0.57700 Y0.92500
X0.57600 Y0.92500
X0.57600 Y0.92600
X0.57500 Y0.92600
X0.57500 Y0.92700
X0.57400 Y0.92700
X0.57400 Y0.92800
X0.57300 Y0.92800
X0.57300 Y0.92900
X0.57200 Y0.92900
X0.57200 Y0.93000
X0.57100 Y0.93000
X0.57100 Y0.93100
X0.57000 Y0.93100
X0.57000 Y0.93200
X0.56900 Y0.93200
X0.56900 Y0.93300
X0.56800 Y0.93300
X0.56800 Y0.93400
X0.56700 Y0.93400
X0.56700 Y0.93500
X0.56600 Y0.93500
X0.56600 Y0.93600
X0.56500 Y0.93600
X0.56500 Y0.93700
X0.56400 Y0.93700
X0.56400 Y0.93800
X0.56300 Y0.93800
X0.56300 Y0.93900
X0.56200 Y0.93900
X0.56200 Y0.94000
X0.56100 Y0.94000
X0.56100 Y0.94100
X0.56000 Y0.94100
X0.56000 Y0.94200
X0.55900 Y0.94200
X0.55900 Y0.94300
X0.55800 Y0.94300
X0.55800 Y0.94400
X0.55700 Y0.94400
X0.55700 Y0.94500
X0.55600 Y0.94500
X0.55600 Y0.94600
X0.55500 Y0.94600
X0.55500 Y0.94700
X0.55400 Y0.94700
X0.55400 Y0.94800
X0.55300 Y0.94800
X0.55300 Y0.94900
X0.55200 Y0.94900
X0.55200 Y0.95000
X0.55100 Y0.95000
X0.55100 Y0.95100
X0.55000 Y0.95100
X0.55000 Y0.95200
X0.54900 Y0.95200
X0.54900 Y0.95300
X0.00400 Y0.95300
X0.00400 Y0.95400
X0.00300 Y0.95400
X0.00300 Y0.95500
X0.00200 Y0.95500
X0.00200 Y1.44300
X0.00300 Y1.44300
X0.00300 Y1.44400
X0.00400 Y1.44400
X0.00400 Y1.44500
X0.54400 Y1.44500
X0.54400 Y1.44600
X0.54500 Y1.44600
X0.54500 Y1.44700
X0.54600 Y1.44700
X0.54600 Y1.44800
X0.54700 Y1.44800
X0.54700 Y1.44900
X0.54800 Y1.44900
X0.54800 Y1.45000
X0.54900 Y1.45000
X0.54900 Y1.45100
X0.55000 Y1.45100
X0.55000 Y1.45200
X0.55100 Y1.45200
X0.55100 Y1.45300
X0.55200 Y1.45300
X0.55200 Y1.45400
X0.55300 Y1.45400
X0.55300 Y1.45500
X0.55400 Y1.45500
X0.55400 Y1.45600
X0.55500 Y1.45600
X0.55500 Y1.45700
X0.55600 Y1.45700
X0.55600 Y1.45800
X0.55700 Y1.45800
X0.55700 Y1.45900
X0.55800 Y1.45900
X0.55800 Y1.46000
X0.55900 Y1.46000
X0.55900 Y1.46100
X0.56000 Y1.46100
X0.56000 Y1.46200
X0.56100 Y1.46200
X0.56100 Y1.46300
X0.56200 Y1.46300
X0.56200 Y1.46400
X0.56300 Y1.46400
X0.56300 Y1.46500
X0.56400 Y1.46500
X0.56400 Y1.46600
X0.56500 Y1.46600
X0.56500 Y1.46700
X0.56600 Y1.46700
X0.56600 Y1.46800
X0.56700 Y1.46800
X0.56700 Y1.46900
X0.56800 Y1.46900
X0.56800 Y1.47000
X0.56900 Y1.47000
X0.56900 Y1.47100
X0.57000 Y1.47100
X0.57000 Y1.47200
X0.57100 Y1.47200
X0.57100 Y1.47300
X0.57200 Y1.47300
X0.57200 Y1.47400
X0.57300 Y1.47400
X0.57300 Y1.47500
X0.57400 Y1.47500
X0.57400 Y1.47600
X0.57500 Y1.47600
X0.57500 Y1.47700
X0.57600 Y1.47700
X0.57600 Y1.47800
X0.57700 Y1.47800
X0.57700 Y1.47900
X0.57800 Y1.47900
X0.57800 Y1.48000
X0.57900 Y1.48000
X0.57900 Y1.48100
X0.58000 Y1.48100
X0.58000 Y1.48200
X0.58100 Y1.48200
X0.58100 Y1.48300
X0.58200 Y1.48300
X0.58200 Y1.48400
X0.58300 Y1.48400
X0.58300 Y1.48500
X0.58400 Y1.48500
X0.58400 Y1.48600
X0.58500 Y1.48600
X0.58500 Y1.48700
X0.58600 Y1.48700
X0.58600 Y1.48800
X0.58700 Y1.48800
X0.58700 Y1.48900
X0.58800 Y1.48900
X0.58800 Y1.49000
X0.58900 Y1.49000
X0.58900 Y1.49100
X0.59000 Y1.49100
X0.59000 Y1.49200
X0.59100 Y1.49200
X0.59100 Y1.49300
X0.59200 Y1.49300
X0.59200 Y1.49400
X0.59300 Y1.49400
X0.59300 Y1.49500
X0.59400 Y1.49500
X0.59400 Y1.49600
X0.59500 Y1.49600
X0.59500 Y1.49700
X0.59600 Y1.49700
X0.59600 Y1.49800
X0.59700 Y1.49800
X0.59700 Y1.49900
X0.59800 Y1.49900
X0.59800 Y1.50000
X0.59900 Y1.50000
X0.59900 Y1.50100
X0.60000 Y1.50100
X0.60000 Y1.50200
X0.60100 Y1.50200
X0.60100 Y1.50300
X0.60200 Y1.50300
X0.60200 Y1.50400
X0.60300 Y1.50400
X0.60300 Y1.50500
X0.60400 Y1.50500
X0.60400 Y1.50600
X0.60500 Y1.50600
X0.60500 Y1.50700
X0.60600 Y1.50700
X0.60600 Y1.50800
X0.60700 Y1.50800
X0.60700 Y1.50900
X0.60800 Y1.50900
X0.60800 Y1.51000
X0.60900 Y1.51000
X0.60900 Y1.51100
X0.61000 Y1.51100
X0.61000 Y1.51200
X0.61100 Y1.51200
X0.61100 Y1.51300
X0.61200 Y1.51300
X0.61200 Y1.51400
X0.61300 Y1.51400
X0.61300 Y1.51500
X0.61400 Y1.51500
X0.61400 Y1.51600
X0.61500 Y1.51600
X0.61500 Y1.51700
X0.61600 Y1.51700
X0.61600 Y1.51800
X0.61700 Y1.51800
X0.61700 Y1.51900
X0.61800 Y1.51900
X0.61800 Y1.52000
X0.61900 Y1.52000
X0.61900 Y1.52100
X0.62000 Y1.52100
X0.62000 Y1.52200
X0.62100 Y1.52200
X0.62100 Y1.52300
X0.62200 Y1.52300
X0.62200 Y1.52400
X0.62300 Y1.52400
X0.62300 Y1.52500
X0.62400 Y1.52500
X0.62400 Y1.52600
X0.62500 Y1.52600
X0.62500 Y1.52700
X0.62600 Y1.52700
X0.62600 Y1.52800
X0.62700 Y1.52800
X0.62700 Y2.50300
X0.62800 Y2.50300
X0.62800 Y2.50400
X0.62900 Y2.50400
X0.62900 Y2.50500
X2.88700 Y2.50500
X2.88700 Y2.50400
X2.88800 Y2.50400
X2.88800 Y2.50300
X2.88900 Y2.50300
X2.88900 Y2.48800

G04 P0 ( dwell for no time -- G64 should not smooth over this point )
G00 Z0.19685 ( retract )

M9 ( Coolant off. )
M2 ( Program end. )

